( Made using CamBam - http://www.cambam.co.uk )
( hip_bass_drum 11/6/2014 8:38:53 PM )
( T3 : 3.175 )
( T10 : 0.0 )
G21 G90 G61 G40
G0 Z3.0
( T10 : 0.0 )
T10 M6
( lettering )
G17
M3 S1000
G0 X7.0505 Y121.227
G0 Z0.405
G1 F1000.0 Z-0.005
G1 F2000.0 X5.272 Y115.7163
G1 X7.0505 Y121.227
G0 Z3.0
G0 X8.8775 Y120.6164
G0 Z0.405
G1 F1000.0 Z-0.005
G2 F2000.0 X8.8907 Y120.6435 I0.1078 J-0.036
G2 X8.9144 Y120.6691 I0.0903 J-0.0599
G2 X8.9464 Y120.686 I0.0637 J-0.0815
G2 X8.9792 Y120.6909 I0.031 J-0.096
G2 X9.0121 Y120.6871 I0.0114 J-0.0463
G2 X9.0308 Y120.6707 I-0.0232 J-0.0453
G2 X9.0402 Y120.64 I-0.045 J-0.0306
G2 X9.0336 Y120.6139 I-0.054 J-0.0001
G2 X9.0293 Y120.6074 I-0.0458 J0.0252
G2 X9.0084 Y120.5688 I-0.1329 J0.0472
G2 X8.9959 Y120.5547 I-0.1088 J0.0833
G2 X8.9698 Y120.5363 I-0.0639 J0.0631
G2 X8.9291 Y120.5283 I-0.0365 J0.0783
G2 X8.8966 Y120.5334 I-0.0088 J0.05
G2 X8.8774 Y120.5506 I0.0255 J0.0478
G2 X8.8749 Y120.5547 I0.0462 J0.0317
G2 Y120.6074 I0.081 J0.0264
G2 X8.8775 Y120.6164 I0.1104 J-0.027
G2 X8.8907 Y120.6435 I0.1078 J-0.036
G2 X8.9144 Y120.6691 I0.0903 J-0.0599
G2 X8.9464 Y120.686 I0.0637 J-0.0815
G2 X8.9792 Y120.6909 I0.031 J-0.096
G2 X9.0121 Y120.6871 I0.0114 J-0.0463
G2 X9.0308 Y120.6707 I-0.0232 J-0.0453
G2 X9.0402 Y120.64 I-0.045 J-0.0306
G2 X9.0336 Y120.6139 I-0.054 J-0.0001
G2 X9.0293 Y120.6074 I-0.0458 J0.0252
G2 X9.0084 Y120.5688 I-0.1329 J0.0472
G2 X8.9959 Y120.5547 I-0.1088 J0.0833
G2 X8.9698 Y120.5363 I-0.0639 J0.0631
G2 X8.9291 Y120.5283 I-0.0365 J0.0783
G2 X8.8966 Y120.5334 I-0.0088 J0.05
G2 X8.8774 Y120.5506 I0.0255 J0.0478
G2 X8.8749 Y120.5547 I0.0462 J0.0317
G2 Y120.6074 I0.081 J0.0264
G2 X8.8775 Y120.6164 I0.1104 J-0.027
G3 X8.8749 Y120.6074 I0.1101 J-0.0368
G3 Y120.5547 I0.081 J-0.0264
G3 X8.889 Y120.5383 I0.0473 J0.0265
G3 X8.9107 Y120.5284 I0.0314 J0.0404
G3 X8.9291 Y120.5283 I0.0095 J0.0493
G3 X8.9729 Y120.5378 I0.004 J0.0872
G3 X8.9959 Y120.5547 I-0.0418 J0.0813
G3 X9.0244 Y120.5954 I-0.0994 J0.0998
G3 X9.0293 Y120.6074 I-0.1309 J0.0605
G3 X9.0326 Y120.668 I-0.0756 J0.0344
G3 X9.0159 Y120.6832 I-0.0471 J-0.0347
G3 X8.9881 Y120.6914 I-0.0291 J-0.0474
G3 X8.9792 Y120.6909 I-0.0013 J-0.0552
G3 X8.932 Y120.6801 I-0.0016 J-0.1021
G3 X8.9003 Y120.6558 I0.0483 J-0.0958
G3 X8.8778 Y120.6174 I0.0849 J-0.0755
G3 X8.8775 Y120.6164 I0.1097 J-0.0378
G3 X8.8749 Y120.6074 I0.1101 J-0.0368
G3 Y120.5547 I0.081 J-0.0264
G3 X8.889 Y120.5383 I0.0473 J0.0265
G3 X8.9107 Y120.5284 I0.0314 J0.0404
G3 X8.9291 Y120.5283 I0.0095 J0.0493
G3 X8.9729 Y120.5378 I0.004 J0.0872
G3 X8.9959 Y120.5547 I-0.0418 J0.0813
G3 X9.0244 Y120.5954 I-0.0994 J0.0998
G3 X9.0293 Y120.6074 I-0.1309 J0.0605
G3 X9.0326 Y120.668 I-0.0756 J0.0344
G3 X9.0159 Y120.6832 I-0.0471 J-0.0347
G3 X8.9881 Y120.6914 I-0.0291 J-0.0474
G3 X8.9792 Y120.6909 I-0.0013 J-0.0552
G3 X8.932 Y120.6801 I-0.0016 J-0.1021
G3 X8.9003 Y120.6558 I0.0483 J-0.0958
G3 X8.8778 Y120.6174 I0.0849 J-0.0755
G3 X8.8775 Y120.6164 I0.1097 J-0.0378
G0 Z3.0
G0 X8.5158 Y119.2451
G0 Z0.405
G1 F1000.0 Z-0.005
G1 F2000.0 X7.3761 Y115.7207
G1 X8.5158 Y119.2451
G0 Z3.0
G0 X10.1985 Y118.1754
G0 Z0.405
G1 F1000.0 Z-0.005
G2 F2000.0 X10.7494 Y118.8144 I2.4622 J-1.5653
G2 X11.4131 Y119.2187 I1.5336 J-1.7708
G2 X12.1479 Y119.3594 I0.7356 J-1.8535
G2 X12.7908 Y119.2319 I0.0305 J-1.5314
G2 X13.2208 Y118.8584 I-0.41 J-0.9062
G2 X13.3962 Y118.2519 I-1.0405 J-0.6294
G2 X13.3703 Y117.8349 I-1.884 J-0.0924
G2 X13.1965 Y117.2257 I-2.84 J0.4807
G2 X12.8952 Y116.6787 I-2.4947 J1.0179
G2 X12.3483 Y116.1074 I-2.1617 J1.5219
G2 X11.7012 Y115.7427 I-1.5344 J1.9658
G2 X11.0249 Y115.6152 I-0.6892 J1.7993
G2 X10.3402 Y115.7471 I-0.0457 J1.6064
G3 X10.676 Y115.6433 I0.5451 J1.1683
G3 X11.2565 Y115.6308 I0.3318 J1.9302
G3 X11.7501 Y115.7619 I-0.2626 J1.9839
G3 X12.3483 Y116.1074 I-0.9527 J2.3401
G3 X12.8952 Y116.6787 I-1.6415 J2.1189
G3 X13.2709 Y117.4302 I-2.2309 J1.5851
G3 X13.395 Y118.2881 I-2.2307 J0.7604
G3 X13.2208 Y118.8584 I-1.1978 J-0.054
G3 X12.8661 Y119.1945 I-0.8283 J-0.5188
G3 X12.6748 Y119.2771 I-0.6173 J-1.168
G3 X12.1479 Y119.3594 I-0.4943 J-1.4365
G3 X11.3662 Y119.1994 I-0.0007 J-1.9863
G3 X10.7072 Y118.7772 I0.9292 J-2.1758
G3 X10.1941 Y118.1685 I1.9884 J-2.1967
G3 X9.785 Y117.2852 I3.3275 J-2.0777
G2 X10.1941 Y118.1685 I3.7012 J-1.1779
G2 X10.1985 Y118.1754 I2.4665 J-1.5584
G0 Z3.0
G0 X6.1988 Y118.5815
G0 Z0.405
G1 F1000.0 Z-0.005
G1 F2000.0 X2.7964
G1 X6.1988
G0 Z3.0
G0 X3.648 Y121.227
G0 Z0.405
G1 F1000.0 Z-0.005
G1 F2000.0 X1.8695 Y115.7163
G1 X3.648 Y121.227
G0 Z3.0
G0 X18.1543 Y119.7505
G0 Z0.405
G1 F1000.0 Z-0.005
G2 F2000.0 X18.4215 Y120.313 I2.4393 J-0.814
G2 X18.8557 Y120.8227 I1.8454 J-1.132
G2 X19.4569 Y121.1919 I1.5071 J-1.7804
G2 X20.1958 Y121.3369 I0.7187 J-1.7071
G2 X20.8095 Y121.227 I0.0423 J-1.5329
G2 X21.1894 Y120.9282 I-0.335 J-0.8168
G2 X21.3355 Y120.4888 I-0.6742 J-0.4682
G2 X21.252 Y119.9482 I-1.4886 J-0.0468
G2 X21.0141 Y119.4517 I-1.9649 J0.6363
G2 X20.63 Y119.0166 I-1.6033 J1.0284
G2 X20.0956 Y118.7002 I-1.2091 J1.4326
G2 X19.4026 Y118.5815 I-0.6654 J1.803
G2 X19.8204 Y118.5541 I0.015 J-2.9662
G2 X20.1457 Y118.4717 I-0.2274 J-1.5809
G2 X20.4023 Y118.338 I-0.3918 J-1.0654
G2 X20.7052 Y117.8631 I-0.4317 J-0.6093
G2 X20.7168 Y117.6755 I-0.8636 J-0.1477
G2 X20.6175 Y117.1313 I-1.858 J0.0579
G2 X20.2459 Y116.4238 I-1.9635 J0.5798
G2 X19.7366 Y115.9932 I-1.4941 J1.2504
G2 X19.1855 Y115.7778 I-0.9237 J1.5512
G2 X18.6637 Y115.7207 I-0.545 J2.5665
G3 X19.2292 Y115.7876 I-0.0165 J2.5624
G3 X19.7366 Y115.9932 I-0.4241 J1.7759
G3 X20.2459 Y116.4238 I-1.0049 J1.705
G3 X20.6175 Y117.1313 I-1.6225 J1.3034
G3 X20.7177 Y117.7202 I-1.769 J0.604
G3 X20.5882 Y118.1494 I-0.7487 J0.0083
G3 X20.3787 Y118.354 I-0.6158 J-0.421
G3 X20.1058 Y118.4858 I-0.6504 J-0.9982
G3 X19.7786 Y118.5595 I-0.5109 J-1.5047
G3 X19.4026 Y118.5815 I-0.3607 J-2.9398
G3 X20.0956 Y118.7002 I0.0258 J1.9326
G3 X20.63 Y119.0166 I-0.6873 J1.7702
G3 X21.0141 Y119.4517 I-1.2392 J1.4811
G3 X21.252 Y119.9482 I-1.7449 J1.1415
G3 X21.3355 Y120.4888 I-1.4127 J0.4949
G3 X21.1894 Y120.9282 I-0.8077 J-0.0245
G3 X20.8599 Y121.2049 I-0.705 J-0.5052
G3 X20.1958 Y121.3369 I-0.6202 J-1.3832
G3 X19.4104 Y121.1717 I-0.0162 J-1.8727
G3 X18.8557 Y120.8227 I0.9682 J-2.1544
G3 X18.4215 Y120.313 I1.4343 J-1.6614
G3 X18.1543 Y119.7505 I2.1919 J-1.3859
G0 Z3.0
G0 X22.0223 Y117.8756
G0 Z0.405
G1 F1000.0 Z-0.005
G3 F2000.0 X21.8741 Y117.5049 I2.53 J-1.2264
G3 X21.7572 Y116.7402 I2.0809 J-0.7094
G3 X21.906 Y116.1757 I1.278 J0.0349
G3 X21.9715 Y116.0716 I0.7949 J0.4274
G3 X22.3043 Y115.7753 I0.8271 J0.5941
G3 X22.5686 Y115.6676 I0.6556 J1.2308
G3 X23.0013 Y115.6108 I0.3981 J1.3575
G3 X23.6985 Y115.7822 I0.0087 J1.4686
G2 X23.0013 Y115.6108 I-0.6848 J1.282
G2 X22.35 Y115.7515 I-0.0318 J1.431
G2 X21.9691 Y116.0749 I0.4598 J0.9277
G2 X21.9242 Y116.1426 I0.8683 J0.6244
G2 X21.7572 Y116.7402 I1.1237 J0.6361
G2 X21.8741 Y117.5049 I2.1856 J0.0571
G2 X22.3877 Y118.4426 I2.6779 J-0.8572
G2 X22.8674 Y118.9 I2.1592 J-1.784
G2 X23.473 Y119.2363 I1.5222 J-2.0279
G2 X24.2162 Y119.3769 I0.748 J-1.9191
G2 X24.8633 Y119.2539 I0.0358 J-1.5748
G2 X25.2826 Y118.9296 I-0.4095 J-0.9627
G2 X25.4705 Y118.4614 I-0.8056 J-0.5951
G2 X25.4796 Y118.2848 I-1.4709 J-0.1643
G2 X25.3809 Y117.7202 I-1.7197 J0.0096
G3 X25.4769 Y118.3926 I-1.6329 J0.5762
G3 X25.3309 Y118.8588 I-0.996 J-0.056
G3 X25.2394 Y118.9821 I-0.7788 J-0.4825
G3 X24.8791 Y119.2471 I-0.771 J-0.6707
G3 X24.2162 Y119.3769 I-0.6252 J-1.4348
G3 X23.473 Y119.2363 I0.0072 J-2.0719
G3 X22.7967 Y118.8452 I0.9338 J-2.395
G3 X22.1701 Y118.1425 I1.7734 J-2.2122
G3 X22.0223 Y117.8756 I2.3822 J-1.4933
G0 Z3.0
G0 X26.9451 Y118.2235
G0 Z0.405
G1 F1000.0 Z-0.005
G3 F2000.0 X27.0216 Y118.019 I0.3839 J0.0271
G3 X27.3702 Y117.7414 I0.8215 J0.6738
G3 X27.5562 Y117.6608 I1.4571 J3.107
G3 X27.9651 Y117.5225 I1.4721 J3.6781
G2 X28.5246 Y117.3159 I-0.7447 J-2.8779
G2 X28.9045 Y117.0127 I-0.4148 J-0.9093
G2 X28.9807 Y116.7666 I-0.346 J-0.2421
G2 X28.9379 Y116.5117 I-0.8189 J0.0067
G2 X28.7776 Y116.1676 I-1.4005 J0.4431
G2 X28.5162 Y115.9009 I-0.7452 J0.4687
G2 X28.1689 Y115.7591 I-0.5732 J0.9076
G2 X27.7981 Y115.7207 I-0.3567 J1.6367
G3 X28.1964 Y115.7654 I0.0173 J1.644
G3 X28.5162 Y115.9009 I-0.2587 J1.0557
G3 X28.7776 Y116.1676 I-0.4961 J0.7474
G3 X28.9379 Y116.5117 I-1.2531 J0.7932
G3 X28.9807 Y116.7666 I-0.7799 J0.2623
G3 X28.9045 Y117.0127 I-0.415 J0.0062
G3 X28.5781 Y117.2899 I-0.7842 J-0.5927
G3 X28.5246 Y117.3159 I-0.4457 J-0.8474
G3 X27.9651 Y117.5225 I-1.2988 J-2.6569
G2 X27.4057 Y117.7246 I1.069 J3.8336
G2 X27.0216 Y118.019 I0.4485 J0.9828
G2 X26.9441 Y118.2489 I0.314 J0.2339
G2 X26.9841 Y118.4893 I0.718 J0.0041
G2 X27.1886 Y118.8804 I1.0756 J-0.3135
G2 X27.4725 Y119.1089 I0.681 J-0.5554
G2 X27.8107 Y119.2187 I0.4868 J-0.9232
G2 X28.1697 Y119.2495 I0.3599 J-2.0895
G3 X27.8107 Y119.2187 I0.0012 J-2.1248
G3 X27.4725 Y119.1089 I0.1514 J-1.0414
G3 X27.1886 Y118.8804 I0.4077 J-0.7971
G3 X26.9841 Y118.4893 I0.8867 J-0.7128
G3 X26.9441 Y118.2489 I0.6816 J-0.2368
G3 X26.9451 Y118.2235 I0.3848 J0.0017
G0 Z3.0
G0 X30.739 Y118.2482
G0 Z0.405
G1 F1000.0 Z-0.005
G3 F2000.0 X30.8165 Y118.019 I0.3848 J0.0025
G3 X31.1651 Y117.7414 I0.8215 J0.6738
G3 X31.3511 Y117.6608 I1.4571 J3.107
G3 X31.76 Y117.5225 I1.4721 J3.6781
G2 X32.3195 Y117.3159 I-0.7447 J-2.8779
G2 X32.6994 Y117.0127 I-0.4148 J-0.9093
G2 X32.7756 Y116.7666 I-0.346 J-0.2421
G2 X32.7328 Y116.5117 I-0.8189 J0.0067
G2 X32.5725 Y116.1676 I-1.4005 J0.4431
G2 X32.3111 Y115.9009 I-0.7452 J0.4687
G2 X31.9638 Y115.7591 I-0.5732 J0.9076
G2 X31.593 Y115.7207 I-0.3567 J1.6367
G3 X31.9913 Y115.7654 I0.0173 J1.644
G3 X32.3111 Y115.9009 I-0.2587 J1.0557
G3 X32.5725 Y116.1676 I-0.4961 J0.7474
G3 X32.7328 Y116.5117 I-1.2531 J0.7932
G3 X32.7756 Y116.7666 I-0.7799 J0.2623
G3 X32.6994 Y117.0127 I-0.415 J0.0062
G3 X32.373 Y117.2899 I-0.7842 J-0.5927
G3 X32.3195 Y117.3159 I-0.4457 J-0.8474
G3 X31.76 Y117.5225 I-1.2988 J-2.6569
G2 X31.2006 Y117.7246 I1.069 J3.8336
G2 X30.8165 Y118.019 I0.4485 J0.9828
G2 X30.739 Y118.2489 I0.314 J0.2339
G2 X30.7789 Y118.4893 I0.718 J0.0041
G2 X30.9835 Y118.8804 I1.0756 J-0.3135
G2 X31.2674 Y119.1089 I0.681 J-0.5554
G2 X31.6056 Y119.2187 I0.4868 J-0.9232
G2 X31.9646 Y119.2495 I0.3599 J-2.0895
G3 X31.6056 Y119.2187 I0.0012 J-2.1248
G3 X31.2674 Y119.1089 I0.1514 J-1.0414
G3 X30.9835 Y118.8804 I0.4077 J-0.7971
G3 X30.7789 Y118.4893 I0.8867 J-0.7128
G3 X30.739 Y118.2489 I0.6816 J-0.2368
G3 Y118.2482 I0.3848 J0.0017
G0 Z3.0
G0 X37.7247 Y115.7163
G0 Z0.405
G1 F1000.0 Z-0.005
G3 F2000.0 X38.7016 Y115.9053 I-0.0346 J2.7985
G3 X39.666 Y116.4502 I-1.316 J3.4548
G3 X40.5428 Y117.3634 I-2.7089 J3.4786
G3 X41.0938 Y118.4717 I-3.2349 J2.2993
G3 X41.239 Y119.0898 I-3.4229 J1.1302
G3 X41.2524 Y119.6274 I-2.3444 J0.3275
G3 X41.0155 Y120.3955 I-1.7175 J-0.1092
G3 X40.4399 Y120.9615 I-1.3591 J-0.8066
G3 X40.1597 Y121.0898 I-1.0057 J-1.8255
G3 X39.3612 Y121.227 I-0.7617 J-2.0403
G1 X38.3593
G1 X39.3612
G2 X40.2964 Y121.0337 I0.0333 J-2.1971
G2 X40.9082 Y120.5536 I-0.651 J-1.4594
G2 X41.164 Y120.0722 I-1.3452 J-1.0235
G2 X41.2524 Y119.6274 I-1.6594 J-0.5611
G2 X41.2316 Y119.0407 I-2.3561 J-0.2101
G2 X41.0938 Y118.4717 I-3.6004 J0.5708
G2 X40.5141 Y117.3237 I-3.738 J1.1672
G2 X39.666 Y116.4502 I-3.4948 J2.5446
G2 X38.7016 Y115.9053 I-2.2585 J2.8712
G2 X37.7247 Y115.7163 I-1.0081 J2.5922
G0 Z3.0
G0 X41.649 Y115.7207
G0 Z0.405
G1 F1000.0 Z-0.005
G1 F2000.0 X42.7887 Y119.2451
G1 X41.649 Y115.7207
G0 Z3.0
G0 X42.1959 Y117.4082
G0 Z0.405
G1 F1000.0 Z-0.005
G2 F2000.0 X42.5675 Y118.2607 I3.9103 J-1.197
G2 X43.0267 Y118.8452 I2.2787 J-1.3178
G2 X43.5402 Y119.188 I1.2354 J-1.2948
G2 X44.0871 Y119.3462 I0.8529 J-1.9241
G3 X43.5077 Y119.1733 I0.3077 J-2.0882
G3 X42.996 Y118.8153 I0.7692 J-1.6446
G3 X42.5675 Y118.2607 I1.8808 J-1.896
G3 X42.1959 Y117.4082 I3.571 J-2.0636
G0 Z3.0
G0 X44.4357 Y116.9304
G0 Z0.405
G1 F1000.0 Z-0.005
G2 F2000.0 X44.4879 Y117.1226 I1.7741 J-0.3784
G3 X44.396 Y116.582 I1.7319 J-0.5723
G3 X44.5004 Y116.0986 I1.0897 J-0.0177
G3 X44.7393 Y115.8032 I0.8 J0.4026
G3 X45.0866 Y115.6394 I0.5125 J0.6365
G3 X45.3729 Y115.6108 I0.2751 J1.308
G3 X46.0159 Y115.7471 I0.0081 J1.5469
G3 X46.5544 Y116.0986 I-0.857 J1.901
G3 X46.9719 Y116.582 I-1.6106 J1.813
G3 X47.2391 Y117.1226 I-1.8985 J1.2747
G2 X46.9719 Y116.582 I-2.1431 J0.7231
G2 X46.5544 Y116.0986 I-2.0048 J1.3094
G2 X46.0159 Y115.7471 I-1.3806 J1.5266
G2 X45.3729 Y115.6108 I-0.6323 J1.3986
G2 X45.0626 Y115.6447 I-0.0137 J1.3128
G2 X44.8177 Y115.7471 I0.1937 J0.8076
G2 X44.5103 Y116.0796 I0.4897 J0.7608
G2 X44.4336 Y116.2807 I0.9363 J0.4727
G2 X44.397 Y116.6179 I1.0885 J0.2886
G2 X44.4357 Y116.9304 I1.8129 J-0.066
G0 Z3.0
G0 X49.1344 Y118.1685
G0 Z0.405
G1 F1000.0 Z-0.005
G2 F2000.0 X49.3724 Y118.6606 I1.7957 J-0.5646
G2 X49.7231 Y119.0342 I1.4267 J-0.988
G2 X50.1531 Y119.2715 I0.9763 J-1.2608
G2 X50.6207 Y119.3594 I0.469 J-1.2073
G2 X51.0478 Y119.2866 I0.026 J-1.1376
G2 X51.3624 Y119.0155 I-0.2327 J-0.5881
G2 X51.414 Y118.9019 I-0.7084 J-0.3905
G2 X51.467 Y118.4743 I-0.8976 J-0.3283
G2 X51.3596 Y117.9619 I-2.1855 J0.1907
G2 X51.6117 Y118.5241 I2.5191 J-0.792
G2 X52.0343 Y119.0172 I1.651 J-0.9873
G2 X52.6567 Y119.3239 I0.9487 J-1.1401
G2 X52.9961 Y119.3594 I0.3195 J-1.4163
G2 X53.4094 Y119.2715 I0.0231 J-0.9069
G2 X53.6808 Y119.0342 I-0.2682 J-0.5805
G2 X53.7894 Y118.6606 I-0.6767 J-0.3992
G2 X53.7184 Y118.1685 I-1.3027 J-0.0634
G3 X53.7894 Y118.6606 I-1.239 J0.4299
G3 X53.6808 Y119.0342 I-0.7752 J-0.0227
G3 X53.4094 Y119.2715 I-0.5289 J-0.3309
G3 X52.9961 Y119.3594 I-0.3885 J-0.8111
G3 X52.1465 Y119.1015 I-0.0135 J-1.4839
G3 X51.8379 Y118.8293 I1.0514 J-1.5033
G3 X51.5846 Y118.4777 I1.472 J-1.3274
G3 X51.3596 Y117.9619 I2.3161 J-1.3174
G3 X51.467 Y118.4743 I-2.0882 J0.7051
G3 X51.3763 Y118.9902 I-0.9401 J0.1007
G3 X51.1434 Y119.2399 I-0.5571 J-0.2864
G3 X51.0138 Y119.2988 I-0.3301 J-0.5534
G3 X50.6207 Y119.3594 I-0.3659 J-1.0697
G3 X50.1531 Y119.2715 I0.0029 J-1.3031
G3 X49.7231 Y119.0342 I0.5551 J-1.5141
G3 X49.3724 Y118.6606 I1.0931 J-1.3776
G3 X49.1344 Y118.1685 I1.5779 J-1.0665
G0 Z3.0
G0 X47.4471 Y93.7644
G0 Z0.405
G1 F1000.0 Z-0.005
G3 F2000.0 X47.32 Y93.7679 I-0.1052 J-1.5212
G3 X46.7255 Y93.6575 I-0.0145 J-1.5783
G3 X46.2556 Y93.3443 I0.4911 J-1.2457
G3 X45.946 Y92.8637 I1.0476 J-1.0152
G3 X45.8321 Y92.2515 I1.4867 J-0.5933
G3 X45.946 Y91.6321 I1.6375 J-0.019
G3 X46.2556 Y91.1516 I1.4004 J0.5624
G3 X46.7255 Y90.8419 I0.9693 J0.9593
G3 X47.32 Y90.7351 I0.5795 J1.5179
G3 X47.7892 Y90.7962 I0.0133 J1.7311
G3 X48.217 Y90.9985 I-0.3714 J1.3385
G3 X48.5494 Y91.3445 I-0.7395 J1.0431
G3 X48.7473 Y91.7816 I-1.3843 J0.8903
G2 X48.5494 Y91.3445 I-1.5826 J0.4534
G2 X48.217 Y90.9985 I-1.0719 J0.6971
G2 X47.32 Y90.7351 I-0.8563 J1.257
G2 X46.7255 Y90.8419 I-0.0149 J1.6249
G2 X46.2556 Y91.1516 I0.4994 J1.2689
G2 X45.946 Y91.6321 I1.0905 J1.0428
G2 X45.8321 Y92.2515 I1.5234 J0.6003
G2 X45.946 Y92.8637 I1.6007 J0.0189
G2 X46.2556 Y93.3443 I1.3573 J-0.5347
G2 X46.7255 Y93.6575 I0.961 J-0.9325
G2 X47.32 Y93.7679 I0.5799 J-1.4678
G2 X48.0959 Y93.5685 I0.0219 J-1.5248
G2 X48.3777 Y93.349 I-0.5589 J-1.0079
G2 X48.5658 Y93.0453 I-0.6867 J-0.6353
G1 X46.8003 Y92.0664
G1 X48.5658 Y93.0453
G3 X48.0959 Y93.5685 I-0.942 J-0.3732
G3 X47.4471 Y93.7644 I-0.7541 J-1.3254
G0 Z3.0
G0 X42.2903 Y92.5398
G0 Z0.405
G1 F1000.0 Z-0.005
G2 F2000.0 X42.3615 Y92.9812 I1.4309 J-0.0043
G2 X42.5857 Y93.3799 I1.1202 J-0.3677
G2 X42.9524 Y93.6646 I0.8942 J-0.7729
G2 X43.4649 Y93.775 I0.489 J-1.0258
G2 X43.9704 Y93.6646 I0.0235 J-1.1054
G2 X44.337 Y93.3799 I-0.4949 J-1.0156
G2 X44.5577 Y92.9812 I-0.9314 J-0.776
G2 X44.636 Y92.5398 I-1.2347 J-0.4467
G1 Y90.8206
G1 Y92.5398
G3 X44.5577 Y92.9812 I-1.313 J-0.0053
G3 X44.337 Y93.3799 I-1.152 J-0.3773
G3 X43.9704 Y93.6646 I-0.8615 J-0.7308
G3 X43.4649 Y93.775 I-0.482 J-0.995
G3 X42.9524 Y93.6646 I-0.0236 J-1.136
G3 X42.5857 Y93.3799 I0.5275 J-1.0576
G3 X42.3615 Y92.9812 I0.896 J-0.7664
G3 X42.2903 Y92.5398 I1.36 J-0.4458
G1 Y90.8206
G1 Y92.5398
G0 Z3.0
G0 X41.0871 Y92.426
G0 Z0.405
G1 F1000.0 Z-0.005
G3 F2000.0 X40.9839 Y92.8637 I-1.6391 J-0.1551
G3 X40.6778 Y93.3443 I-1.3211 J-0.5038
G3 X40.2079 Y93.6575 I-0.961 J-0.9325
G3 X39.6135 Y93.7679 I-0.5799 J-1.4678
G3 X39.019 Y93.6575 I-0.0145 J-1.5783
G3 X38.5492 Y93.3443 I0.4911 J-1.2457
G3 X38.2431 Y92.8637 I1.0149 J-0.9843
G3 X38.1327 Y92.2515 I1.5361 J-0.5929
G3 X38.2431 Y91.6321 I1.6844 J-0.0194
G3 X38.5492 Y91.1516 I1.3615 J0.5296
G3 X39.019 Y90.8419 I0.9693 J0.9593
G3 X39.6135 Y90.7351 I0.5795 J1.5179
G3 X40.2079 Y90.8419 I0.0149 J1.6249
G3 X40.6778 Y91.1516 I-0.4994 J1.2689
G3 X40.9839 Y91.6321 I-1.0553 J1.01
G3 X41.0943 Y92.2515 I-1.5739 J0.5999
G3 X41.0871 Y92.426 I-1.6464 J0.0193
G3 X40.9839 Y92.8637 I-1.6391 J-0.1551
G3 X40.6778 Y93.3443 I-1.3211 J-0.5038
G3 X40.2079 Y93.6575 I-0.961 J-0.9325
G3 X39.6135 Y93.7679 I-0.5799 J-1.4678
G3 X39.019 Y93.6575 I-0.0145 J-1.5783
G3 X38.5492 Y93.3443 I0.4911 J-1.2457
G3 X38.2431 Y92.8637 I1.0149 J-0.9843
G3 X38.1327 Y92.2515 I1.5361 J-0.5929
G3 X38.2431 Y91.6321 I1.6844 J-0.0194
G3 X38.5492 Y91.1516 I1.3615 J0.5296
G3 X39.019 Y90.8419 I0.9693 J0.9593
G3 X39.6135 Y90.7351 I0.5795 J1.5179
G3 X40.2079 Y90.8419 I0.0149 J1.6249
G3 X40.6778 Y91.1516 I-0.4994 J1.2689
G3 X40.9839 Y91.6321 I-1.0553 J1.01
G3 X41.0943 Y92.2515 I-1.5739 J0.5999
G3 X41.0871 Y92.426 I-1.6464 J0.0193
G2 X41.0943 Y92.2515 I-1.6392 J-0.1551
G2 X40.9839 Y91.6321 I-1.6844 J-0.0194
G2 X40.6778 Y91.1516 I-1.3615 J0.5296
G2 X40.2079 Y90.8419 I-0.9693 J0.9593
G2 X39.6135 Y90.7351 I-0.5795 J1.5179
G2 X39.019 Y90.8419 I-0.0149 J1.6249
G2 X38.5492 Y91.1516 I0.4994 J1.2689
G2 X38.2431 Y91.6321 I1.0553 J1.01
G2 X38.1327 Y92.2515 I1.5739 J0.5999
G2 X38.2431 Y92.8637 I1.6464 J0.0193
G2 X38.5492 Y93.3443 I1.3211 J-0.5038
G2 X39.019 Y93.6575 I0.961 J-0.9325
G2 X39.6135 Y93.7679 I0.5799 J-1.4678
G2 X40.2079 Y93.6575 I0.0145 J-1.5783
G2 X40.6778 Y93.3443 I-0.4911 J-1.2457
G2 X40.9839 Y92.8637 I-1.0149 J-0.9843
G2 X41.0871 Y92.426 I-1.5361 J-0.5929
G2 X41.0943 Y92.2515 I-1.6392 J-0.1551
G2 X40.9839 Y91.6321 I-1.6844 J-0.0194
G2 X40.6778 Y91.1516 I-1.3615 J0.5296
G2 X40.2079 Y90.8419 I-0.9693 J0.9593
G2 X39.6135 Y90.7351 I-0.5795 J1.5179
G2 X39.019 Y90.8419 I-0.0149 J1.6249
G2 X38.5492 Y91.1516 I0.4994 J1.2689
G2 X38.2431 Y91.6321 I1.0553 J1.01
G2 X38.1327 Y92.2515 I1.5739 J0.5999
G2 X38.2431 Y92.8637 I1.6464 J0.0193
G2 X38.5492 Y93.3443 I1.3211 J-0.5038
G2 X39.019 Y93.6575 I0.961 J-0.9325
G2 X39.6135 Y93.7679 I0.5799 J-1.4678
G2 X40.2079 Y93.6575 I0.0145 J-1.5783
G2 X40.6778 Y93.3443 I-0.4911 J-1.2457
G2 X40.9839 Y92.8637 I-1.0149 J-0.9843
G2 X41.0871 Y92.426 I-1.5361 J-0.5929
G0 Z3.0
G0 X37.1645 Y93.6931
G0 Z0.405
G1 F1000.0 Z-0.005
G1 F2000.0 X35.908
G1 X37.1645
G0 Z3.0
G0 X36.6662 Y90.8206
G0 Z0.405
G1 F1000.0 Z-0.005
G2 F2000.0 X36.3729 Y90.8582 I-0.0121 J1.0678
G2 X36.1109 Y90.995 I0.1851 J0.6739
G2 X35.9461 Y91.2725 I0.3714 J0.4081
G2 X35.908 Y91.593 I1.172 J0.302
G1 Y94.5545
G1 Y91.593
G3 X35.9461 Y91.2725 I1.2099 J-0.0185
G3 X36.1109 Y90.995 I0.5362 J0.1306
G3 X36.3729 Y90.8582 I0.4471 J0.5369
G3 X36.6662 Y90.8206 I0.2811 J1.0302
G1 X37.1645
G1 X36.6662
G0 Z3.0
G0 X17.8414 Y92.3565
G0 Z0.405
G1 F1000.0 Z-0.005
G1 F2000.0 X18.8914
G2 X19.2312 Y92.3011 I0.0108 J-1.0029
G2 X19.525 Y92.1216 I-0.2857 J-0.7978
G2 X19.7259 Y91.8149 I-0.4895 J-0.5397
G2 X19.7813 Y91.4524 I-1.048 J-0.3456
G1 Y90.7832
G1 Y91.4524
G3 X19.7259 Y91.8149 I-1.1032 J0.0169
G3 X19.525 Y92.1216 I-0.6904 J-0.233
G3 X18.8914 Y92.3565 I-0.6053 J-0.6606
G1 X17.8414
G1 X18.4322
G3 X18.7846 Y92.4099 I0.0202 J1.0562
G3 X19.0445 Y92.5559 I-0.3293 J0.8906
G3 X19.2367 Y92.7766 I-0.6198 J0.7339
G3 X19.4076 Y93.0507 I-4.6153 J3.0674
G1 X19.7528 Y93.638
G1 X19.4076 Y93.0507
G2 X19.2367 Y92.7766 I-4.7902 J2.7958
G2 X19.0445 Y92.5559 I-0.812 J0.5132
G2 X18.7846 Y92.4099 I-0.5892 J0.7447
G2 X18.4322 Y92.3565 I-0.3322 J1.0031
G1 X17.8414
G0 Z3.0
G0 Y95.2434
G0 Z0.405
G1 F1000.0 Z-0.005
G1 F2000.0 Y90.7797
G1 Y95.2434
G0 Z3.0
G0 X16.6667 Y93.6558
G0 Z0.405
G1 F1000.0 Z-0.005
G1 F2000.0 X16.3463
G3 X15.8338 Y93.549 I0.0012 J-1.2892
G3 X15.3888 Y93.2536 I0.6121 J-1.4047
G3 X15.072 Y92.7979 I1.023 J-1.0492
G3 X14.9545 Y92.2106 I1.3265 J-0.5707
G3 X15.0685 Y91.6233 I1.4832 J-0.0171
G3 X15.3853 Y91.1712 I1.2413 J0.5329
G3 X15.8587 Y90.8829 I0.9903 J1.0933
G3 X16.4353 Y90.7832 I0.5658 J1.5558
G1 X16.6667
G1 X16.4353
G2 X15.8587 Y90.8829 I-0.0108 J1.6555
G2 X15.3853 Y91.1712 I0.5169 J1.3816
G2 X15.0685 Y91.6233 I0.9245 J0.9849
G2 X14.9545 Y92.2106 I1.3693 J0.5703
G2 X15.072 Y92.7979 I1.444 J0.0166
G2 X15.3888 Y93.2536 I1.3397 J-0.5936
G2 X15.8338 Y93.549 I1.0572 J-1.1094
G2 X16.3463 Y93.6558 I0.5138 J-1.1824
G1 X16.6667
G0 Z3.0
G0 X13.2922 Y93.638
G0 Z0.405
G1 F1000.0 Z-0.005
G1 F2000.0 Y90.7832
G1 Y93.638
G0 Z3.0
G0 X13.2871 Y94.6771
G0 Z0.405
G1 F1000.0 Z-0.005
G2 F2000.0 X13.2424 Y94.6987 I-0.0003 J0.0564
G2 X13.2282 Y94.7415 I0.0627 J0.0446
G2 X13.2922 Y94.8091 I0.0575 J0.0097
G2 X13.3599 Y94.7415 I0.0085 J-0.0592
G2 X13.3421 Y94.6987 I-0.0675 J0.0031
G2 X13.2922 Y94.6774 I-0.0444 J0.0348
G2 X13.2871 Y94.6771 I-0.0054 J0.0562
G2 X13.2424 Y94.6987 I-0.0003 J0.0564
G2 X13.2282 Y94.7415 I0.0627 J0.0446
G2 X13.2922 Y94.8091 I0.0575 J0.0097
G2 X13.3599 Y94.7415 I0.0085 J-0.0592
G2 X13.3421 Y94.6987 I-0.0675 J0.0031
G2 X13.2922 Y94.6774 I-0.0444 J0.0348
G2 X13.2871 Y94.6771 I-0.0054 J0.0562
G3 X13.2922 Y94.6774 I-0.0003 J0.0564
G3 X13.3421 Y94.6987 I0.0054 J0.0562
G3 X13.3599 Y94.7415 I-0.0497 J0.0458
G3 X13.2922 Y94.8091 I-0.0592 J0.0085
G3 X13.2282 Y94.7415 I-0.0066 J-0.0579
G3 X13.2424 Y94.6987 I0.0769 J0.0019
G3 X13.2871 Y94.6771 I0.0444 J0.0348
G3 X13.2922 Y94.6774 I-0.0003 J0.0564
G3 X13.3421 Y94.6987 I0.0054 J0.0562
G3 X13.3599 Y94.7415 I-0.0497 J0.0458
G3 X13.2922 Y94.8091 I-0.0592 J0.0085
G3 X13.2282 Y94.7415 I-0.0066 J-0.0579
G3 X13.2424 Y94.6987 I0.0769 J0.0019
G3 X13.2871 Y94.6771 I0.0444 J0.0348
G0 Z3.0
G0 X11.4697 Y95.2434
G0 Z0.405
G1 F1000.0 Z-0.005
G1 F2000.0 Y90.7797
G1 Y95.2434
G0 Z3.0
G0 X10.1847 Y93.6558
G0 Z0.405
G1 F1000.0 Z-0.005
G1 F2000.0 X9.8644
G3 X9.3518 Y93.549 I0.0012 J-1.2892
G3 X8.9068 Y93.2536 I0.6121 J-1.4047
G3 X8.59 Y92.7979 I1.023 J-1.0492
G3 X8.4726 Y92.2106 I1.3265 J-0.5707
G3 X8.5865 Y91.6233 I1.4832 J-0.0171
G3 X8.9033 Y91.1712 I1.2413 J0.5329
G3 X9.3767 Y90.8829 I0.9903 J1.0933
G3 X9.9534 Y90.7832 I0.5658 J1.5558
G1 X10.1847
G1 X9.9534
G2 X9.3767 Y90.8829 I-0.0108 J1.6555
G2 X8.9033 Y91.1712 I0.5169 J1.3816
G2 X8.5865 Y91.6233 I0.9245 J0.9849
G2 X8.4726 Y92.2106 I1.3693 J0.5703
G2 X8.59 Y92.7979 I1.444 J0.0166
G2 X8.9068 Y93.2536 I1.3397 J-0.5936
G2 X9.3518 Y93.549 I1.0572 J-1.1094
G2 X9.8644 Y93.6558 I0.5138 J-1.1824
G1 X10.1847
G0 Z3.0
G0 X10.523 Y65.5255
G0 Z0.405
G1 F1000.0 Z-0.005
G3 F2000.0 X10.0994 Y65.3974 I0.1873 J-1.3834
G3 X9.7577 Y65.1197 I0.4133 J-0.8578
G3 X9.5263 Y64.6463 I1.1292 J-0.8451
G3 X9.4444 Y63.9558 I2.4962 J-0.6461
G1 Y62.5853
G1 Y63.9558
G2 X9.5263 Y64.6463 I2.5785 J0.0444
G2 X9.7577 Y65.1197 I1.3607 J-0.3717
G2 X10.0994 Y65.3974 I0.755 J-0.5801
G2 X10.523 Y65.5255 I0.6109 J-1.2553
G0 Z3.0
G0 X9.4444 Y65.4437
G0 Z0.405
G1 F1000.0 Z-0.005
G1 F2000.0 Y62.5889
G1 Y65.4437
G0 Z3.0
G0 X14.289 Y63.55
G0 Z0.405
G1 F1000.0 Z-0.005
G2 F2000.0 X14.091 Y63.1129 I-1.5826 J0.4534
G2 X13.7586 Y62.7669 I-1.0719 J0.6971
G2 X12.8616 Y62.5035 I-0.8563 J1.257
G2 X12.2672 Y62.6103 I-0.0149 J1.6249
G2 X11.7973 Y62.9199 I0.4994 J1.2689
G2 X11.4876 Y63.4005 I1.0905 J1.0428
G2 X11.3737 Y64.0198 I1.5234 J0.6003
G2 X11.4876 Y64.6321 I1.6007 J0.0189
G2 X11.7973 Y65.1126 I1.3573 J-0.5347
G2 X12.2672 Y65.4259 I0.961 J-0.9325
G2 X12.8616 Y65.5362 I0.5799 J-1.4678
G2 X13.6376 Y65.3369 I0.0219 J-1.5248
G2 X13.9194 Y65.1173 I-0.5589 J-1.0079
G2 X14.1075 Y64.8136 I-0.6867 J-0.6353
G1 X12.3419 Y63.8347
G1 X14.1075 Y64.8136
G3 X13.6376 Y65.3369 I-0.942 J-0.3732
G3 X12.8616 Y65.5362 I-0.7541 J-1.3254
G3 X12.2672 Y65.4259 I-0.0145 J-1.5783
G3 X11.7973 Y65.1126 I0.4911 J-1.2457
G3 X11.4876 Y64.6321 I1.0476 J-1.0152
G3 X11.3737 Y64.0198 I1.4867 J-0.5933
G3 X11.4876 Y63.4005 I1.6375 J-0.019
G3 X11.7973 Y62.9199 I1.4004 J0.5624
G3 X12.2672 Y62.6103 I0.9693 J0.9593
G3 X12.8616 Y62.5035 I0.5795 J1.5179
G3 X13.3309 Y62.5645 I0.0133 J1.7311
G3 X13.7586 Y62.7669 I-0.3714 J1.3385
G3 X14.091 Y63.1129 I-0.7395 J1.0431
G3 X14.289 Y63.55 I-1.3843 J0.8903
G0 Z3.0
G0 X15.4067 Y62.5889
G0 Z0.405
G1 F1000.0 Z-0.005
G1 F2000.0 X16.8804
G3 X17.1714 Y62.6172 I0.0145 J1.3593
G3 X17.4392 Y62.7348 I-0.1299 J0.6594
G3 X17.5935 Y62.9596 I-0.2778 J0.356
G3 X17.6314 Y63.2296 I-0.8317 J0.2546
G3 X17.5929 Y63.4511 I-0.6047 J0.0088
G3 X17.4641 Y63.6354 I-0.4454 J-0.174
G3 X17.0548 Y63.881 I-0.8672 J-0.9815
G3 X16.5244 Y64.0483 I-1.3106 J-3.2306
G2 X15.9905 Y64.2121 I1.1209 J4.6076
G2 X15.5847 Y64.4505 I0.4989 J1.3134
G2 X15.4209 Y64.8314 I0.3159 J0.3615
G2 X15.485 Y65.1482 I0.6773 J0.0279
G2 X15.663 Y65.3333 I0.4211 J-0.2267
G2 X15.9228 Y65.4223 I0.3536 J-0.6085
G2 X16.2218 Y65.4472 I0.2963 J-1.7495
G1 X17.4713
G1 X16.2218
G3 X15.9228 Y65.4223 I-0.0028 J-1.7734
G3 X15.663 Y65.3333 I0.0937 J-0.6975
G3 X15.485 Y65.1482 I0.2431 J-0.4118
G3 X15.4209 Y64.8314 I0.6132 J-0.2889
G3 X15.5847 Y64.4505 I0.4797 J-0.0194
G3 X15.9905 Y64.2121 I0.9048 J1.075
G3 X16.5244 Y64.0483 I1.6552 J4.4451
G2 X17.0548 Y63.881 I-0.7801 J-3.3976
G2 X17.4641 Y63.6354 I-0.458 J-1.2272
G2 X17.6314 Y63.2296 I-0.3504 J-0.3818
G2 X17.5935 Y62.9596 I-0.8693 J-0.0154
G2 X17.4392 Y62.7348 I-0.4321 J0.1312
G2 X17.1714 Y62.6172 I-0.3976 J0.5418
G2 X16.8804 Y62.5889 I-0.2766 J1.3315
G1 X15.4067
G0 Z3.0
G0 X19.0231 Y62.6464
G0 Z0.405
G1 F1000.0 Z-0.005
G2 F2000.0 X19.0232 Y62.653 I0.0997 J0.0016
G2 X19.0553 Y62.7313 I0.0996 J0.0049
G2 X19.13 Y62.7633 I0.0744 J-0.0705
G2 X19.2048 Y62.7313 I0.0003 J-0.1025
G2 X19.2404 Y62.653 I-0.0592 J-0.0742
G2 X19.2048 Y62.5747 I-0.0948 J-0.0041
G2 X19.13 Y62.5462 I-0.0735 J0.0805
G2 X19.0553 Y62.5747 I-0.0013 J0.109
G2 X19.0231 Y62.6464 I0.0676 J0.0734
G2 X19.0232 Y62.653 I0.0997 J0.0016
G2 X19.0553 Y62.7313 I0.0996 J0.0049
G2 X19.13 Y62.7633 I0.0744 J-0.0705
G2 X19.2048 Y62.7313 I0.0003 J-0.1025
G2 X19.2404 Y62.653 I-0.0592 J-0.0742
G2 X19.2048 Y62.5747 I-0.0948 J-0.0041
G2 X19.13 Y62.5462 I-0.0735 J0.0805
G2 X19.0553 Y62.5747 I-0.0013 J0.109
G2 X19.0231 Y62.6464 I0.0676 J0.0734
G3 X19.0553 Y62.5747 I0.0997 J0.0016
G3 X19.13 Y62.5462 I0.0735 J0.0805
G3 X19.2048 Y62.5747 I0.0013 J0.109
G3 X19.2404 Y62.653 I-0.0592 J0.0742
G3 X19.2048 Y62.7313 I-0.0948 J0.0041
G3 X19.13 Y62.7633 I-0.0744 J-0.0705
G3 X19.0553 Y62.7313 I-0.0003 J-0.1025
G3 X19.0232 Y62.653 I0.0676 J-0.0734
G3 X19.0231 Y62.6464 I0.0996 J-0.0049
G3 X19.0553 Y62.5747 I0.0997 J0.0016
G3 X19.13 Y62.5462 I0.0735 J0.0805
G3 X19.2048 Y62.5747 I0.0013 J0.109
G3 X19.2404 Y62.653 I-0.0592 J0.0742
G3 X19.2048 Y62.7313 I-0.0948 J0.0041
G3 X19.13 Y62.7633 I-0.0744 J-0.0705
G3 X19.0553 Y62.7313 I-0.0003 J-0.1025
G3 X19.0232 Y62.653 I0.0676 J-0.0734
G3 X19.0231 Y62.6464 I0.0996 J-0.0049
G0 Z3.0
G0 X31.0737 Y63.8934
G0 Z0.405
G1 F1000.0 Z-0.005
G2 F2000.0 X31.1769 Y64.6089 I2.2944 J0.0342
G2 X31.4723 Y65.1322 I1.4248 J-0.4595
G2 X31.928 Y65.4597 I0.9441 J-0.8328
G2 X32.5153 Y65.5736 I0.5703 J-1.3693
G2 X33.0991 Y65.4703 I0.0137 J-1.6251
G2 X33.5689 Y65.1678 I-0.4654 J-1.2389
G2 X33.8857 Y64.6765 I-1.0369 J-1.0165
G2 X34.0032 Y64.0109 I-1.6604 J-0.6362
G2 X33.8893 Y63.4022 I-1.5744 J-0.0204
G2 X33.5832 Y62.9395 I-1.2837 J0.5166
G2 X33.1311 Y62.644 I-0.9749 J0.9981
G2 X32.59 Y62.5408 I-0.5378 J1.3493
G2 X31.9671 Y62.6476 I-0.0299 J1.6957
G3 X32.59 Y62.5408 I0.593 J1.5891
G3 X33.1311 Y62.644 I0.0033 J1.4523
G3 X33.5832 Y62.9395 I-0.5228 J1.2935
G3 X33.8893 Y63.4022 I-0.9776 J0.9794
G3 X34.0032 Y64.0109 I-1.4605 J0.5883
G3 X33.8857 Y64.6765 I-1.778 J0.0294
G3 X33.5689 Y65.1678 I-1.3537 J-0.5253
G3 X33.0991 Y65.4703 I-0.9353 J-0.9363
G3 X32.5153 Y65.5736 I-0.5701 J-1.5218
G3 X31.928 Y65.4597 I-0.0171 J-1.4832
G3 X31.4723 Y65.1322 I0.4885 J-1.1603
G3 X31.1769 Y64.6089 I1.1293 J-0.9827
G3 X31.0737 Y63.8934 I2.191 J-0.6813
G1 Y61.0244
G1 Y63.8934
G0 Z3.0
G0 X35.0319 Y64.0572
G0 Z0.405
G1 F1000.0 Z-0.005
G1 F2000.0 X36.0215
G1 X35.0319
G0 Z3.0
G0 X37.2175 Y63.4983
G0 Z0.405
G1 F1000.0 Z-0.005
G3 F2000.0 X37.2851 Y63.1032 I1.1068 J-0.0139
G3 X37.4809 Y62.8007 I0.7728 J0.2854
G3 X37.7799 Y62.6049 I0.6589 J0.6801
G3 X38.1572 Y62.5372 I0.3652 J0.9508
G3 X38.564 Y62.6041 I0.0176 J1.1634
G3 X38.9047 Y62.8362 I-0.2914 J0.7938
G3 X39.1153 Y63.228 I-0.7455 J0.6532
G3 X39.1717 Y63.6692 I-1.5444 J0.4216
G1 Y65.4846
G1 Y63.6692
G3 X39.2272 Y63.2286 I1.6218 J-0.0196
G3 X39.4351 Y62.8362 I0.9617 J0.2584
G3 X39.7758 Y62.6041 I0.6321 J0.5618
G3 X40.1826 Y62.5372 I0.3892 J1.0966
G3 X40.5599 Y62.6049 I0.0122 J1.0184
G3 X40.8554 Y62.8007 I-0.3426 J0.8379
G3 X41.0511 Y63.1032 I-0.6332 J0.6243
G3 X41.1259 Y63.4983 I-0.9377 J0.382
G1 Y65.4846
G1 Y63.4983
G2 X41.0511 Y63.1032 I-1.0125 J-0.0131
G2 X40.8554 Y62.8007 I-0.8289 J0.3217
G2 X40.5599 Y62.6049 I-0.6381 J0.6422
G2 X40.1826 Y62.5372 I-0.3652 J0.9508
G2 X39.7758 Y62.6041 I-0.0176 J1.1634
G2 X39.4351 Y62.8362 I0.2914 J0.7938
G2 X39.2272 Y63.2286 I0.7537 J0.6507
G2 X39.1717 Y63.6692 I1.566 J0.421
G1 Y65.4846
G1 Y63.6692
G2 X39.1153 Y63.228 I-1.6003 J-0.0196
G2 X38.9047 Y62.8362 I-0.956 J0.2614
G2 X38.564 Y62.6041 I-0.6321 J0.5618
G2 X38.1572 Y62.5372 I-0.3892 J1.0966
G2 X37.7799 Y62.6049 I-0.0122 J1.0184
G2 X37.4809 Y62.8007 I0.3598 J0.8757
G2 X37.2851 Y63.1032 I0.577 J0.588
G2 X37.2175 Y63.4983 I1.0393 J0.3812
G1 Y65.4846
G1 Y63.4983
G0 Z3.0
G0 X42.8167 Y62.6262
G0 Z0.405
G1 F1000.0 Z-0.005
G1 F2000.0 Y65.481
G1 Y62.6262
G0 Z3.0
G0 X47.2697 Y64.2138
G0 Z0.405
G1 F1000.0 Z-0.005
G2 F2000.0 X47.1629 Y63.5019 I-2.1918 J-0.0352
G2 X46.8675 Y62.9751 I-1.4303 J0.4559
G2 X46.4118 Y62.6476 I-0.9441 J0.8328
G2 X45.8281 Y62.5372 I-0.5648 J1.3887
G2 X45.2443 Y62.6369 I-0.0141 J1.6771
G2 X44.7709 Y62.9395 I0.4794 J1.2717
G2 X44.4541 Y63.4307 I1.0775 J1.0427
G2 X44.3402 Y64.1035 I1.7369 J0.6401
G2 X44.4505 Y64.7086 I1.5926 J0.0222
G2 X44.7566 Y65.1713 I1.3251 J-0.544
G2 X45.2087 Y65.4668 I0.9601 J-0.9756
G2 X45.7604 Y65.57 I0.5433 J-1.3776
G2 X46.3727 Y65.4597 I0.0193 J-1.6464
G3 X45.7604 Y65.57 I-0.5929 J-1.5361
G3 X45.2087 Y65.4668 I-0.0084 J-1.481
G3 X44.7566 Y65.1713 I0.508 J-1.2709
G3 X44.4505 Y64.7086 I1.0191 J-1.0068
G3 X44.3402 Y64.1035 I1.4822 J-0.5829
G3 X44.4541 Y63.4307 I1.8509 J-0.0326
G3 X44.7709 Y62.9395 I1.3942 J0.5514
G3 X45.2443 Y62.6369 I0.9528 J0.9692
G3 X45.8281 Y62.5372 I0.5697 J1.5774
G3 X46.4118 Y62.6476 I0.019 J1.499
G3 X46.8675 Y62.9751 I-0.4885 J1.1603
G3 X47.1629 Y63.5019 I-1.1348 J0.9827
G3 X47.2697 Y64.2138 I-2.0852 J0.6767
G1 Y67.0864
G1 Y64.2138
G0 Z3.0
G0 X49.3912 Y62.6262
G0 Z0.405
G1 F1000.0 Z-0.005
G2 F2000.0 X49.098 Y62.6638 I-0.0121 J1.0678
G2 X48.8359 Y62.8007 I0.1851 J0.6739
G2 X48.6712 Y63.0782 I0.3714 J0.4081
G2 X48.633 Y63.3987 I1.172 J0.302
G1 Y66.3602
G1 Y63.3987
G3 X48.6712 Y63.0782 I1.2099 J-0.0185
G3 X48.8359 Y62.8007 I0.5362 J0.1306
G3 X49.098 Y62.6638 I0.4471 J0.5369
G3 X49.3912 Y62.6262 I0.2811 J1.0302
G1 X49.8895
G1 X49.3912
G0 Z3.0
G0 X50.961
G0 Z0.405
G1 F1000.0 Z-0.005
G1 F2000.0 Y64.3455
G2 X51.0357 Y64.7798 I1.3274 J-0.0049
G2 X51.2564 Y65.1749 I1.1565 J-0.3868
G2 X51.6266 Y65.4597 I0.8157 J-0.6775
G2 X52.1534 Y65.57 I0.503 J-1.0885
G2 X52.6731 Y65.4597 I0.0317 J-1.1297
G2 X53.0327 Y65.1749 I-0.4513 J-0.9391
G2 X53.2391 Y64.7798 I-0.8563 J-0.6989
G2 X53.3067 Y64.3455 I-1.3863 J-0.4383
G1 Y62.6262
G1 Y64.3455
G3 X53.2391 Y64.7798 I-1.4537 J-0.004
G3 X53.0327 Y65.1749 I-1.0627 J-0.3038
G3 X52.6731 Y65.4597 I-0.8108 J-0.6543
G3 X52.1534 Y65.57 I-0.488 J-1.0193
G3 X51.6266 Y65.4597 I-0.0239 J-1.1988
G3 X51.2564 Y65.1749 I0.4456 J-0.9623
G3 X51.0357 Y64.7798 I0.9358 J-0.7819
G3 X50.961 Y64.3455 I1.2526 J-0.4392
G1 Y62.6262
G0 Z3.0
G0 Y67.0864
G0 Z0.405
G1 F1000.0 Z-0.005
G1 F2000.0 Y62.6227
G1 Y67.0864
G0 Z3.0
G0 X49.8895 Y65.4988
G0 Z0.405
G1 F1000.0 Z-0.005
G1 F2000.0 X48.633
G1 X49.8895
G0 Z3.0
G0 X42.8836 Y66.5773
G0 Z0.405
G1 F1000.0 Z-0.005
G3 F2000.0 X42.8843 Y66.5845 I-0.0668 J0.0103
G3 X42.8167 Y66.6521 I-0.0592 J0.0085
G3 X42.7526 Y66.5845 I-0.0066 J-0.0579
G3 X42.7668 Y66.5418 I0.0769 J0.0019
G3 X42.8167 Y66.5204 I0.0444 J0.0348
G3 X42.8665 Y66.5418 I0.0054 J0.0562
G3 X42.8836 Y66.5773 I-0.0497 J0.0458
G3 X42.8843 Y66.5845 I-0.0668 J0.0103
G3 X42.8167 Y66.6521 I-0.0592 J0.0085
G3 X42.7526 Y66.5845 I-0.0066 J-0.0579
G3 X42.7668 Y66.5418 I0.0769 J0.0019
G3 X42.8167 Y66.5204 I0.0444 J0.0348
G3 X42.8665 Y66.5418 I0.0054 J0.0562
G3 X42.8836 Y66.5773 I-0.0497 J0.0458
G2 X42.8665 Y66.5418 I-0.0668 J0.0103
G2 X42.8167 Y66.5204 I-0.0444 J0.0348
G2 X42.7668 Y66.5418 I-0.0054 J0.0562
G2 X42.7526 Y66.5845 I0.0627 J0.0446
G2 X42.8167 Y66.6521 I0.0575 J0.0097
G2 X42.8843 Y66.5845 I0.0085 J-0.0592
G2 X42.8836 Y66.5773 I-0.0675 J0.0031
G2 X42.8665 Y66.5418 I-0.0668 J0.0103
G2 X42.8167 Y66.5204 I-0.0444 J0.0348
G2 X42.7668 Y66.5418 I-0.0054 J0.0562
G2 X42.7526 Y66.5845 I0.0627 J0.0446
G2 X42.8167 Y66.6521 I0.0575 J0.0097
G2 X42.8843 Y66.5845 I0.0085 J-0.0592
G2 X42.8836 Y66.5773 I-0.0675 J0.0031
G0 Z3.0
G0 X20.2991 Y36.8182
G0 Z0.405
G1 F1000.0 Z-0.005
G3 F2000.0 X20.1586 Y36.9076 I-0.6125 J-0.8071
G3 X19.3826 Y37.1069 I-0.7541 J-1.3254
G3 X18.7882 Y36.9966 I-0.0145 J-1.5783
G3 X18.3183 Y36.6834 I0.4911 J-1.2457
G3 X18.0086 Y36.2028 I1.0476 J-1.0152
G3 X17.8947 Y35.5906 I1.4867 J-0.5933
G3 X18.0086 Y34.9712 I1.6375 J-0.019
G3 X18.3183 Y34.4907 I1.4004 J0.5624
G3 X18.7882 Y34.181 I0.9693 J0.9593
G3 X19.3826 Y34.0742 I0.5795 J1.5179
G3 X19.8519 Y34.1353 I0.0133 J1.7311
G3 X20.2796 Y34.3376 I-0.3714 J1.3385
G3 X20.6121 Y34.6836 I-0.7395 J1.0431
G3 X20.81 Y35.1207 I-1.3843 J0.8903
G2 X20.6121 Y34.6836 I-1.5826 J0.4534
G2 X20.2796 Y34.3376 I-1.0719 J0.6971
G2 X19.3826 Y34.0742 I-0.8563 J1.257
G2 X18.7882 Y34.181 I-0.0149 J1.6249
G2 X18.3183 Y34.4907 I0.4994 J1.2689
G2 X18.0086 Y34.9712 I1.0905 J1.0428
G2 X17.8947 Y35.5906 I1.5234 J0.6003
G2 X18.0086 Y36.2028 I1.6007 J0.0189
G2 X18.3183 Y36.6834 I1.3573 J-0.5347
G2 X18.7882 Y36.9966 I0.961 J-0.9325
G2 X19.3826 Y37.1069 I0.5799 J-1.4678
G2 X20.1586 Y36.9076 I0.0219 J-1.5248
G2 X20.4404 Y36.6881 I-0.5589 J-1.0079
G2 X20.6285 Y36.3844 I-0.6867 J-0.6353
G1 X18.8629 Y35.4055
G1 X20.6285 Y36.3844
G3 X20.2991 Y36.8182 I-0.942 J-0.3732
G0 Z3.0
G0 X14.353 Y35.8789
G0 Z0.405
G1 F1000.0 Z-0.005
G2 F2000.0 X14.4242 Y36.3203 I1.4309 J-0.0043
G2 X14.6484 Y36.719 I1.1202 J-0.3677
G2 X15.015 Y37.0037 I0.8942 J-0.7729
G2 X15.5276 Y37.1141 I0.489 J-1.0258
G2 X16.0331 Y37.0037 I0.0235 J-1.1054
G2 X16.3997 Y36.719 I-0.4949 J-1.0156
G2 X16.6204 Y36.3203 I-0.9314 J-0.776
G2 X16.6987 Y35.8789 I-1.2347 J-0.4467
G1 Y34.1596
G1 Y35.8789
G3 X16.6204 Y36.3203 I-1.313 J-0.0053
G3 X16.3997 Y36.719 I-1.152 J-0.3773
G3 X16.0331 Y37.0037 I-0.8615 J-0.7308
G3 X15.5276 Y37.1141 I-0.482 J-0.995
G3 X15.015 Y37.0037 I-0.0236 J-1.136
G3 X14.6484 Y36.719 I0.5275 J-1.0576
G3 X14.4242 Y36.3203 I0.896 J-0.7664
G3 X14.353 Y35.8789 I1.36 J-0.4458
G1 Y34.1596
G1 Y35.8789
G0 Z3.0
G0 X10.708 Y35.2951
G0 Z0.405
G1 F1000.0 Z-0.005
G3 F2000.0 X10.7792 Y34.8573 I1.4207 J0.0063
G3 X10.9998 Y34.4657 I1.0872 J0.3548
G3 X11.3665 Y34.181 I0.8942 J0.7729
G3 X11.8791 Y34.0706 I0.489 J1.0258
G3 X12.3881 Y34.181 I0.0249 J1.1144
G3 X12.7547 Y34.4657 I-0.4949 J1.0156
G3 X12.9754 Y34.8573 I-0.941 J0.7883
G3 X13.0537 Y35.2951 I-1.2254 J0.4451
G1 Y37.018
G1 Y35.2951
G2 X12.9754 Y34.8573 I-1.3036 J0.0072
G2 X12.7547 Y34.4657 I-1.1615 J0.3967
G2 X12.3881 Y34.181 I-0.8615 J0.7308
G2 X11.8791 Y34.0706 I-0.4841 J1.0039
G2 X11.3665 Y34.181 I-0.0236 J1.136
G2 X10.9998 Y34.4657 I0.5275 J1.0576
G2 X10.7792 Y34.8573 I0.8665 J0.7464
G2 X10.708 Y35.2951 I1.3493 J0.4441
G1 Y37.018
G1 Y35.2951
G0 Z3.0
G0 X9.6365 Y34.1596
G0 Z0.405
G1 F1000.0 Z-0.005
G1 F2000.0 X9.1382
G2 X8.845 Y34.1972 I-0.0121 J1.0678
G2 X8.5829 Y34.334 I0.1851 J0.6739
G2 X8.4181 Y34.6116 I0.3714 J0.4081
G2 X8.38 Y34.932 I1.172 J0.302
G1 Y37.8936
G1 Y34.932
G3 X8.4181 Y34.6116 I1.2099 J-0.0185
G3 X8.5829 Y34.334 I0.5362 J0.1306
G3 X8.845 Y34.1972 I0.4471 J0.5369
G3 X9.1382 Y34.1596 I0.2811 J1.0302
G1 X9.6365
G0 Z3.0
G0 Y37.0322
G0 Z0.405
G1 F1000.0 Z-0.005
G1 F2000.0 X8.38
G1 X9.6365
G0 Z3.0
G0 X9.5574 Y27.5716
G0 Z0.405
G1 F1000.0 Z-0.005
G1 F2000.0 X11.7574 Y25.3716
G1 X6.2574
G0 Z3.0
G0 X15.3974 Y16.1484
G0 Z0.405
G1 F1000.0 Z-0.005
G1 F2000.0 X20.8974
G1 X18.6974 Y18.3484
G0 Z3.0
G0 X33.7669 Y18.5071
G0 Z0.405
G1 F1000.0 Z-0.005
G1 F2000.0 Y14.0434
G1 Y18.5071
G0 Z3.0
G0 X35.5266 Y18.0302
G0 Z0.405
G1 F1000.0 Z-0.005
G2 F2000.0 X35.5894 Y18.0728 I0.0563 J-0.0153
G2 X35.657 Y18.0052 I0.0085 J-0.0592
G2 X35.6392 Y17.9625 I-0.0675 J0.0031
G2 X35.5894 Y17.9411 I-0.0444 J0.0348
G2 X35.5396 Y17.9625 I-0.0054 J0.0562
G2 X35.5253 Y18.0052 I0.0627 J0.0446
G2 X35.5266 Y18.0302 I0.0575 J0.0097
G2 X35.5894 Y18.0728 I0.0563 J-0.0153
G2 X35.657 Y18.0052 I0.0085 J-0.0592
G2 X35.6392 Y17.9625 I-0.0675 J0.0031
G2 X35.5894 Y17.9411 I-0.0444 J0.0348
G2 X35.5396 Y17.9625 I-0.0054 J0.0562
G2 X35.5253 Y18.0052 I0.0627 J0.0446
G2 X35.5266 Y18.0302 I0.0575 J0.0097
G3 X35.5253 Y18.0052 I0.0563 J-0.0153
G3 X35.5396 Y17.9625 I0.0769 J0.0019
G3 X35.5894 Y17.9411 I0.0444 J0.0348
G3 X35.6392 Y17.9625 I0.0054 J0.0562
G3 X35.657 Y18.0052 I-0.0497 J0.0458
G3 X35.5894 Y18.0728 I-0.0592 J0.0085
G3 X35.5266 Y18.0302 I-0.0066 J-0.0579
G3 X35.5253 Y18.0052 I0.0563 J-0.0153
G3 X35.5396 Y17.9625 I0.0769 J0.0019
G3 X35.5894 Y17.9411 I0.0444 J0.0348
G3 X35.6392 Y17.9625 I0.0054 J0.0562
G3 X35.657 Y18.0052 I-0.0497 J0.0458
G3 X35.5894 Y18.0728 I-0.0592 J0.0085
G3 X35.5266 Y18.0302 I-0.0066 J-0.0579
G0 Z3.0
G0 X35.5894 Y16.9017
G0 Z0.405
G1 F1000.0 Z-0.005
G1 F2000.0 Y14.047
G1 Y16.9017
G0 Z3.0
G0 X37.2802 Y16.0296
G0 Z0.405
G1 F1000.0 Z-0.005
G2 F2000.0 X37.3478 Y16.4283 I1.1181 J0.0154
G2 X37.5472 Y16.7309 I0.8044 J-0.313
G2 X37.8462 Y16.9231 I0.6259 J-0.6449
G2 X38.2199 Y16.9943 I0.3636 J-0.892
G2 X38.6267 Y16.9274 I0.0176 J-1.1634
G2 X38.9674 Y16.6953 I-0.2914 J-0.7938
G2 X39.178 Y16.3035 I-0.7455 J-0.6532
G2 X39.2344 Y15.8623 I-1.5444 J-0.4216
G1 Y14.047
G1 Y15.8623
G2 X39.2899 Y16.3029 I1.6218 J0.0196
G2 X39.4978 Y16.6953 I0.9617 J-0.2584
G2 X39.8403 Y16.9277 I0.6311 J-0.5614
G2 X40.2489 Y16.9943 I0.3907 J-1.1103
G2 X40.6226 Y16.9231 I0.0102 J-0.9633
G2 X40.9181 Y16.7309 I-0.3116 J-0.8021
G2 X41.1139 Y16.4283 I-0.6332 J-0.6243
G2 X41.1886 Y16.0296 I-0.9478 J-0.3841
G1 Y14.047
G1 Y16.0296
G3 X41.1139 Y16.4283 I-1.0226 J0.0146
G3 X40.9181 Y16.7309 I-0.8289 J-0.3217
G3 X40.6226 Y16.9231 I-0.607 J-0.6098
G3 X40.2489 Y16.9943 I-0.3636 J-0.892
G3 X39.8403 Y16.9277 I-0.0179 J-1.1771
G3 X39.4978 Y16.6953 I0.2885 J-0.7938
G3 X39.2899 Y16.3029 I0.7537 J-0.6507
G3 X39.2344 Y15.8623 I1.566 J-0.421
G1 Y14.047
G1 Y15.8623
G3 X39.178 Y16.3035 I-1.6003 J0.0196
G3 X38.9674 Y16.6953 I-0.956 J-0.2614
G3 X38.6267 Y16.9274 I-0.6321 J-0.5618
G3 X38.2199 Y16.9943 I-0.3892 J-1.0966
G3 X37.8462 Y16.9231 I-0.0102 J-0.9633
G3 X37.5472 Y16.7309 I0.3268 J-0.8371
G3 X37.3478 Y16.4283 I0.605 J-0.6155
G3 X37.2802 Y16.0296 I1.0506 J-0.3833
G1 Y14.047
G1 Y16.0296
G0 Z3.0
G0 X42.8794 Y14.047
G0 Z0.405
G1 F1000.0 Z-0.005
G1 F2000.0 Y16.9017
G1 Y14.047
G0 Z3.0
G0 X45.3996
G0 Z0.405
G1 F1000.0 Z-0.005
G2 F2000.0 X45.1064 Y14.0846 I-0.0121 J1.0678
G2 X44.8443 Y14.2214 I0.1851 J0.6739
G2 X44.6795 Y14.4989 I0.3714 J0.4081
G2 X44.6414 Y14.8194 I1.172 J0.302
G1 Y17.781
G1 Y14.8194
G3 X44.6795 Y14.4989 I1.2099 J-0.0185
G3 X44.8443 Y14.2214 I0.5362 J0.1306
G3 X45.1064 Y14.0846 I0.4471 J0.5369
G3 X45.3996 Y14.047 I0.2811 J1.0302
G1 X45.8979
G1 X45.3996
G0 Z3.0
G0 X47.0099 Y14.7892
G0 Z0.405
G1 F1000.0 Z-0.005
G2 F2000.0 X46.98 Y14.8585 I1.3703 J0.6316
G2 X46.8661 Y15.4779 I1.5234 J0.6003
G2 X46.98 Y16.0902 I1.6007 J0.0189
G2 X47.2897 Y16.5707 I1.3573 J-0.5347
G2 X47.7596 Y16.8839 I0.961 J-0.9325
G2 X48.354 Y16.9943 I0.5799 J-1.4678
G2 X49.13 Y16.795 I0.0219 J-1.5248
G2 X49.4118 Y16.5754 I-0.5589 J-1.0079
G2 X49.5999 Y16.2717 I-0.6867 J-0.6353
G1 X47.8343 Y15.2928
G1 X49.5999 Y16.2717
G3 X49.13 Y16.795 I-0.942 J-0.3732
G3 X48.354 Y16.9943 I-0.7541 J-1.3254
G3 X47.7596 Y16.8839 I-0.0145 J-1.5783
G3 X47.2897 Y16.5707 I0.4911 J-1.2457
G3 X46.98 Y16.0902 I1.0476 J-1.0152
G3 X46.8661 Y15.4779 I1.4867 J-0.5933
G3 X46.98 Y14.8585 I1.6375 J-0.019
G3 X47.2897 Y14.378 I1.4004 J0.5624
G3 X47.7596 Y14.0683 I0.9693 J0.9593
G3 X48.354 Y13.9615 I0.5795 J1.5179
G3 X48.8233 Y14.0226 I0.0133 J1.7311
G3 X49.251 Y14.2249 I-0.3714 J1.3385
G3 X49.5835 Y14.571 I-0.7395 J1.0431
G3 X49.7814 Y15.008 I-1.3843 J0.8903
G2 X49.5835 Y14.571 I-1.5826 J0.4534
G2 X49.251 Y14.2249 I-1.0719 J0.6971
G2 X48.354 Y13.9615 I-0.8563 J1.257
G2 X47.7596 Y14.0683 I-0.0149 J1.6249
G2 X47.2897 Y14.378 I0.4994 J1.2689
G2 X47.0099 Y14.7892 I1.0905 J1.0428
G0 Z3.0
G0 X45.8979 Y16.9195
G0 Z0.405
G1 F1000.0 Z-0.005
G1 F2000.0 X44.6414
G1 X45.8979
G0 Z3.0
G0 X42.9431 Y17.9853
G0 Z0.405
G1 F1000.0 Z-0.005
G3 F2000.0 X42.947 Y18.0052 I-0.0636 J0.0229
G3 X42.8794 Y18.0728 I-0.0592 J0.0085
G3 X42.8153 Y18.0052 I-0.0066 J-0.0579
G3 X42.8296 Y17.9625 I0.0769 J0.0019
G3 X42.8794 Y17.9411 I0.0444 J0.0348
G3 X42.9292 Y17.9625 I0.0054 J0.0562
G3 X42.9431 Y17.9853 I-0.0497 J0.0458
G3 X42.947 Y18.0052 I-0.0636 J0.0229
G3 X42.8794 Y18.0728 I-0.0592 J0.0085
G3 X42.8153 Y18.0052 I-0.0066 J-0.0579
G3 X42.8296 Y17.9625 I0.0769 J0.0019
G3 X42.8794 Y17.9411 I0.0444 J0.0348
G3 X42.9292 Y17.9625 I0.0054 J0.0562
G3 X42.9431 Y17.9853 I-0.0497 J0.0458
G2 X42.9292 Y17.9625 I-0.0636 J0.0229
G2 X42.8794 Y17.9411 I-0.0444 J0.0348
G2 X42.8296 Y17.9625 I-0.0054 J0.0562
G2 X42.8153 Y18.0052 I0.0627 J0.0446
G2 X42.8794 Y18.0728 I0.0575 J0.0097
G2 X42.947 Y18.0052 I0.0085 J-0.0592
G2 X42.9431 Y17.9853 I-0.0675 J0.0031
G2 X42.9292 Y17.9625 I-0.0636 J0.0229
G2 X42.8794 Y17.9411 I-0.0444 J0.0348
G2 X42.8296 Y17.9625 I-0.0054 J0.0562
G2 X42.8153 Y18.0052 I0.0627 J0.0446
G2 X42.8794 Y18.0728 I0.0575 J0.0097
G2 X42.947 Y18.0052 I0.0085 J-0.0592
G2 X42.9431 Y17.9853 I-0.0675 J0.0031
G0 Z3.0
G0 X51.0166 Y16.9017
G0 Z0.405
G1 F1000.0 Z-0.005
G1 F2000.0 Y14.047
G1 Y16.9017
G0 Z3.0
G0 Y15.4138
G0 Z0.405
G1 F1000.0 Z-0.005
G2 F2000.0 X51.0985 Y16.1044 I2.5785 J0.0444
G2 X51.3298 Y16.5778 I1.3607 J-0.3717
G2 X51.6716 Y16.8555 I0.755 J-0.5801
G2 X52.0951 Y16.9836 I0.6109 J-1.2553
G3 X51.6716 Y16.8555 I0.1873 J-1.3834
G3 X51.3298 Y16.5778 I0.4133 J-0.8578
G3 X51.0985 Y16.1044 I1.1292 J-0.8451
G3 X51.0166 Y15.4138 I2.4962 J-0.6461
G1 Y14.0434
G1 Y15.4138
( pot )
G0 Z3.0
( T3 : 3.175 )
T3 M6
M3 S1000
G0 X13.9 Y103.8
G0 Z3.0
G0 X17.1125 Y103.8
G0 Z0.01
G1 F1000.0 Z0.0
G2 F2000.0 X12.2938 Y101.0179 Z-0.0333 I-3.2125 J0.0
G2 Y106.5821 Z-0.0667 I1.6063 J2.7821
G2 X17.1125 Y103.8 Z-0.1 I1.6063 J-2.7821
G2 X12.2938 Y101.0179 Z-0.1333 I-3.2125 J0.0
G2 Y106.5821 Z-0.1667 I1.6062 J2.7821
G2 X17.1125 Y103.8 Z-0.2 I1.6063 J-2.7821
G2 X12.2938 Y101.0179 Z-0.2333 I-3.2125 J0.0
G2 Y106.5821 Z-0.2667 I1.6063 J2.7821
G2 X17.1125 Y103.8 Z-0.3 I1.6063 J-2.7821
G2 X12.2938 Y101.0179 Z-0.3333 I-3.2125 J0.0
G2 Y106.5821 Z-0.3667 I1.6063 J2.7821
G2 X17.1125 Y103.8 Z-0.4 I1.6062 J-2.7821
G2 X12.2938 Y101.0179 Z-0.4333 I-3.2125 J0.0
G2 Y106.5821 Z-0.4667 I1.6063 J2.7821
G2 X17.1125 Y103.8 Z-0.5 I1.6062 J-2.7821
G2 X12.2938 Y101.0179 Z-0.5333 I-3.2125 J0.0
G2 Y106.5821 Z-0.5667 I1.6063 J2.7821
G2 X17.1125 Y103.8 Z-0.6 I1.6063 J-2.7821
G2 X12.2938 Y101.0179 Z-0.6333 I-3.2125 J0.0
G2 Y106.5821 Z-0.6667 I1.6062 J2.7821
G2 X17.1125 Y103.8 Z-0.7 I1.6063 J-2.7821
G2 X12.2938 Y101.0179 Z-0.7333 I-3.2125 J0.0
G2 Y106.5821 Z-0.7667 I1.6062 J2.7821
G2 X17.1125 Y103.8 Z-0.8 I1.6063 J-2.7821
G2 X12.2938 Y101.0179 Z-0.8333 I-3.2125 J0.0
G2 Y106.5821 Z-0.8667 I1.6062 J2.7821
G2 X17.1125 Y103.8 Z-0.9 I1.6063 J-2.7821
G2 X12.2938 Y101.0179 Z-0.9333 I-3.2125 J0.0
G2 Y106.5821 Z-0.9667 I1.6062 J2.7821
G2 X17.1125 Y103.8 Z-1.0 I1.6063 J-2.7821
G2 X12.2938 Y101.0179 Z-1.0333 I-3.2125 J0.0
G2 Y106.5821 Z-1.0667 I1.6062 J2.7821
G2 X17.1125 Y103.8 Z-1.1 I1.6063 J-2.7821
G2 X12.2938 Y101.0179 Z-1.1333 I-3.2125 J0.0
G2 Y106.5821 Z-1.1667 I1.6062 J2.7821
G2 X17.1125 Y103.8 Z-1.2 I1.6063 J-2.7821
G2 X12.2938 Y101.0179 Z-1.2333 I-3.2125 J0.0
G2 Y106.5821 Z-1.2667 I1.6062 J2.7821
G2 X17.1125 Y103.8 Z-1.3 I1.6063 J-2.7821
G2 X12.2938 Y101.0179 Z-1.3333 I-3.2125 J0.0
G2 X12.2937 Y106.5821 Z-1.3667 I1.6062 J2.7821
G2 X17.1125 Y103.8 Z-1.4 I1.6063 J-2.7821
G2 X12.2938 Y101.0179 Z-1.4333 I-3.2125 J0.0
G2 X12.2937 Y106.5821 Z-1.4667 I1.6062 J2.7821
G2 X17.1125 Y103.8 Z-1.5 I1.6063 J-2.7821
G2 X12.2938 Y101.0179 Z-1.5333 I-3.2125 J0.0
G2 X12.2937 Y106.5821 Z-1.5667 I1.6062 J2.7821
G2 X17.1125 Y103.8 Z-1.6 I1.6063 J-2.7821
G2 X12.2938 Y101.0179 Z-1.6333 I-3.2125 J0.0
G2 X12.2937 Y106.5821 Z-1.6667 I1.6062 J2.7821
G2 X17.1125 Y103.8 Z-1.7 I1.6063 J-2.7821
G2 X12.2938 Y101.0179 Z-1.7333 I-3.2125 J0.0
G2 X12.2937 Y106.5821 Z-1.7667 I1.6062 J2.7821
G2 X17.1125 Y103.8 Z-1.8 I1.6063 J-2.7821
G2 X12.2938 Y101.0179 Z-1.8333 I-3.2125 J0.0
G2 X12.2937 Y106.5821 Z-1.8667 I1.6062 J2.7821
G2 X17.1125 Y103.8 Z-1.9 I1.6063 J-2.7821
G2 X12.2938 Y101.0179 Z-1.9333 I-3.2125 J0.0
G2 X12.2937 Y106.5821 Z-1.9667 I1.6062 J2.7821
G2 X17.1125 Y103.8 Z-2.0 I1.6063 J-2.7821
G2 X12.2938 Y101.0179 Z-2.0333 I-3.2125 J0.0
G2 X12.2937 Y106.5821 Z-2.0667 I1.6062 J2.7821
G2 X17.1125 Y103.8 Z-2.1 I1.6063 J-2.7821
G2 X12.2938 Y101.0179 Z-2.1333 I-3.2125 J0.0
G2 X12.2937 Y106.5821 Z-2.1667 I1.6062 J2.7821
G2 X17.1125 Y103.8 Z-2.2 I1.6063 J-2.7821
G2 X12.2938 Y101.0179 Z-2.2333 I-3.2125 J0.0
G2 Y106.5821 Z-2.2667 I1.6062 J2.7821
G2 X17.1125 Y103.8 Z-2.3 I1.6063 J-2.7821
G2 X12.2938 Y101.0179 Z-2.3333 I-3.2125 J0.0
G2 Y106.5821 Z-2.3667 I1.6063 J2.7821
G2 X17.1125 Y103.8 Z-2.4 I1.6062 J-2.7821
G2 X12.2938 Y101.0179 Z-2.4333 I-3.2125 J0.0
G2 Y106.5821 Z-2.4667 I1.6063 J2.7821
G2 X17.1125 Y103.8 Z-2.5 I1.6062 J-2.7821
G2 X12.2937 Y101.0179 Z-2.5333 I-3.2125 J0.0
G2 X12.2938 Y106.5821 Z-2.5667 I1.6063 J2.7821
G2 X17.1125 Y103.8 Z-2.6 I1.6062 J-2.7821
G2 X12.2937 Y101.0179 Z-2.6333 I-3.2125 J0.0
G2 X12.2938 Y106.5821 Z-2.6667 I1.6063 J2.7821
G2 X17.1125 Y103.8 Z-2.7 I1.6062 J-2.7821
G2 X12.2937 Y101.0179 Z-2.7333 I-3.2125 J0.0
G2 X12.2938 Y106.5821 Z-2.7667 I1.6063 J2.7821
G2 X17.1125 Y103.8 Z-2.8 I1.6062 J-2.7821
G2 X12.2937 Y101.0179 Z-2.8333 I-3.2125 J0.0
G2 X12.2938 Y106.5821 Z-2.8667 I1.6063 J2.7821
G2 X17.1125 Y103.8 Z-2.9 I1.6062 J-2.7821
G2 X12.2937 Y101.0179 Z-2.9333 I-3.2125 J0.0
G2 X12.2938 Y106.5821 Z-2.9667 I1.6063 J2.7821
G2 X17.1125 Y103.8 Z-3.0 I1.6062 J-2.7821
G2 X12.2937 Y101.0179 Z-3.0333 I-3.2125 J0.0
G2 X12.2938 Y106.5821 Z-3.0667 I1.6063 J2.7821
G2 X17.1125 Y103.8 Z-3.1 I1.6062 J-2.7821
G2 X12.2937 Y101.0179 Z-3.1333 I-3.2125 J0.0
G2 X12.2938 Y106.5821 Z-3.1667 I1.6063 J2.7821
G2 X17.1125 Y103.8 Z-3.2 I1.6062 J-2.7821
G2 X12.2937 Y101.0179 I-3.2125 J0.0
G2 X12.2938 Y106.5821 I1.6063 J2.7821
G2 X17.1125 Y103.8 I1.6062 J-2.7821
G0 Z3.0
G0 X17.1725 Y75.73
G0 Z0.01
G1 F1000.0 Z0.0
G2 F2000.0 X12.3538 Y72.9479 Z-0.0333 I-3.2125 J0.0
G2 Y78.5121 Z-0.0667 I1.6063 J2.7821
G2 X17.1725 Y75.73 Z-0.1 I1.6063 J-2.7821
G2 X12.3538 Y72.9479 Z-0.1333 I-3.2125 J0.0
G2 Y78.5121 Z-0.1667 I1.6062 J2.7821
G2 X17.1725 Y75.73 Z-0.2 I1.6063 J-2.7821
G2 X12.3538 Y72.9479 Z-0.2333 I-3.2125 J0.0
G2 Y78.5121 Z-0.2667 I1.6063 J2.7821
G2 X17.1725 Y75.73 Z-0.3 I1.6063 J-2.7821
G2 X12.3538 Y72.9479 Z-0.3333 I-3.2125 J0.0
G2 Y78.5121 Z-0.3667 I1.6063 J2.7821
G2 X17.1725 Y75.73 Z-0.4 I1.6062 J-2.7821
G2 X12.3538 Y72.9479 Z-0.4333 I-3.2125 J0.0
G2 Y78.5121 Z-0.4667 I1.6063 J2.7821
G2 X17.1725 Y75.73 Z-0.5 I1.6062 J-2.7821
G2 X12.3538 Y72.9479 Z-0.5333 I-3.2125 J0.0
G2 Y78.5121 Z-0.5667 I1.6063 J2.7821
G2 X17.1725 Y75.73 Z-0.6 I1.6063 J-2.7821
G2 X12.3538 Y72.9479 Z-0.6333 I-3.2125 J0.0
G2 Y78.5121 Z-0.6667 I1.6062 J2.7821
G2 X17.1725 Y75.73 Z-0.7 I1.6063 J-2.7821
G2 X12.3538 Y72.9479 Z-0.7333 I-3.2125 J0.0
G2 Y78.5121 Z-0.7667 I1.6062 J2.7821
G2 X17.1725 Y75.73 Z-0.8 I1.6063 J-2.7821
G2 X12.3538 Y72.9479 Z-0.8333 I-3.2125 J0.0
G2 Y78.5121 Z-0.8667 I1.6062 J2.7821
G2 X17.1725 Y75.73 Z-0.9 I1.6063 J-2.7821
G2 X12.3538 Y72.9479 Z-0.9333 I-3.2125 J0.0
G2 Y78.5121 Z-0.9667 I1.6062 J2.7821
G2 X17.1725 Y75.73 Z-1.0 I1.6063 J-2.7821
G2 X12.3538 Y72.9479 Z-1.0333 I-3.2125 J0.0
G2 Y78.5121 Z-1.0667 I1.6062 J2.7821
G2 X17.1725 Y75.73 Z-1.1 I1.6063 J-2.7821
G2 X12.3538 Y72.9479 Z-1.1333 I-3.2125 J0.0
G2 Y78.5121 Z-1.1667 I1.6062 J2.7821
G2 X17.1725 Y75.73 Z-1.2 I1.6063 J-2.7821
G2 X12.3538 Y72.9479 Z-1.2333 I-3.2125 J0.0
G2 Y78.5121 Z-1.2667 I1.6062 J2.7821
G2 X17.1725 Y75.73 Z-1.3 I1.6063 J-2.7821
G2 X12.3538 Y72.9479 Z-1.3333 I-3.2125 J0.0
G2 X12.3537 Y78.5121 Z-1.3667 I1.6062 J2.7821
G2 X17.1725 Y75.73 Z-1.4 I1.6063 J-2.7821
G2 X12.3538 Y72.9479 Z-1.4333 I-3.2125 J0.0
G2 X12.3537 Y78.5121 Z-1.4667 I1.6062 J2.7821
G2 X17.1725 Y75.73 Z-1.5 I1.6063 J-2.7821
G2 X12.3538 Y72.9479 Z-1.5333 I-3.2125 J0.0
G2 X12.3537 Y78.5121 Z-1.5667 I1.6062 J2.7821
G2 X17.1725 Y75.73 Z-1.6 I1.6063 J-2.7821
G2 X12.3538 Y72.9479 Z-1.6333 I-3.2125 J0.0
G2 X12.3537 Y78.5121 Z-1.6667 I1.6062 J2.7821
G2 X17.1725 Y75.73 Z-1.7 I1.6063 J-2.7821
G2 X12.3538 Y72.9479 Z-1.7333 I-3.2125 J0.0
G2 X12.3537 Y78.5121 Z-1.7667 I1.6062 J2.7821
G2 X17.1725 Y75.73 Z-1.8 I1.6063 J-2.7821
G2 X12.3538 Y72.9479 Z-1.8333 I-3.2125 J0.0
G2 X12.3537 Y78.5121 Z-1.8667 I1.6062 J2.7821
G2 X17.1725 Y75.73 Z-1.9 I1.6063 J-2.7821
G2 X12.3538 Y72.9479 Z-1.9333 I-3.2125 J0.0
G2 X12.3537 Y78.5121 Z-1.9667 I1.6062 J2.7821
G2 X17.1725 Y75.73 Z-2.0 I1.6063 J-2.7821
G2 X12.3538 Y72.9479 Z-2.0333 I-3.2125 J0.0
G2 X12.3537 Y78.5121 Z-2.0667 I1.6062 J2.7821
G2 X17.1725 Y75.73 Z-2.1 I1.6063 J-2.7821
G2 X12.3538 Y72.9479 Z-2.1333 I-3.2125 J0.0
G2 X12.3537 Y78.5121 Z-2.1667 I1.6062 J2.7821
G2 X17.1725 Y75.73 Z-2.2 I1.6063 J-2.7821
G2 X12.3538 Y72.9479 Z-2.2333 I-3.2125 J0.0
G2 Y78.5121 Z-2.2667 I1.6062 J2.7821
G2 X17.1725 Y75.73 Z-2.3 I1.6063 J-2.7821
G2 X12.3538 Y72.9479 Z-2.3333 I-3.2125 J0.0
G2 Y78.5121 Z-2.3667 I1.6063 J2.7821
G2 X17.1725 Y75.73 Z-2.4 I1.6062 J-2.7821
G2 X12.3538 Y72.9479 Z-2.4333 I-3.2125 J0.0
G2 Y78.5121 Z-2.4667 I1.6063 J2.7821
G2 X17.1725 Y75.73 Z-2.5 I1.6062 J-2.7821
G2 X12.3537 Y72.9479 Z-2.5333 I-3.2125 J0.0
G2 X12.3538 Y78.5121 Z-2.5667 I1.6063 J2.7821
G2 X17.1725 Y75.73 Z-2.6 I1.6062 J-2.7821
G2 X12.3537 Y72.9479 Z-2.6333 I-3.2125 J0.0
G2 X12.3538 Y78.5121 Z-2.6667 I1.6063 J2.7821
G2 X17.1725 Y75.73 Z-2.7 I1.6062 J-2.7821
G2 X12.3537 Y72.9479 Z-2.7333 I-3.2125 J0.0
G2 X12.3538 Y78.5121 Z-2.7667 I1.6063 J2.7821
G2 X17.1725 Y75.73 Z-2.8 I1.6062 J-2.7821
G2 X12.3537 Y72.9479 Z-2.8333 I-3.2125 J0.0
G2 X12.3538 Y78.5121 Z-2.8667 I1.6063 J2.7821
G2 X17.1725 Y75.73 Z-2.9 I1.6062 J-2.7821
G2 X12.3537 Y72.9479 Z-2.9333 I-3.2125 J0.0
G2 X12.3538 Y78.5121 Z-2.9667 I1.6063 J2.7821
G2 X17.1725 Y75.73 Z-3.0 I1.6062 J-2.7821
G2 X12.3537 Y72.9479 Z-3.0333 I-3.2125 J0.0
G2 X12.3538 Y78.5121 Z-3.0667 I1.6063 J2.7821
G2 X17.1725 Y75.73 Z-3.1 I1.6062 J-2.7821
G2 X12.3537 Y72.9479 Z-3.1333 I-3.2125 J0.0
G2 X12.3538 Y78.5121 Z-3.1667 I1.6063 J2.7821
G2 X17.1725 Y75.73 Z-3.2 I1.6062 J-2.7821
G2 X12.3537 Y72.9479 I-3.2125 J0.0
G2 X12.3538 Y78.5121 I1.6063 J2.7821
G2 X17.1725 Y75.73 I1.6062 J-2.7821
G0 Z3.0
G0 X45.2425 Y75.79
G0 Z0.01
G1 F1000.0 Z0.0
G2 F2000.0 X40.4238 Y73.0079 Z-0.0333 I-3.2125 J0.0
G2 Y78.5721 Z-0.0667 I1.6063 J2.7821
G2 X45.2425 Y75.79 Z-0.1 I1.6063 J-2.7821
G2 X40.4238 Y73.0079 Z-0.1333 I-3.2125 J0.0
G2 Y78.5721 Z-0.1667 I1.6063 J2.7821
G2 X45.2425 Y75.79 Z-0.2 I1.6063 J-2.7821
G2 X40.4238 Y73.0079 Z-0.2333 I-3.2125 J0.0
G2 Y78.5721 Z-0.2667 I1.6063 J2.7821
G2 X45.2425 Y75.79 Z-0.3 I1.6063 J-2.7821
G2 X40.4238 Y73.0079 Z-0.3333 I-3.2125 J0.0
G2 Y78.5721 Z-0.3667 I1.6063 J2.7821
G2 X45.2425 Y75.79 Z-0.4 I1.6062 J-2.7821
G2 X40.4238 Y73.0079 Z-0.4333 I-3.2125 J0.0
G2 Y78.5721 Z-0.4667 I1.6063 J2.7821
G2 X45.2425 Y75.79 Z-0.5 I1.6062 J-2.7821
G2 X40.4238 Y73.0079 Z-0.5333 I-3.2125 J0.0
G2 Y78.5721 Z-0.5667 I1.6063 J2.7821
G2 X45.2425 Y75.79 Z-0.6 I1.6063 J-2.7821
G2 X40.4238 Y73.0079 Z-0.6333 I-3.2125 J0.0
G2 Y78.5721 Z-0.6667 I1.6062 J2.7821
G2 X45.2425 Y75.79 Z-0.7 I1.6063 J-2.7821
G2 X40.4238 Y73.0079 Z-0.7333 I-3.2125 J0.0
G2 Y78.5721 Z-0.7667 I1.6062 J2.7821
G2 X45.2425 Y75.79 Z-0.8 I1.6063 J-2.7821
G2 X40.4238 Y73.0079 Z-0.8333 I-3.2125 J0.0
G2 Y78.5721 Z-0.8667 I1.6062 J2.7821
G2 X45.2425 Y75.79 Z-0.9 I1.6063 J-2.7821
G2 X40.4238 Y73.0079 Z-0.9333 I-3.2125 J0.0
G2 Y78.5721 Z-0.9667 I1.6062 J2.7821
G2 X45.2425 Y75.79 Z-1.0 I1.6063 J-2.7821
G2 X40.4238 Y73.0079 Z-1.0333 I-3.2125 J0.0
G2 Y78.5721 Z-1.0667 I1.6062 J2.7821
G2 X45.2425 Y75.79 Z-1.1 I1.6063 J-2.7821
G2 X40.4238 Y73.0079 Z-1.1333 I-3.2125 J0.0
G2 Y78.5721 Z-1.1667 I1.6062 J2.7821
G2 X45.2425 Y75.79 Z-1.2 I1.6063 J-2.7821
G2 X40.4238 Y73.0079 Z-1.2333 I-3.2125 J0.0
G2 Y78.5721 Z-1.2667 I1.6062 J2.7821
G2 X45.2425 Y75.79 Z-1.3 I1.6063 J-2.7821
G2 X40.4238 Y73.0079 Z-1.3333 I-3.2125 J0.0
G2 X40.4237 Y78.5721 Z-1.3667 I1.6062 J2.7821
G2 X45.2425 Y75.79 Z-1.4 I1.6063 J-2.7821
G2 X40.4238 Y73.0079 Z-1.4333 I-3.2125 J0.0
G2 X40.4237 Y78.5721 Z-1.4667 I1.6062 J2.7821
G2 X45.2425 Y75.79 Z-1.5 I1.6063 J-2.7821
G2 X40.4238 Y73.0079 Z-1.5333 I-3.2125 J0.0
G2 X40.4237 Y78.5721 Z-1.5667 I1.6062 J2.7821
G2 X45.2425 Y75.79 Z-1.6 I1.6063 J-2.7821
G2 X40.4238 Y73.0079 Z-1.6333 I-3.2125 J0.0
G2 X40.4237 Y78.5721 Z-1.6667 I1.6062 J2.7821
G2 X45.2425 Y75.79 Z-1.7 I1.6063 J-2.7821
G2 X40.4238 Y73.0079 Z-1.7333 I-3.2125 J0.0
G2 X40.4237 Y78.5721 Z-1.7667 I1.6062 J2.7821
G2 X45.2425 Y75.79 Z-1.8 I1.6063 J-2.7821
G2 X40.4238 Y73.0079 Z-1.8333 I-3.2125 J0.0
G2 X40.4237 Y78.5721 Z-1.8667 I1.6062 J2.7821
G2 X45.2425 Y75.79 Z-1.9 I1.6063 J-2.7821
G2 X40.4238 Y73.0079 Z-1.9333 I-3.2125 J0.0
G2 X40.4237 Y78.5721 Z-1.9667 I1.6062 J2.7821
G2 X45.2425 Y75.79 Z-2.0 I1.6063 J-2.7821
G2 X40.4238 Y73.0079 Z-2.0333 I-3.2125 J0.0
G2 X40.4237 Y78.5721 Z-2.0667 I1.6062 J2.7821
G2 X45.2425 Y75.79 Z-2.1 I1.6063 J-2.7821
G2 X40.4238 Y73.0079 Z-2.1333 I-3.2125 J0.0
G2 X40.4237 Y78.5721 Z-2.1667 I1.6062 J2.7821
G2 X45.2425 Y75.79 Z-2.2 I1.6063 J-2.7821
G2 X40.4238 Y73.0079 Z-2.2333 I-3.2125 J0.0
G2 Y78.5721 Z-2.2667 I1.6062 J2.7821
G2 X45.2425 Y75.79 Z-2.3 I1.6063 J-2.7821
G2 X40.4238 Y73.0079 Z-2.3333 I-3.2125 J0.0
G2 Y78.5721 Z-2.3667 I1.6063 J2.7821
G2 X45.2425 Y75.79 Z-2.4 I1.6062 J-2.7821
G2 X40.4238 Y73.0079 Z-2.4333 I-3.2125 J0.0
G2 Y78.5721 Z-2.4667 I1.6063 J2.7821
G2 X45.2425 Y75.79 Z-2.5 I1.6062 J-2.7821
G2 X40.4237 Y73.0079 Z-2.5333 I-3.2125 J0.0
G2 X40.4238 Y78.5721 Z-2.5667 I1.6063 J2.7821
G2 X45.2425 Y75.79 Z-2.6 I1.6062 J-2.7821
G2 X40.4237 Y73.0079 Z-2.6333 I-3.2125 J0.0
G2 X40.4238 Y78.5721 Z-2.6667 I1.6063 J2.7821
G2 X45.2425 Y75.79 Z-2.7 I1.6062 J-2.7821
G2 X40.4237 Y73.0079 Z-2.7333 I-3.2125 J0.0
G2 X40.4238 Y78.5721 Z-2.7667 I1.6063 J2.7821
G2 X45.2425 Y75.79 Z-2.8 I1.6062 J-2.7821
G2 X40.4237 Y73.0079 Z-2.8333 I-3.2125 J0.0
G2 X40.4238 Y78.5721 Z-2.8667 I1.6063 J2.7821
G2 X45.2425 Y75.79 Z-2.9 I1.6062 J-2.7821
G2 X40.4237 Y73.0079 Z-2.9333 I-3.2125 J0.0
G2 X40.4238 Y78.5721 Z-2.9667 I1.6063 J2.7821
G2 X45.2425 Y75.79 Z-3.0 I1.6062 J-2.7821
G2 X40.4237 Y73.0079 Z-3.0333 I-3.2125 J0.0
G2 X40.4238 Y78.5721 Z-3.0667 I1.6063 J2.7821
G2 X45.2425 Y75.79 Z-3.1 I1.6062 J-2.7821
G2 X40.4237 Y73.0079 Z-3.1333 I-3.2125 J0.0
G2 X40.4238 Y78.5721 Z-3.1667 I1.6063 J2.7821
G2 X45.2425 Y75.79 Z-3.2 I1.6062 J-2.7821
G2 X40.4237 Y73.0079 I-3.2125 J0.0
G2 X40.4238 Y78.5721 I1.6063 J2.7821
G2 X45.2425 Y75.79 I1.6062 J-2.7821
G0 Z3.0
G0 X45.1825 Y103.86
G0 Z0.01
G1 F1000.0 Z0.0
G2 F2000.0 X40.3638 Y101.0779 Z-0.0333 I-3.2125 J0.0
G2 Y106.6421 Z-0.0667 I1.6063 J2.7821
G2 X45.1825 Y103.86 Z-0.1 I1.6063 J-2.7821
G2 X40.3638 Y101.0779 Z-0.1333 I-3.2125 J0.0
G2 Y106.6421 Z-0.1667 I1.6063 J2.7821
G2 X45.1825 Y103.86 Z-0.2 I1.6063 J-2.7821
G2 X40.3638 Y101.0779 Z-0.2333 I-3.2125 J0.0
G2 Y106.6421 Z-0.2667 I1.6063 J2.7821
G2 X45.1825 Y103.86 Z-0.3 I1.6063 J-2.7821
G2 X40.3638 Y101.0779 Z-0.3333 I-3.2125 J0.0
G2 Y106.6421 Z-0.3667 I1.6063 J2.7821
G2 X45.1825 Y103.86 Z-0.4 I1.6062 J-2.7821
G2 X40.3638 Y101.0779 Z-0.4333 I-3.2125 J0.0
G2 Y106.6421 Z-0.4667 I1.6063 J2.7821
G2 X45.1825 Y103.86 Z-0.5 I1.6062 J-2.7821
G2 X40.3638 Y101.0779 Z-0.5333 I-3.2125 J0.0
G2 Y106.6421 Z-0.5667 I1.6063 J2.7821
G2 X45.1825 Y103.86 Z-0.6 I1.6063 J-2.7821
G2 X40.3638 Y101.0779 Z-0.6333 I-3.2125 J0.0
G2 Y106.6421 Z-0.6667 I1.6062 J2.7821
G2 X45.1825 Y103.86 Z-0.7 I1.6063 J-2.7821
G2 X40.3638 Y101.0779 Z-0.7333 I-3.2125 J0.0
G2 Y106.6421 Z-0.7667 I1.6062 J2.7821
G2 X45.1825 Y103.86 Z-0.8 I1.6063 J-2.7821
G2 X40.3638 Y101.0779 Z-0.8333 I-3.2125 J0.0
G2 Y106.6421 Z-0.8667 I1.6062 J2.7821
G2 X45.1825 Y103.86 Z-0.9 I1.6063 J-2.7821
G2 X40.3638 Y101.0779 Z-0.9333 I-3.2125 J0.0
G2 Y106.6421 Z-0.9667 I1.6062 J2.7821
G2 X45.1825 Y103.86 Z-1.0 I1.6063 J-2.7821
G2 X40.3638 Y101.0779 Z-1.0333 I-3.2125 J0.0
G2 Y106.6421 Z-1.0667 I1.6062 J2.7821
G2 X45.1825 Y103.86 Z-1.1 I1.6063 J-2.7821
G2 X40.3638 Y101.0779 Z-1.1333 I-3.2125 J0.0
G2 Y106.6421 Z-1.1667 I1.6062 J2.7821
G2 X45.1825 Y103.86 Z-1.2 I1.6063 J-2.7821
G2 X40.3638 Y101.0779 Z-1.2333 I-3.2125 J0.0
G2 Y106.6421 Z-1.2667 I1.6062 J2.7821
G2 X45.1825 Y103.86 Z-1.3 I1.6063 J-2.7821
G2 X40.3638 Y101.0779 Z-1.3333 I-3.2125 J0.0
G2 X40.3637 Y106.6421 Z-1.3667 I1.6062 J2.7821
G2 X45.1825 Y103.86 Z-1.4 I1.6063 J-2.7821
G2 X40.3638 Y101.0779 Z-1.4333 I-3.2125 J0.0
G2 X40.3637 Y106.6421 Z-1.4667 I1.6062 J2.7821
G2 X45.1825 Y103.86 Z-1.5 I1.6063 J-2.7821
G2 X40.3638 Y101.0779 Z-1.5333 I-3.2125 J0.0
G2 X40.3637 Y106.6421 Z-1.5667 I1.6062 J2.7821
G2 X45.1825 Y103.86 Z-1.6 I1.6063 J-2.7821
G2 X40.3638 Y101.0779 Z-1.6333 I-3.2125 J0.0
G2 X40.3637 Y106.6421 Z-1.6667 I1.6062 J2.7821
G2 X45.1825 Y103.86 Z-1.7 I1.6063 J-2.7821
G2 X40.3638 Y101.0779 Z-1.7333 I-3.2125 J0.0
G2 X40.3637 Y106.6421 Z-1.7667 I1.6062 J2.7821
G2 X45.1825 Y103.86 Z-1.8 I1.6063 J-2.7821
G2 X40.3638 Y101.0779 Z-1.8333 I-3.2125 J0.0
G2 X40.3637 Y106.6421 Z-1.8667 I1.6062 J2.7821
G2 X45.1825 Y103.86 Z-1.9 I1.6063 J-2.7821
G2 X40.3638 Y101.0779 Z-1.9333 I-3.2125 J0.0
G2 X40.3637 Y106.6421 Z-1.9667 I1.6062 J2.7821
G2 X45.1825 Y103.86 Z-2.0 I1.6063 J-2.7821
G2 X40.3638 Y101.0779 Z-2.0333 I-3.2125 J0.0
G2 X40.3637 Y106.6421 Z-2.0667 I1.6062 J2.7821
G2 X45.1825 Y103.86 Z-2.1 I1.6063 J-2.7821
G2 X40.3638 Y101.0779 Z-2.1333 I-3.2125 J0.0
G2 X40.3637 Y106.6421 Z-2.1667 I1.6062 J2.7821
G2 X45.1825 Y103.86 Z-2.2 I1.6063 J-2.7821
G2 X40.3638 Y101.0779 Z-2.2333 I-3.2125 J0.0
G2 Y106.6421 Z-2.2667 I1.6062 J2.7821
G2 X45.1825 Y103.86 Z-2.3 I1.6063 J-2.7821
G2 X40.3638 Y101.0779 Z-2.3333 I-3.2125 J0.0
G2 Y106.6421 Z-2.3667 I1.6063 J2.7821
G2 X45.1825 Y103.86 Z-2.4 I1.6062 J-2.7821
G2 X40.3638 Y101.0779 Z-2.4333 I-3.2125 J0.0
G2 Y106.6421 Z-2.4667 I1.6063 J2.7821
G2 X45.1825 Y103.86 Z-2.5 I1.6062 J-2.7821
G2 X40.3637 Y101.0779 Z-2.5333 I-3.2125 J0.0
G2 X40.3638 Y106.6421 Z-2.5667 I1.6063 J2.7821
G2 X45.1825 Y103.86 Z-2.6 I1.6062 J-2.7821
G2 X40.3637 Y101.0779 Z-2.6333 I-3.2125 J0.0
G2 X40.3638 Y106.6421 Z-2.6667 I1.6063 J2.7821
G2 X45.1825 Y103.86 Z-2.7 I1.6062 J-2.7821
G2 X40.3637 Y101.0779 Z-2.7333 I-3.2125 J0.0
G2 X40.3638 Y106.6421 Z-2.7667 I1.6063 J2.7821
G2 X45.1825 Y103.86 Z-2.8 I1.6062 J-2.7821
G2 X40.3637 Y101.0779 Z-2.8333 I-3.2125 J0.0
G2 X40.3638 Y106.6421 Z-2.8667 I1.6063 J2.7821
G2 X45.1825 Y103.86 Z-2.9 I1.6062 J-2.7821
G2 X40.3637 Y101.0779 Z-2.9333 I-3.2125 J0.0
G2 X40.3638 Y106.6421 Z-2.9667 I1.6063 J2.7821
G2 X45.1825 Y103.86 Z-3.0 I1.6062 J-2.7821
G2 X40.3637 Y101.0779 Z-3.0333 I-3.2125 J0.0
G2 X40.3638 Y106.6421 Z-3.0667 I1.6063 J2.7821
G2 X45.1825 Y103.86 Z-3.1 I1.6062 J-2.7821
G2 X40.3637 Y101.0779 Z-3.1333 I-3.2125 J0.0
G2 X40.3638 Y106.6421 Z-3.1667 I1.6063 J2.7821
G2 X45.1825 Y103.86 Z-3.2 I1.6062 J-2.7821
G2 X40.3637 Y101.0779 I-3.2125 J0.0
G2 X40.3638 Y106.6421 I1.6063 J2.7821
G2 X45.1825 Y103.86 I1.6062 J-2.7821
G0 Z3.0
G0 X17.2325 Y47.66
G0 Z0.01
G1 F1000.0 Z0.0
G2 F2000.0 X12.4138 Y44.8779 Z-0.0333 I-3.2125 J0.0
G2 Y50.4421 Z-0.0667 I1.6063 J2.7821
G2 X17.2325 Y47.66 Z-0.1 I1.6063 J-2.7821
G2 X12.4138 Y44.8779 Z-0.1333 I-3.2125 J0.0
G2 Y50.4421 Z-0.1667 I1.6063 J2.7821
G2 X17.2325 Y47.66 Z-0.2 I1.6063 J-2.7821
G2 X12.4138 Y44.8779 Z-0.2333 I-3.2125 J0.0
G2 Y50.4421 Z-0.2667 I1.6062 J2.7821
G2 X17.2325 Y47.66 Z-0.3 I1.6063 J-2.7821
G2 X12.4138 Y44.8779 Z-0.3333 I-3.2125 J0.0
G2 Y50.4421 Z-0.3667 I1.6063 J2.7821
G2 X17.2325 Y47.66 Z-0.4 I1.6063 J-2.7821
G2 X12.4138 Y44.8779 Z-0.4333 I-3.2125 J0.0
G2 Y50.4421 Z-0.4667 I1.6063 J2.7821
G2 X17.2325 Y47.66 Z-0.5 I1.6062 J-2.7821
G2 X12.4138 Y44.8779 Z-0.5333 I-3.2125 J0.0
G2 Y50.4421 Z-0.5667 I1.6063 J2.7821
G2 X17.2325 Y47.66 Z-0.6 I1.6063 J-2.7821
G2 X12.4138 Y44.8779 Z-0.6333 I-3.2125 J0.0
G2 Y50.4421 Z-0.6667 I1.6062 J2.7821
G2 X17.2325 Y47.66 Z-0.7 I1.6063 J-2.7821
G2 X12.4138 Y44.8779 Z-0.7333 I-3.2125 J0.0
G2 Y50.4421 Z-0.7667 I1.6062 J2.7821
G2 X17.2325 Y47.66 Z-0.8 I1.6063 J-2.7821
G2 X12.4138 Y44.8779 Z-0.8333 I-3.2125 J0.0
G2 Y50.4421 Z-0.8667 I1.6062 J2.7821
G2 X17.2325 Y47.66 Z-0.9 I1.6063 J-2.7821
G2 X12.4138 Y44.8779 Z-0.9333 I-3.2125 J0.0
G2 Y50.4421 Z-0.9667 I1.6062 J2.7821
G2 X17.2325 Y47.66 Z-1.0 I1.6063 J-2.7821
G2 X12.4138 Y44.8779 Z-1.0333 I-3.2125 J0.0
G2 Y50.4421 Z-1.0667 I1.6062 J2.7821
G2 X17.2325 Y47.66 Z-1.1 I1.6063 J-2.7821
G2 X12.4138 Y44.8779 Z-1.1333 I-3.2125 J0.0
G2 Y50.4421 Z-1.1667 I1.6062 J2.7821
G2 X17.2325 Y47.66 Z-1.2 I1.6063 J-2.7821
G2 X12.4138 Y44.8779 Z-1.2333 I-3.2125 J0.0
G2 Y50.4421 Z-1.2667 I1.6062 J2.7821
G2 X17.2325 Y47.66 Z-1.3 I1.6063 J-2.7821
G2 X12.4138 Y44.8779 Z-1.3333 I-3.2125 J0.0
G2 X12.4137 Y50.4421 Z-1.3667 I1.6062 J2.7821
G2 X17.2325 Y47.66 Z-1.4 I1.6063 J-2.7821
G2 X12.4138 Y44.8779 Z-1.4333 I-3.2125 J0.0
G2 X12.4137 Y50.4421 Z-1.4667 I1.6062 J2.7821
G2 X17.2325 Y47.66 Z-1.5 I1.6063 J-2.7821
G2 X12.4138 Y44.8779 Z-1.5333 I-3.2125 J0.0
G2 X12.4137 Y50.4421 Z-1.5667 I1.6062 J2.7821
G2 X17.2325 Y47.66 Z-1.6 I1.6063 J-2.7821
G2 X12.4138 Y44.8779 Z-1.6333 I-3.2125 J0.0
G2 X12.4137 Y50.4421 Z-1.6667 I1.6062 J2.7821
G2 X17.2325 Y47.66 Z-1.7 I1.6063 J-2.7821
G2 X12.4138 Y44.8779 Z-1.7333 I-3.2125 J0.0
G2 X12.4137 Y50.4421 Z-1.7667 I1.6062 J2.7821
G2 X17.2325 Y47.66 Z-1.8 I1.6063 J-2.7821
G2 X12.4138 Y44.8779 Z-1.8333 I-3.2125 J0.0
G2 X12.4137 Y50.4421 Z-1.8667 I1.6062 J2.7821
G2 X17.2325 Y47.66 Z-1.9 I1.6063 J-2.7821
G2 X12.4138 Y44.8779 Z-1.9333 I-3.2125 J0.0
G2 X12.4137 Y50.4421 Z-1.9667 I1.6062 J2.7821
G2 X17.2325 Y47.66 Z-2.0 I1.6063 J-2.7821
G2 X12.4138 Y44.8779 Z-2.0333 I-3.2125 J0.0
G2 X12.4137 Y50.4421 Z-2.0667 I1.6062 J2.7821
G2 X17.2325 Y47.66 Z-2.1 I1.6063 J-2.7821
G2 X12.4138 Y44.8779 Z-2.1333 I-3.2125 J0.0
G2 X12.4137 Y50.4421 Z-2.1667 I1.6062 J2.7821
G2 X17.2325 Y47.66 Z-2.2 I1.6063 J-2.7821
G2 X12.4138 Y44.8779 Z-2.2333 I-3.2125 J0.0
G2 Y50.4421 Z-2.2667 I1.6062 J2.7821
G2 X17.2325 Y47.66 Z-2.3 I1.6063 J-2.7821
G2 X12.4138 Y44.8779 Z-2.3333 I-3.2125 J0.0
G2 Y50.4421 Z-2.3667 I1.6063 J2.7821
G2 X17.2325 Y47.66 Z-2.4 I1.6062 J-2.7821
G2 X12.4138 Y44.8779 Z-2.4333 I-3.2125 J0.0
G2 Y50.4421 Z-2.4667 I1.6063 J2.7821
G2 X17.2325 Y47.66 Z-2.5 I1.6062 J-2.7821
G2 X12.4137 Y44.8779 Z-2.5333 I-3.2125 J0.0
G2 X12.4138 Y50.4421 Z-2.5667 I1.6063 J2.7821
G2 X17.2325 Y47.66 Z-2.6 I1.6062 J-2.7821
G2 X12.4137 Y44.8779 Z-2.6333 I-3.2125 J0.0
G2 X12.4138 Y50.4421 Z-2.6667 I1.6063 J2.7821
G2 X17.2325 Y47.66 Z-2.7 I1.6062 J-2.7821
G2 X12.4137 Y44.8779 Z-2.7333 I-3.2125 J0.0
G2 X12.4138 Y50.4421 Z-2.7667 I1.6063 J2.7821
G2 X17.2325 Y47.66 Z-2.8 I1.6062 J-2.7821
G2 X12.4137 Y44.8779 Z-2.8333 I-3.2125 J0.0
G2 X12.4138 Y50.4421 Z-2.8667 I1.6063 J2.7821
G2 X17.2325 Y47.66 Z-2.9 I1.6062 J-2.7821
G2 X12.4137 Y44.8779 Z-2.9333 I-3.2125 J0.0
G2 X12.4138 Y50.4421 Z-2.9667 I1.6063 J2.7821
G2 X17.2325 Y47.66 Z-3.0 I1.6062 J-2.7821
G2 X12.4137 Y44.8779 Z-3.0333 I-3.2125 J0.0
G2 X12.4138 Y50.4421 Z-3.0667 I1.6063 J2.7821
G2 X17.2325 Y47.66 Z-3.1 I1.6062 J-2.7821
G2 X12.4137 Y44.8779 Z-3.1333 I-3.2125 J0.0
G2 X12.4138 Y50.4421 Z-3.1667 I1.6063 J2.7821
G2 X17.2325 Y47.66 Z-3.2 I1.6062 J-2.7821
G2 X12.4137 Y44.8779 I-3.2125 J0.0
G2 X12.4138 Y50.4421 I1.6063 J2.7821
G2 X17.2325 Y47.66 I1.6062 J-2.7821
G0 Z3.0
G0 X45.3025 Y27.57
G0 Z0.01
G1 F1000.0 Z0.0
G2 F2000.0 X40.4838 Y24.7879 Z-0.0333 I-3.2125 J0.0
G2 Y30.3521 Z-0.0667 I1.6063 J2.7821
G2 X45.3025 Y27.57 Z-0.1 I1.6063 J-2.7821
G2 X40.4838 Y24.7879 Z-0.1333 I-3.2125 J0.0
G2 Y30.3521 Z-0.1667 I1.6063 J2.7821
G2 X45.3025 Y27.57 Z-0.2 I1.6063 J-2.7821
G2 X40.4838 Y24.7879 Z-0.2333 I-3.2125 J0.0
G2 Y30.3521 Z-0.2667 I1.6063 J2.7821
G2 X45.3025 Y27.57 Z-0.3 I1.6063 J-2.7821
G2 X40.4838 Y24.7879 Z-0.3333 I-3.2125 J0.0
G2 Y30.3521 Z-0.3667 I1.6063 J2.7821
G2 X45.3025 Y27.57 Z-0.4 I1.6063 J-2.7821
G2 X40.4838 Y24.7879 Z-0.4333 I-3.2125 J0.0
G2 Y30.3521 Z-0.4667 I1.6063 J2.7821
G2 X45.3025 Y27.57 Z-0.5 I1.6062 J-2.7821
G2 X40.4838 Y24.7879 Z-0.5333 I-3.2125 J0.0
G2 Y30.3521 Z-0.5667 I1.6063 J2.7821
G2 X45.3025 Y27.57 Z-0.6 I1.6063 J-2.7821
G2 X40.4838 Y24.7879 Z-0.6333 I-3.2125 J0.0
G2 Y30.3521 Z-0.6667 I1.6062 J2.7821
G2 X45.3025 Y27.57 Z-0.7 I1.6063 J-2.7821
G2 X40.4838 Y24.7879 Z-0.7333 I-3.2125 J0.0
G2 Y30.3521 Z-0.7667 I1.6062 J2.7821
G2 X45.3025 Y27.57 Z-0.8 I1.6063 J-2.7821
G2 X40.4838 Y24.7879 Z-0.8333 I-3.2125 J0.0
G2 Y30.3521 Z-0.8667 I1.6062 J2.7821
G2 X45.3025 Y27.57 Z-0.9 I1.6063 J-2.7821
G2 X40.4838 Y24.7879 Z-0.9333 I-3.2125 J0.0
G2 Y30.3521 Z-0.9667 I1.6062 J2.7821
G2 X45.3025 Y27.57 Z-1.0 I1.6063 J-2.7821
G2 X40.4838 Y24.7879 Z-1.0333 I-3.2125 J0.0
G2 Y30.3521 Z-1.0667 I1.6062 J2.7821
G2 X45.3025 Y27.57 Z-1.1 I1.6063 J-2.7821
G2 X40.4838 Y24.7879 Z-1.1333 I-3.2125 J0.0
G2 Y30.3521 Z-1.1667 I1.6062 J2.7821
G2 X45.3025 Y27.57 Z-1.2 I1.6063 J-2.7821
G2 X40.4838 Y24.7879 Z-1.2333 I-3.2125 J0.0
G2 Y30.3521 Z-1.2667 I1.6062 J2.7821
G2 X45.3025 Y27.57 Z-1.3 I1.6063 J-2.7821
G2 X40.4838 Y24.7879 Z-1.3333 I-3.2125 J0.0
G2 X40.4837 Y30.3521 Z-1.3667 I1.6062 J2.7821
G2 X45.3025 Y27.57 Z-1.4 I1.6063 J-2.7821
G2 X40.4838 Y24.7879 Z-1.4333 I-3.2125 J0.0
G2 X40.4837 Y30.3521 Z-1.4667 I1.6062 J2.7821
G2 X45.3025 Y27.57 Z-1.5 I1.6063 J-2.7821
G2 X40.4838 Y24.7879 Z-1.5333 I-3.2125 J0.0
G2 X40.4837 Y30.3521 Z-1.5667 I1.6062 J2.7821
G2 X45.3025 Y27.57 Z-1.6 I1.6063 J-2.7821
G2 X40.4838 Y24.7879 Z-1.6333 I-3.2125 J0.0
G2 X40.4837 Y30.3521 Z-1.6667 I1.6062 J2.7821
G2 X45.3025 Y27.57 Z-1.7 I1.6063 J-2.7821
G2 X40.4838 Y24.7879 Z-1.7333 I-3.2125 J0.0
G2 X40.4837 Y30.3521 Z-1.7667 I1.6062 J2.7821
G2 X45.3025 Y27.57 Z-1.8 I1.6063 J-2.7821
G2 X40.4838 Y24.7879 Z-1.8333 I-3.2125 J0.0
G2 X40.4837 Y30.3521 Z-1.8667 I1.6062 J2.7821
G2 X45.3025 Y27.57 Z-1.9 I1.6063 J-2.7821
G2 X40.4838 Y24.7879 Z-1.9333 I-3.2125 J0.0
G2 X40.4837 Y30.3521 Z-1.9667 I1.6062 J2.7821
G2 X45.3025 Y27.57 Z-2.0 I1.6063 J-2.7821
G2 X40.4838 Y24.7879 Z-2.0333 I-3.2125 J0.0
G2 X40.4837 Y30.3521 Z-2.0667 I1.6062 J2.7821
G2 X45.3025 Y27.57 Z-2.1 I1.6063 J-2.7821
G2 X40.4838 Y24.7879 Z-2.1333 I-3.2125 J0.0
G2 X40.4837 Y30.3521 Z-2.1667 I1.6062 J2.7821
G2 X45.3025 Y27.57 Z-2.2 I1.6063 J-2.7821
G2 X40.4838 Y24.7879 Z-2.2333 I-3.2125 J0.0
G2 Y30.3521 Z-2.2667 I1.6062 J2.7821
G2 X45.3025 Y27.57 Z-2.3 I1.6063 J-2.7821
G2 X40.4838 Y24.7879 Z-2.3333 I-3.2125 J0.0
G2 Y30.3521 Z-2.3667 I1.6063 J2.7821
G2 X45.3025 Y27.57 Z-2.4 I1.6062 J-2.7821
G2 X40.4838 Y24.7879 Z-2.4333 I-3.2125 J0.0
G2 Y30.3521 Z-2.4667 I1.6063 J2.7821
G2 X45.3025 Y27.57 Z-2.5 I1.6062 J-2.7821
G2 X40.4837 Y24.7879 Z-2.5333 I-3.2125 J0.0
G2 X40.4838 Y30.3521 Z-2.5667 I1.6063 J2.7821
G2 X45.3025 Y27.57 Z-2.6 I1.6062 J-2.7821
G2 X40.4837 Y24.7879 Z-2.6333 I-3.2125 J0.0
G2 X40.4838 Y30.3521 Z-2.6667 I1.6063 J2.7821
G2 X45.3025 Y27.57 Z-2.7 I1.6062 J-2.7821
G2 X40.4837 Y24.7879 Z-2.7333 I-3.2125 J0.0
G2 X40.4838 Y30.3521 Z-2.7667 I1.6063 J2.7821
G2 X45.3025 Y27.57 Z-2.8 I1.6062 J-2.7821
G2 X40.4837 Y24.7879 Z-2.8333 I-3.2125 J0.0
G2 X40.4838 Y30.3521 Z-2.8667 I1.6063 J2.7821
G2 X45.3025 Y27.57 Z-2.9 I1.6062 J-2.7821
G2 X40.4837 Y24.7879 Z-2.9333 I-3.2125 J0.0
G2 X40.4838 Y30.3521 Z-2.9667 I1.6063 J2.7821
G2 X45.3025 Y27.57 Z-3.0 I1.6062 J-2.7821
G2 X40.4837 Y24.7879 Z-3.0333 I-3.2125 J0.0
G2 X40.4838 Y30.3521 Z-3.0667 I1.6063 J2.7821
G2 X45.3025 Y27.57 Z-3.1 I1.6062 J-2.7821
G2 X40.4837 Y24.7879 Z-3.1333 I-3.2125 J0.0
G2 X40.4838 Y30.3521 Z-3.1667 I1.6063 J2.7821
G2 X45.3025 Y27.57 Z-3.2 I1.6062 J-2.7821
G2 X40.4837 Y24.7879 I-3.2125 J0.0
G2 X40.4838 Y30.3521 I1.6063 J2.7821
G2 X45.3025 Y27.57 I1.6062 J-2.7821
( 1/8in jacks )
S1000
G0 Z3.0
G0 X18.4574 Y25.2716
G0 Z3.0
G0 X20.1199 Y25.2716
G0 Z0.01
G1 F1000.0 Z0.0
G2 F2000.0 X17.6261 Y23.8318 Z-0.0333 I-1.6625 J0.0
G2 Y26.7114 Z-0.0667 I0.8313 J1.4398
G2 X20.1199 Y25.2716 Z-0.1 I0.8313 J-1.4398
G2 X17.6261 Y23.8318 Z-0.1333 I-1.6625 J0.0
G2 Y26.7114 Z-0.1667 I0.8312 J1.4398
G2 X20.1199 Y25.2716 Z-0.2 I0.8313 J-1.4398
G2 X17.6261 Y23.8318 Z-0.2333 I-1.6625 J0.0
G2 Y26.7114 Z-0.2667 I0.8312 J1.4398
G2 X20.1199 Y25.2716 Z-0.3 I0.8313 J-1.4398
G2 X17.6261 Y23.8318 Z-0.3333 I-1.6625 J0.0
G2 Y26.7114 Z-0.3667 I0.8313 J1.4398
G2 X20.1199 Y25.2716 Z-0.4 I0.8312 J-1.4398
G2 X17.6261 Y23.8318 Z-0.4333 I-1.6625 J0.0
G2 Y26.7114 Z-0.4667 I0.8313 J1.4398
G2 X20.1199 Y25.2716 Z-0.5 I0.8312 J-1.4398
G2 X17.6261 Y23.8318 Z-0.5333 I-1.6625 J0.0
G2 Y26.7114 Z-0.5667 I0.8313 J1.4398
G2 X20.1199 Y25.2716 Z-0.6 I0.8313 J-1.4398
G2 X17.6261 Y23.8318 Z-0.6333 I-1.6625 J0.0
G2 Y26.7114 Z-0.6667 I0.8312 J1.4398
G2 X20.1199 Y25.2716 Z-0.7 I0.8313 J-1.4398
G2 X17.6261 Y23.8318 Z-0.7333 I-1.6625 J0.0
G2 Y26.7114 Z-0.7667 I0.8312 J1.4398
G2 X20.1199 Y25.2716 Z-0.8 I0.8313 J-1.4398
G2 X17.6261 Y23.8318 Z-0.8333 I-1.6625 J0.0
G2 Y26.7114 Z-0.8667 I0.8312 J1.4398
G2 X20.1199 Y25.2716 Z-0.9 I0.8313 J-1.4398
G2 X17.6261 Y23.8318 Z-0.9333 I-1.6625 J0.0
G2 Y26.7114 Z-0.9667 I0.8312 J1.4398
G2 X20.1199 Y25.2716 Z-1.0 I0.8313 J-1.4398
G2 X17.6261 Y23.8318 Z-1.0333 I-1.6625 J0.0
G2 Y26.7114 Z-1.0667 I0.8312 J1.4398
G2 X20.1199 Y25.2716 Z-1.1 I0.8313 J-1.4398
G2 X17.6261 Y23.8318 Z-1.1333 I-1.6625 J0.0
G2 Y26.7114 Z-1.1667 I0.8312 J1.4398
G2 X20.1199 Y25.2716 Z-1.2 I0.8313 J-1.4398
G2 X17.6261 Y23.8318 Z-1.2333 I-1.6625 J0.0
G2 Y26.7114 Z-1.2667 I0.8312 J1.4398
G2 X20.1199 Y25.2716 Z-1.3 I0.8313 J-1.4398
G2 X17.6261 Y23.8318 Z-1.3333 I-1.6625 J0.0
G2 Y26.7114 Z-1.3667 I0.8312 J1.4398
G2 X20.1199 Y25.2716 Z-1.4 I0.8313 J-1.4398
G2 X17.6261 Y23.8318 Z-1.4333 I-1.6625 J0.0
G2 Y26.7114 Z-1.4667 I0.8312 J1.4398
G2 X20.1199 Y25.2716 Z-1.5 I0.8313 J-1.4398
G2 X17.6261 Y23.8318 Z-1.5333 I-1.6625 J0.0
G2 Y26.7114 Z-1.5667 I0.8312 J1.4398
G2 X20.1199 Y25.2716 Z-1.6 I0.8313 J-1.4398
G2 X17.6261 Y23.8318 Z-1.6333 I-1.6625 J0.0
G2 Y26.7114 Z-1.6667 I0.8312 J1.4398
G2 X20.1199 Y25.2716 Z-1.7 I0.8313 J-1.4398
G2 X17.6261 Y23.8318 Z-1.7333 I-1.6625 J0.0
G2 Y26.7114 Z-1.7667 I0.8312 J1.4398
G2 X20.1199 Y25.2716 Z-1.8 I0.8313 J-1.4398
G2 X17.6261 Y23.8318 Z-1.8333 I-1.6625 J0.0
G2 Y26.7114 Z-1.8667 I0.8312 J1.4398
G2 X20.1199 Y25.2716 Z-1.9 I0.8313 J-1.4398
G2 X17.6261 Y23.8318 Z-1.9333 I-1.6625 J0.0
G2 Y26.7114 Z-1.9667 I0.8312 J1.4398
G2 X20.1199 Y25.2716 Z-2.0 I0.8313 J-1.4398
G2 X17.6261 Y23.8318 Z-2.0333 I-1.6625 J0.0
G2 Y26.7114 Z-2.0667 I0.8312 J1.4398
G2 X20.1199 Y25.2716 Z-2.1 I0.8313 J-1.4398
G2 X17.6261 Y23.8318 Z-2.1333 I-1.6625 J0.0
G2 Y26.7114 Z-2.1667 I0.8312 J1.4398
G2 X20.1199 Y25.2716 Z-2.2 I0.8313 J-1.4398
G2 X17.6261 Y23.8318 Z-2.2333 I-1.6625 J0.0
G2 Y26.7114 Z-2.2667 I0.8312 J1.4398
G2 X20.1199 Y25.2716 Z-2.3 I0.8313 J-1.4398
G2 X17.6261 Y23.8318 Z-2.3333 I-1.6625 J0.0
G2 Y26.7114 Z-2.3667 I0.8313 J1.4398
G2 X20.1199 Y25.2716 Z-2.4 I0.8312 J-1.4398
G2 X17.6261 Y23.8318 Z-2.4333 I-1.6625 J0.0
G2 Y26.7114 Z-2.4667 I0.8313 J1.4398
G2 X20.1199 Y25.2716 Z-2.5 I0.8312 J-1.4398
G2 X17.6261 Y23.8318 Z-2.5333 I-1.6625 J0.0
G2 Y26.7114 Z-2.5667 I0.8313 J1.4398
G2 X20.1199 Y25.2716 Z-2.6 I0.8312 J-1.4398
G2 X17.6261 Y23.8318 Z-2.6333 I-1.6625 J0.0
G2 Y26.7114 Z-2.6667 I0.8313 J1.4398
G2 X20.1199 Y25.2716 Z-2.7 I0.8312 J-1.4398
G2 X17.6261 Y23.8318 Z-2.7333 I-1.6625 J0.0
G2 Y26.7114 Z-2.7667 I0.8313 J1.4398
G2 X20.1199 Y25.2716 Z-2.8 I0.8312 J-1.4398
G2 X17.6261 Y23.8318 Z-2.8333 I-1.6625 J0.0
G2 Y26.7114 Z-2.8667 I0.8313 J1.4398
G2 X20.1199 Y25.2716 Z-2.9 I0.8312 J-1.4398
G2 X17.6261 Y23.8318 Z-2.9333 I-1.6625 J0.0
G2 Y26.7114 Z-2.9667 I0.8313 J1.4398
G2 X20.1199 Y25.2716 Z-3.0 I0.8312 J-1.4398
G2 X17.6261 Y23.8318 Z-3.0333 I-1.6625 J0.0
G2 Y26.7114 Z-3.0667 I0.8313 J1.4398
G2 X20.1199 Y25.2716 Z-3.1 I0.8312 J-1.4398
G2 X17.6261 Y23.8318 Z-3.1333 I-1.6625 J0.0
G2 Y26.7114 Z-3.1667 I0.8313 J1.4398
G2 X20.1199 Y25.2716 Z-3.2 I0.8312 J-1.4398
G2 X17.6261 Y23.8318 I-1.6625 J0.0
G2 Y26.7114 I0.8313 J1.4398
G2 X20.1199 Y25.2716 I0.8312 J-1.4398
G0 Z3.0
G0 X11.1599 Y16.1484
G0 Z0.01
G1 F1000.0 Z0.0
G2 F2000.0 X8.6661 Y14.7087 Z-0.0333 I-1.6625 J0.0
G2 Y17.5882 Z-0.0667 I0.8312 J1.4398
G2 X11.1599 Y16.1484 Z-0.1 I0.8313 J-1.4398
G2 X8.6661 Y14.7087 Z-0.1333 I-1.6625 J0.0
G2 Y17.5882 Z-0.1667 I0.8312 J1.4398
G2 X11.1599 Y16.1484 Z-0.2 I0.8313 J-1.4398
G2 X8.6661 Y14.7087 Z-0.2333 I-1.6625 J0.0
G2 Y17.5882 Z-0.2667 I0.8312 J1.4398
G2 X11.1599 Y16.1484 Z-0.3 I0.8313 J-1.4398
G2 X8.6661 Y14.7087 Z-0.3333 I-1.6625 J0.0
G2 Y17.5882 Z-0.3667 I0.8313 J1.4398
G2 X11.1599 Y16.1484 Z-0.4 I0.8312 J-1.4398
G2 X8.6661 Y14.7087 Z-0.4333 I-1.6625 J0.0
G2 Y17.5882 Z-0.4667 I0.8313 J1.4398
G2 X11.1599 Y16.1484 Z-0.5 I0.8312 J-1.4398
G2 X8.6661 Y14.7087 Z-0.5333 I-1.6625 J0.0
G2 Y17.5882 Z-0.5667 I0.8313 J1.4398
G2 X11.1599 Y16.1484 Z-0.6 I0.8313 J-1.4398
G2 X8.6661 Y14.7087 Z-0.6333 I-1.6625 J0.0
G2 Y17.5882 Z-0.6667 I0.8312 J1.4398
G2 X11.1599 Y16.1484 Z-0.7 I0.8313 J-1.4398
G2 X8.6661 Y14.7087 Z-0.7333 I-1.6625 J0.0
G2 Y17.5882 Z-0.7667 I0.8312 J1.4398
G2 X11.1599 Y16.1484 Z-0.8 I0.8313 J-1.4398
G2 X8.6661 Y14.7087 Z-0.8333 I-1.6625 J0.0
G2 Y17.5882 Z-0.8667 I0.8312 J1.4398
G2 X11.1599 Y16.1484 Z-0.9 I0.8313 J-1.4398
G2 X8.6661 Y14.7087 Z-0.9333 I-1.6625 J0.0
G2 Y17.5882 Z-0.9667 I0.8312 J1.4398
G2 X11.1599 Y16.1484 Z-1.0 I0.8313 J-1.4398
G2 X8.6661 Y14.7087 Z-1.0333 I-1.6625 J0.0
G2 Y17.5882 Z-1.0667 I0.8312 J1.4398
G2 X11.1599 Y16.1484 Z-1.1 I0.8313 J-1.4398
G2 X8.6661 Y14.7087 Z-1.1333 I-1.6625 J0.0
G2 Y17.5882 Z-1.1667 I0.8312 J1.4398
G2 X11.1599 Y16.1484 Z-1.2 I0.8313 J-1.4398
G2 X8.6661 Y14.7087 Z-1.2333 I-1.6625 J0.0
G2 Y17.5882 Z-1.2667 I0.8312 J1.4398
G2 X11.1599 Y16.1484 Z-1.3 I0.8313 J-1.4398
G2 X8.6661 Y14.7087 Z-1.3333 I-1.6625 J0.0
G2 Y17.5882 Z-1.3667 I0.8312 J1.4398
G2 X11.1599 Y16.1484 Z-1.4 I0.8313 J-1.4398
G2 X8.6661 Y14.7087 Z-1.4333 I-1.6625 J0.0
G2 Y17.5882 Z-1.4667 I0.8312 J1.4398
G2 X11.1599 Y16.1484 Z-1.5 I0.8313 J-1.4398
G2 X8.6661 Y14.7087 Z-1.5333 I-1.6625 J0.0
G2 Y17.5882 Z-1.5667 I0.8312 J1.4398
G2 X11.1599 Y16.1484 Z-1.6 I0.8313 J-1.4398
G2 X8.6661 Y14.7087 Z-1.6333 I-1.6625 J0.0
G2 Y17.5882 Z-1.6667 I0.8312 J1.4398
G2 X11.1599 Y16.1484 Z-1.7 I0.8313 J-1.4398
G2 X8.6661 Y14.7087 Z-1.7333 I-1.6625 J0.0
G2 Y17.5882 Z-1.7667 I0.8312 J1.4398
G2 X11.1599 Y16.1484 Z-1.8 I0.8313 J-1.4398
G2 X8.6661 Y14.7087 Z-1.8333 I-1.6625 J0.0
G2 Y17.5882 Z-1.8667 I0.8312 J1.4398
G2 X11.1599 Y16.1484 Z-1.9 I0.8313 J-1.4398
G2 X8.6661 Y14.7087 Z-1.9333 I-1.6625 J0.0
G2 Y17.5882 Z-1.9667 I0.8312 J1.4398
G2 X11.1599 Y16.1484 Z-2.0 I0.8313 J-1.4398
G2 X8.6661 Y14.7087 Z-2.0333 I-1.6625 J0.0
G2 Y17.5882 Z-2.0667 I0.8312 J1.4398
G2 X11.1599 Y16.1484 Z-2.1 I0.8313 J-1.4398
G2 X8.6661 Y14.7087 Z-2.1333 I-1.6625 J0.0
G2 Y17.5882 Z-2.1667 I0.8312 J1.4398
G2 X11.1599 Y16.1484 Z-2.2 I0.8313 J-1.4398
G2 X8.6661 Y14.7087 Z-2.2333 I-1.6625 J0.0
G2 Y17.5882 Z-2.2667 I0.8312 J1.4398
G2 X11.1599 Y16.1484 Z-2.3 I0.8313 J-1.4398
G2 X8.6661 Y14.7087 Z-2.3333 I-1.6625 J0.0
G2 Y17.5882 Z-2.3667 I0.8313 J1.4398
G2 X11.1599 Y16.1484 Z-2.4 I0.8312 J-1.4398
G2 X8.6661 Y14.7087 Z-2.4333 I-1.6625 J0.0
G2 Y17.5882 Z-2.4667 I0.8313 J1.4398
G2 X11.1599 Y16.1484 Z-2.5 I0.8312 J-1.4398
G2 X8.6661 Y14.7087 Z-2.5333 I-1.6625 J0.0
G2 Y17.5882 Z-2.5667 I0.8313 J1.4398
G2 X11.1599 Y16.1484 Z-2.6 I0.8312 J-1.4398
G2 X8.6661 Y14.7087 Z-2.6333 I-1.6625 J0.0
G2 Y17.5882 Z-2.6667 I0.8313 J1.4398
G2 X11.1599 Y16.1484 Z-2.7 I0.8312 J-1.4398
G2 X8.6661 Y14.7087 Z-2.7333 I-1.6625 J0.0
G2 Y17.5882 Z-2.7667 I0.8313 J1.4398
G2 X11.1599 Y16.1484 Z-2.8 I0.8312 J-1.4398
G2 X8.6661 Y14.7087 Z-2.8333 I-1.6625 J0.0
G2 Y17.5882 Z-2.8667 I0.8313 J1.4398
G2 X11.1599 Y16.1484 Z-2.9 I0.8312 J-1.4398
G2 X8.6661 Y14.7087 Z-2.9333 I-1.6625 J0.0
G2 Y17.5882 Z-2.9667 I0.8313 J1.4398
G2 X11.1599 Y16.1484 Z-3.0 I0.8312 J-1.4398
G2 X8.6661 Y14.7087 Z-3.0333 I-1.6625 J0.0
G2 Y17.5882 Z-3.0667 I0.8313 J1.4398
G2 X11.1599 Y16.1484 Z-3.1 I0.8312 J-1.4398
G2 X8.6661 Y14.7087 Z-3.1333 I-1.6625 J0.0
G2 Y17.5882 Z-3.1667 I0.8313 J1.4398
G2 X11.1599 Y16.1484 Z-3.2 I0.8312 J-1.4398
G2 X8.6661 Y14.7087 I-1.6625 J0.0
G2 Y17.5882 I0.8313 J1.4398
G2 X11.1599 Y16.1484 I0.8312 J-1.4398
( mounting )
S1000
G0 Z3.0
G0 X7.5 Y125.5
G0 Z3.0
G0 X7.5125 Y125.5
G0 Z0.01
G1 F1000.0 Z0.0
G2 F2000.0 X7.4938 Y125.4892 Z-0.0333 I-0.0125 J0.0
G2 Y125.5108 Z-0.0667 I0.0062 J0.0108
G2 X7.5125 Y125.5 Z-0.1 I0.0063 J-0.0108
G2 X7.4938 Y125.4892 Z-0.1333 I-0.0125 J0.0
G2 Y125.5108 Z-0.1667 I0.0062 J0.0108
G2 X7.5125 Y125.5 Z-0.2 I0.0063 J-0.0108
G2 X7.4938 Y125.4892 Z-0.2333 I-0.0125 J0.0
G2 Y125.5108 Z-0.2667 I0.0062 J0.0108
G2 X7.5125 Y125.5 Z-0.3 I0.0063 J-0.0108
G2 X7.4938 Y125.4892 Z-0.3333 I-0.0125 J0.0
G2 Y125.5108 Z-0.3667 I0.0062 J0.0108
G2 X7.5125 Y125.5 Z-0.4 I0.0063 J-0.0108
G2 X7.4938 Y125.4892 Z-0.4333 I-0.0125 J0.0
G2 Y125.5108 Z-0.4667 I0.0062 J0.0108
G2 X7.5125 Y125.5 Z-0.5 I0.0063 J-0.0108
G2 X7.4938 Y125.4892 Z-0.5333 I-0.0125 J0.0
G2 Y125.5108 Z-0.5667 I0.0062 J0.0108
G2 X7.5125 Y125.5 Z-0.6 I0.0063 J-0.0108
G2 X7.4938 Y125.4892 Z-0.6333 I-0.0125 J0.0
G2 Y125.5108 Z-0.6667 I0.0062 J0.0108
G2 X7.5125 Y125.5 Z-0.7 I0.0063 J-0.0108
G2 X7.4938 Y125.4892 Z-0.7333 I-0.0125 J0.0
G2 Y125.5108 Z-0.7667 I0.0062 J0.0108
G2 X7.5125 Y125.5 Z-0.8 I0.0063 J-0.0108
G2 X7.4938 Y125.4892 Z-0.8333 I-0.0125 J0.0
G2 Y125.5108 Z-0.8667 I0.0062 J0.0108
G2 X7.5125 Y125.5 Z-0.9 I0.0063 J-0.0108
G2 X7.4938 Y125.4892 Z-0.9333 I-0.0125 J0.0
G2 Y125.5108 Z-0.9667 I0.0062 J0.0108
G2 X7.5125 Y125.5 Z-1.0 I0.0063 J-0.0108
G2 X7.4938 Y125.4892 Z-1.0333 I-0.0125 J0.0
G2 Y125.5108 Z-1.0667 I0.0062 J0.0108
G2 X7.5125 Y125.5 Z-1.1 I0.0063 J-0.0108
G2 X7.4938 Y125.4892 Z-1.1333 I-0.0125 J0.0
G2 Y125.5108 Z-1.1667 I0.0062 J0.0108
G2 X7.5125 Y125.5 Z-1.2 I0.0063 J-0.0108
G2 X7.4938 Y125.4892 Z-1.2333 I-0.0125 J0.0
G2 Y125.5108 Z-1.2667 I0.0062 J0.0108
G2 X7.5125 Y125.5 Z-1.3 I0.0063 J-0.0108
G2 X7.4938 Y125.4892 Z-1.3333 I-0.0125 J0.0
G2 Y125.5108 Z-1.3667 I0.0062 J0.0108
G2 X7.5125 Y125.5 Z-1.4 I0.0063 J-0.0108
G2 X7.4938 Y125.4892 Z-1.4333 I-0.0125 J0.0
G2 Y125.5108 Z-1.4667 I0.0062 J0.0108
G2 X7.5125 Y125.5 Z-1.5 I0.0063 J-0.0108
G2 X7.4938 Y125.4892 Z-1.5333 I-0.0125 J0.0
G2 Y125.5108 Z-1.5667 I0.0062 J0.0108
G2 X7.5125 Y125.5 Z-1.6 I0.0063 J-0.0108
G2 X7.4938 Y125.4892 Z-1.6333 I-0.0125 J0.0
G2 Y125.5108 Z-1.6667 I0.0062 J0.0108
G2 X7.5125 Y125.5 Z-1.7 I0.0063 J-0.0108
G2 X7.4938 Y125.4892 Z-1.7333 I-0.0125 J0.0
G2 Y125.5108 Z-1.7667 I0.0062 J0.0108
G2 X7.5125 Y125.5 Z-1.8 I0.0063 J-0.0108
G2 X7.4938 Y125.4892 Z-1.8333 I-0.0125 J0.0
G2 Y125.5108 Z-1.8667 I0.0062 J0.0108
G2 X7.5125 Y125.5 Z-1.9 I0.0063 J-0.0108
G2 X7.4938 Y125.4892 Z-1.9333 I-0.0125 J0.0
G2 Y125.5108 Z-1.9667 I0.0062 J0.0108
G2 X7.5125 Y125.5 Z-2.0 I0.0063 J-0.0108
G2 X7.4938 Y125.4892 Z-2.0333 I-0.0125 J0.0
G2 Y125.5108 Z-2.0667 I0.0062 J0.0108
G2 X7.5125 Y125.5 Z-2.1 I0.0063 J-0.0108
G2 X7.4938 Y125.4892 Z-2.1333 I-0.0125 J0.0
G2 Y125.5108 Z-2.1667 I0.0062 J0.0108
G2 X7.5125 Y125.5 Z-2.2 I0.0063 J-0.0108
G2 X7.4938 Y125.4892 Z-2.2333 I-0.0125 J0.0
G2 Y125.5108 Z-2.2667 I0.0062 J0.0108
G2 X7.5125 Y125.5 Z-2.3 I0.0063 J-0.0108
G2 X7.4938 Y125.4892 Z-2.3333 I-0.0125 J0.0
G2 Y125.5108 Z-2.3667 I0.0062 J0.0108
G2 X7.5125 Y125.5 Z-2.4 I0.0063 J-0.0108
G2 X7.4938 Y125.4892 Z-2.4333 I-0.0125 J0.0
G2 Y125.5108 Z-2.4667 I0.0062 J0.0108
G2 X7.5125 Y125.5 Z-2.5 I0.0063 J-0.0108
G2 X7.4938 Y125.4892 Z-2.5333 I-0.0125 J0.0
G2 Y125.5108 Z-2.5667 I0.0062 J0.0108
G2 X7.5125 Y125.5 Z-2.6 I0.0063 J-0.0108
G2 X7.4938 Y125.4892 Z-2.6333 I-0.0125 J0.0
G2 Y125.5108 Z-2.6667 I0.0062 J0.0108
G2 X7.5125 Y125.5 Z-2.7 I0.0063 J-0.0108
G2 X7.4938 Y125.4892 Z-2.7333 I-0.0125 J0.0
G2 Y125.5108 Z-2.7667 I0.0062 J0.0108
G2 X7.5125 Y125.5 Z-2.8 I0.0063 J-0.0108
G2 X7.4938 Y125.4892 Z-2.8333 I-0.0125 J0.0
G2 Y125.5108 Z-2.8667 I0.0062 J0.0108
G2 X7.5125 Y125.5 Z-2.9 I0.0063 J-0.0108
G2 X7.4938 Y125.4892 Z-2.9333 I-0.0125 J0.0
G2 Y125.5108 Z-2.9667 I0.0062 J0.0108
G2 X7.5125 Y125.5 Z-3.0 I0.0063 J-0.0108
G2 X7.4938 Y125.4892 Z-3.0333 I-0.0125 J0.0
G2 Y125.5108 Z-3.0667 I0.0062 J0.0108
G2 X7.5125 Y125.5 Z-3.1 I0.0062 J-0.0108
G2 X7.4938 Y125.4892 Z-3.1333 I-0.0125 J0.0
G2 Y125.5108 Z-3.1667 I0.0063 J0.0108
G2 X7.5125 Y125.5 Z-3.2 I0.0062 J-0.0108
G2 X7.4938 Y125.4892 I-0.0125 J0.0
G2 Y125.5108 I0.0063 J0.0108
G2 X7.5125 Y125.5 I0.0062 J-0.0108
G0 Z3.0
G0 X48.1525
G0 Z0.01
G1 F1000.0 Z0.0
G2 F2000.0 X48.1337 Y125.4892 Z-0.0333 I-0.0125 J0.0
G2 Y125.5108 Z-0.0667 I0.0062 J0.0108
G2 X48.1525 Y125.5 Z-0.1 I0.0063 J-0.0108
G2 X48.1337 Y125.4892 Z-0.1333 I-0.0125 J0.0
G2 Y125.5108 Z-0.1667 I0.0062 J0.0108
G2 X48.1525 Y125.5 Z-0.2 I0.0063 J-0.0108
G2 X48.1337 Y125.4892 Z-0.2333 I-0.0125 J0.0
G2 Y125.5108 Z-0.2667 I0.0062 J0.0108
G2 X48.1525 Y125.5 Z-0.3 I0.0063 J-0.0108
G2 X48.1337 Y125.4892 Z-0.3333 I-0.0125 J0.0
G2 Y125.5108 Z-0.3667 I0.0062 J0.0108
G2 X48.1525 Y125.5 Z-0.4 I0.0063 J-0.0108
G2 X48.1337 Y125.4892 Z-0.4333 I-0.0125 J0.0
G2 Y125.5108 Z-0.4667 I0.0062 J0.0108
G2 X48.1525 Y125.5 Z-0.5 I0.0063 J-0.0108
G2 X48.1337 Y125.4892 Z-0.5333 I-0.0125 J0.0
G2 Y125.5108 Z-0.5667 I0.0062 J0.0108
G2 X48.1525 Y125.5 Z-0.6 I0.0063 J-0.0108
G2 X48.1337 Y125.4892 Z-0.6333 I-0.0125 J0.0
G2 Y125.5108 Z-0.6667 I0.0062 J0.0108
G2 X48.1525 Y125.5 Z-0.7 I0.0063 J-0.0108
G2 X48.1337 Y125.4892 Z-0.7333 I-0.0125 J0.0
G2 Y125.5108 Z-0.7667 I0.0062 J0.0108
G2 X48.1525 Y125.5 Z-0.8 I0.0063 J-0.0108
G2 X48.1337 Y125.4892 Z-0.8333 I-0.0125 J0.0
G2 Y125.5108 Z-0.8667 I0.0062 J0.0108
G2 X48.1525 Y125.5 Z-0.9 I0.0063 J-0.0108
G2 X48.1337 Y125.4892 Z-0.9333 I-0.0125 J0.0
G2 Y125.5108 Z-0.9667 I0.0062 J0.0108
G2 X48.1525 Y125.5 Z-1.0 I0.0063 J-0.0108
G2 X48.1337 Y125.4892 Z-1.0333 I-0.0125 J0.0
G2 Y125.5108 Z-1.0667 I0.0062 J0.0108
G2 X48.1525 Y125.5 Z-1.1 I0.0063 J-0.0108
G2 X48.1337 Y125.4892 Z-1.1333 I-0.0125 J0.0
G2 Y125.5108 Z-1.1667 I0.0062 J0.0108
G2 X48.1525 Y125.5 Z-1.2 I0.0063 J-0.0108
G2 X48.1337 Y125.4892 Z-1.2333 I-0.0125 J0.0
G2 Y125.5108 Z-1.2667 I0.0062 J0.0108
G2 X48.1525 Y125.5 Z-1.3 I0.0063 J-0.0108
G2 X48.1337 Y125.4892 Z-1.3333 I-0.0125 J0.0
G2 Y125.5108 Z-1.3667 I0.0062 J0.0108
G2 X48.1525 Y125.5 Z-1.4 I0.0063 J-0.0108
G2 X48.1337 Y125.4892 Z-1.4333 I-0.0125 J0.0
G2 Y125.5108 Z-1.4667 I0.0062 J0.0108
G2 X48.1525 Y125.5 Z-1.5 I0.0063 J-0.0108
G2 X48.1337 Y125.4892 Z-1.5333 I-0.0125 J0.0
G2 Y125.5108 Z-1.5667 I0.0062 J0.0108
G2 X48.1525 Y125.5 Z-1.6 I0.0063 J-0.0108
G2 X48.1337 Y125.4892 Z-1.6333 I-0.0125 J0.0
G2 Y125.5108 Z-1.6667 I0.0062 J0.0108
G2 X48.1525 Y125.5 Z-1.7 I0.0063 J-0.0108
G2 X48.1337 Y125.4892 Z-1.7333 I-0.0125 J0.0
G2 Y125.5108 Z-1.7667 I0.0062 J0.0108
G2 X48.1525 Y125.5 Z-1.8 I0.0063 J-0.0108
G2 X48.1337 Y125.4892 Z-1.8333 I-0.0125 J0.0
G2 Y125.5108 Z-1.8667 I0.0062 J0.0108
G2 X48.1525 Y125.5 Z-1.9 I0.0063 J-0.0108
G2 X48.1337 Y125.4892 Z-1.9333 I-0.0125 J0.0
G2 Y125.5108 Z-1.9667 I0.0062 J0.0108
G2 X48.1525 Y125.5 Z-2.0 I0.0063 J-0.0108
G2 X48.1337 Y125.4892 Z-2.0333 I-0.0125 J0.0
G2 Y125.5108 Z-2.0667 I0.0062 J0.0108
G2 X48.1525 Y125.5 Z-2.1 I0.0063 J-0.0108
G2 X48.1337 Y125.4892 Z-2.1333 I-0.0125 J0.0
G2 Y125.5108 Z-2.1667 I0.0062 J0.0108
G2 X48.1525 Y125.5 Z-2.2 I0.0063 J-0.0108
G2 X48.1337 Y125.4892 Z-2.2333 I-0.0125 J0.0
G2 Y125.5108 Z-2.2667 I0.0062 J0.0108
G2 X48.1525 Y125.5 Z-2.3 I0.0063 J-0.0108
G2 X48.1337 Y125.4892 Z-2.3333 I-0.0125 J0.0
G2 Y125.5108 Z-2.3667 I0.0062 J0.0108
G2 X48.1525 Y125.5 Z-2.4 I0.0063 J-0.0108
G2 X48.1337 Y125.4892 Z-2.4333 I-0.0125 J0.0
G2 Y125.5108 Z-2.4667 I0.0062 J0.0108
G2 X48.1525 Y125.5 Z-2.5 I0.0063 J-0.0108
G2 X48.1337 Y125.4892 Z-2.5333 I-0.0125 J0.0
G2 Y125.5108 Z-2.5667 I0.0062 J0.0108
G2 X48.1525 Y125.5 Z-2.6 I0.0063 J-0.0108
G2 X48.1337 Y125.4892 Z-2.6333 I-0.0125 J0.0
G2 Y125.5108 Z-2.6667 I0.0062 J0.0108
G2 X48.1525 Y125.5 Z-2.7 I0.0063 J-0.0108
G2 X48.1337 Y125.4892 Z-2.7333 I-0.0125 J0.0
G2 Y125.5108 Z-2.7667 I0.0062 J0.0108
G2 X48.1525 Y125.5 Z-2.8 I0.0063 J-0.0108
G2 X48.1337 Y125.4892 Z-2.8333 I-0.0125 J0.0
G2 Y125.5108 Z-2.8667 I0.0062 J0.0108
G2 X48.1525 Y125.5 Z-2.9 I0.0063 J-0.0108
G2 X48.1337 Y125.4892 Z-2.9333 I-0.0125 J0.0
G2 Y125.5108 Z-2.9667 I0.0063 J0.0108
G2 X48.1525 Y125.5 Z-3.0 I0.0063 J-0.0108
G2 X48.1337 Y125.4892 Z-3.0333 I-0.0125 J0.0
G2 Y125.5108 Z-3.0667 I0.0063 J0.0108
G2 X48.1525 Y125.5 Z-3.1 I0.0063 J-0.0108
G2 X48.1337 Y125.4892 Z-3.1333 I-0.0125 J0.0
G2 Y125.5108 Z-3.1667 I0.0063 J0.0108
G2 X48.1525 Y125.5 Z-3.2 I0.0063 J-0.0108
G2 X48.1337 Y125.4892 I-0.0125 J0.0
G2 Y125.5108 I0.0063 J0.0108
G2 X48.1525 Y125.5 I0.0062 J-0.0108
G0 Z3.0
G0 Y3.0
G0 Z0.01
G1 F1000.0 Z0.0
G2 F2000.0 X48.1337 Y2.9892 Z-0.0333 I-0.0125 J0.0
G2 Y3.0108 Z-0.0667 I0.0063 J0.0108
G2 X48.1525 Y3.0 Z-0.1 I0.0063 J-0.0108
G2 X48.1337 Y2.9892 Z-0.1333 I-0.0125 J0.0
G2 Y3.0108 Z-0.1667 I0.0063 J0.0108
G2 X48.1525 Y3.0 Z-0.2 I0.0063 J-0.0108
G2 X48.1337 Y2.9892 Z-0.2333 I-0.0125 J0.0
G2 Y3.0108 Z-0.2667 I0.0063 J0.0108
G2 X48.1525 Y3.0 Z-0.3 I0.0063 J-0.0108
G2 X48.1337 Y2.9892 Z-0.3333 I-0.0125 J0.0
G2 Y3.0108 Z-0.3667 I0.0063 J0.0108
G2 X48.1525 Y3.0 Z-0.4 I0.0063 J-0.0108
G2 X48.1337 Y2.9892 Z-0.4333 I-0.0125 J0.0
G2 Y3.0108 Z-0.4667 I0.0063 J0.0108
G2 X48.1525 Y3.0 Z-0.5 I0.0063 J-0.0108
G2 X48.1337 Y2.9892 Z-0.5333 I-0.0125 J0.0
G2 Y3.0108 Z-0.5667 I0.0063 J0.0108
G2 X48.1525 Y3.0 Z-0.6 I0.0063 J-0.0108
G2 X48.1337 Y2.9892 Z-0.6333 I-0.0125 J0.0
G2 Y3.0108 Z-0.6667 I0.0063 J0.0108
G2 X48.1525 Y3.0 Z-0.7 I0.0063 J-0.0108
G2 X48.1337 Y2.9892 Z-0.7333 I-0.0125 J0.0
G2 Y3.0108 Z-0.7667 I0.0063 J0.0108
G2 X48.1525 Y3.0 Z-0.8 I0.0063 J-0.0108
G2 X48.1337 Y2.9892 Z-0.8333 I-0.0125 J0.0
G2 Y3.0108 Z-0.8667 I0.0063 J0.0108
G2 X48.1525 Y3.0 Z-0.9 I0.0063 J-0.0108
G2 X48.1337 Y2.9892 Z-0.9333 I-0.0125 J0.0
G2 Y3.0108 Z-0.9667 I0.0063 J0.0108
G2 X48.1525 Y3.0 Z-1.0 I0.0063 J-0.0108
G2 X48.1337 Y2.9892 Z-1.0333 I-0.0125 J0.0
G2 Y3.0108 Z-1.0667 I0.0063 J0.0108
G2 X48.1525 Y3.0 Z-1.1 I0.0063 J-0.0108
G2 X48.1337 Y2.9892 Z-1.1333 I-0.0125 J0.0
G2 Y3.0108 Z-1.1667 I0.0063 J0.0108
G2 X48.1525 Y3.0 Z-1.2 I0.0063 J-0.0108
G2 X48.1337 Y2.9892 Z-1.2333 I-0.0125 J0.0
G2 Y3.0108 Z-1.2667 I0.0063 J0.0108
G2 X48.1525 Y3.0 Z-1.3 I0.0063 J-0.0108
G2 X48.1337 Y2.9892 Z-1.3333 I-0.0125 J0.0
G2 Y3.0108 Z-1.3667 I0.0063 J0.0108
G2 X48.1525 Y3.0 Z-1.4 I0.0063 J-0.0108
G2 X48.1337 Y2.9892 Z-1.4333 I-0.0125 J0.0
G2 Y3.0108 Z-1.4667 I0.0063 J0.0108
G2 X48.1525 Y3.0 Z-1.5 I0.0063 J-0.0108
G2 X48.1337 Y2.9892 Z-1.5333 I-0.0125 J0.0
G2 Y3.0108 Z-1.5667 I0.0063 J0.0108
G2 X48.1525 Y3.0 Z-1.6 I0.0063 J-0.0108
G2 X48.1337 Y2.9892 Z-1.6333 I-0.0125 J0.0
G2 Y3.0108 Z-1.6667 I0.0063 J0.0108
G2 X48.1525 Y3.0 Z-1.7 I0.0063 J-0.0108
G2 X48.1337 Y2.9892 Z-1.7333 I-0.0125 J0.0
G2 Y3.0108 Z-1.7667 I0.0063 J0.0108
G2 X48.1525 Y3.0 Z-1.8 I0.0063 J-0.0108
G2 X48.1337 Y2.9892 Z-1.8333 I-0.0125 J0.0
G2 Y3.0108 Z-1.8667 I0.0063 J0.0108
G2 X48.1525 Y3.0 Z-1.9 I0.0063 J-0.0108
G2 X48.1337 Y2.9892 Z-1.9333 I-0.0125 J0.0
G2 Y3.0108 Z-1.9667 I0.0063 J0.0108
G2 X48.1525 Y3.0 Z-2.0 I0.0063 J-0.0108
G2 X48.1337 Y2.9892 Z-2.0333 I-0.0125 J0.0
G2 Y3.0108 Z-2.0667 I0.0063 J0.0108
G2 X48.1525 Y3.0 Z-2.1 I0.0063 J-0.0108
G2 X48.1337 Y2.9892 Z-2.1333 I-0.0125 J0.0
G2 Y3.0108 Z-2.1667 I0.0063 J0.0108
G2 X48.1525 Y3.0 Z-2.2 I0.0063 J-0.0108
G2 X48.1337 Y2.9892 Z-2.2333 I-0.0125 J0.0
G2 Y3.0108 Z-2.2667 I0.0063 J0.0108
G2 X48.1525 Y3.0 Z-2.3 I0.0063 J-0.0108
G2 X48.1337 Y2.9892 Z-2.3333 I-0.0125 J0.0
G2 Y3.0108 Z-2.3667 I0.0063 J0.0108
G2 X48.1525 Y3.0 Z-2.4 I0.0063 J-0.0108
G2 X48.1337 Y2.9892 Z-2.4333 I-0.0125 J0.0
G2 Y3.0108 Z-2.4667 I0.0063 J0.0108
G2 X48.1525 Y3.0 Z-2.5 I0.0063 J-0.0108
G2 X48.1337 Y2.9892 Z-2.5333 I-0.0125 J0.0
G2 Y3.0108 Z-2.5667 I0.0063 J0.0108
G2 X48.1525 Y3.0 Z-2.6 I0.0063 J-0.0108
G2 X48.1337 Y2.9892 Z-2.6333 I-0.0125 J0.0
G2 Y3.0108 Z-2.6667 I0.0063 J0.0108
G2 X48.1525 Y3.0 Z-2.7 I0.0063 J-0.0108
G2 X48.1337 Y2.9892 Z-2.7333 I-0.0125 J0.0
G2 Y3.0108 Z-2.7667 I0.0063 J0.0108
G2 X48.1525 Y3.0 Z-2.8 I0.0063 J-0.0108
G2 X48.1337 Y2.9892 Z-2.8333 I-0.0125 J0.0
G2 Y3.0108 Z-2.8667 I0.0063 J0.0108
G2 X48.1525 Y3.0 Z-2.9 I0.0063 J-0.0108
G2 X48.1337 Y2.9892 Z-2.9333 I-0.0125 J0.0
G2 Y3.0108 Z-2.9667 I0.0063 J0.0108
G2 X48.1525 Y3.0 Z-3.0 I0.0062 J-0.0108
G2 X48.1337 Y2.9892 Z-3.0333 I-0.0125 J0.0
G2 Y3.0108 Z-3.0667 I0.0063 J0.0108
G2 X48.1525 Y3.0 Z-3.1 I0.0062 J-0.0108
G2 X48.1337 Y2.9892 Z-3.1333 I-0.0125 J0.0
G2 Y3.0108 Z-3.1667 I0.0063 J0.0108
G2 X48.1525 Y3.0 Z-3.2 I0.0062 J-0.0108
G2 X48.1337 Y2.9892 I-0.0125 J0.0
G2 Y3.0108 I0.0063 J0.0108
G2 X48.1525 Y3.0 I0.0062 J-0.0108
G0 Z3.0
G0 X7.5125
G0 Z0.01
G1 F1000.0 Z0.0
G2 F2000.0 X7.4938 Y2.9892 Z-0.0333 I-0.0125 J0.0
G2 Y3.0108 Z-0.0667 I0.0062 J0.0108
G2 X7.5125 Y3.0 Z-0.1 I0.0063 J-0.0108
G2 X7.4938 Y2.9892 Z-0.1333 I-0.0125 J0.0
G2 Y3.0108 Z-0.1667 I0.0062 J0.0108
G2 X7.5125 Y3.0 Z-0.2 I0.0063 J-0.0108
G2 X7.4938 Y2.9892 Z-0.2333 I-0.0125 J0.0
G2 Y3.0108 Z-0.2667 I0.0062 J0.0108
G2 X7.5125 Y3.0 Z-0.3 I0.0063 J-0.0108
G2 X7.4938 Y2.9892 Z-0.3333 I-0.0125 J0.0
G2 Y3.0108 Z-0.3667 I0.0063 J0.0108
G2 X7.5125 Y3.0 Z-0.4 I0.0062 J-0.0108
G2 X7.4938 Y2.9892 Z-0.4333 I-0.0125 J0.0
G2 Y3.0108 Z-0.4667 I0.0063 J0.0108
G2 X7.5125 Y3.0 Z-0.5 I0.0062 J-0.0108
G2 X7.4938 Y2.9892 Z-0.5333 I-0.0125 J0.0
G2 Y3.0108 Z-0.5667 I0.0063 J0.0108
G2 X7.5125 Y3.0 Z-0.6 I0.0062 J-0.0108
G2 X7.4938 Y2.9892 Z-0.6333 I-0.0125 J0.0
G2 Y3.0108 Z-0.6667 I0.0062 J0.0108
G2 X7.5125 Y3.0 Z-0.7 I0.0063 J-0.0108
G2 X7.4938 Y2.9892 Z-0.7333 I-0.0125 J0.0
G2 Y3.0108 Z-0.7667 I0.0062 J0.0108
G2 X7.5125 Y3.0 Z-0.8 I0.0063 J-0.0108
G2 X7.4938 Y2.9892 Z-0.8333 I-0.0125 J0.0
G2 Y3.0108 Z-0.8667 I0.0062 J0.0108
G2 X7.5125 Y3.0 Z-0.9 I0.0063 J-0.0108
G2 X7.4938 Y2.9892 Z-0.9333 I-0.0125 J0.0
G2 Y3.0108 Z-0.9667 I0.0062 J0.0108
G2 X7.5125 Y3.0 Z-1.0 I0.0063 J-0.0108
G2 X7.4938 Y2.9892 Z-1.0333 I-0.0125 J0.0
G2 Y3.0108 Z-1.0667 I0.0062 J0.0108
G2 X7.5125 Y3.0 Z-1.1 I0.0063 J-0.0108
G2 X7.4938 Y2.9892 Z-1.1333 I-0.0125 J0.0
G2 Y3.0108 Z-1.1667 I0.0062 J0.0108
G2 X7.5125 Y3.0 Z-1.2 I0.0063 J-0.0108
G2 X7.4938 Y2.9892 Z-1.2333 I-0.0125 J0.0
G2 Y3.0108 Z-1.2667 I0.0062 J0.0108
G2 X7.5125 Y3.0 Z-1.3 I0.0063 J-0.0108
G2 X7.4938 Y2.9892 Z-1.3333 I-0.0125 J0.0
G2 Y3.0108 Z-1.3667 I0.0062 J0.0108
G2 X7.5125 Y3.0 Z-1.4 I0.0063 J-0.0108
G2 X7.4938 Y2.9892 Z-1.4333 I-0.0125 J0.0
G2 Y3.0108 Z-1.4667 I0.0062 J0.0108
G2 X7.5125 Y3.0 Z-1.5 I0.0063 J-0.0108
G2 X7.4938 Y2.9892 Z-1.5333 I-0.0125 J0.0
G2 Y3.0108 Z-1.5667 I0.0062 J0.0108
G2 X7.5125 Y3.0 Z-1.6 I0.0063 J-0.0108
G2 X7.4938 Y2.9892 Z-1.6333 I-0.0125 J0.0
G2 Y3.0108 Z-1.6667 I0.0062 J0.0108
G2 X7.5125 Y3.0 Z-1.7 I0.0063 J-0.0108
G2 X7.4938 Y2.9892 Z-1.7333 I-0.0125 J0.0
G2 Y3.0108 Z-1.7667 I0.0062 J0.0108
G2 X7.5125 Y3.0 Z-1.8 I0.0063 J-0.0108
G2 X7.4938 Y2.9892 Z-1.8333 I-0.0125 J0.0
G2 Y3.0108 Z-1.8667 I0.0062 J0.0108
G2 X7.5125 Y3.0 Z-1.9 I0.0063 J-0.0108
G2 X7.4938 Y2.9892 Z-1.9333 I-0.0125 J0.0
G2 Y3.0108 Z-1.9667 I0.0062 J0.0108
G2 X7.5125 Y3.0 Z-2.0 I0.0063 J-0.0108
G2 X7.4938 Y2.9892 Z-2.0333 I-0.0125 J0.0
G2 Y3.0108 Z-2.0667 I0.0062 J0.0108
G2 X7.5125 Y3.0 Z-2.1 I0.0063 J-0.0108
G2 X7.4938 Y2.9892 Z-2.1333 I-0.0125 J0.0
G2 Y3.0108 Z-2.1667 I0.0062 J0.0108
G2 X7.5125 Y3.0 Z-2.2 I0.0063 J-0.0108
G2 X7.4938 Y2.9892 Z-2.2333 I-0.0125 J0.0
G2 Y3.0108 Z-2.2667 I0.0062 J0.0108
G2 X7.5125 Y3.0 Z-2.3 I0.0063 J-0.0108
G2 X7.4938 Y2.9892 Z-2.3333 I-0.0125 J0.0
G2 Y3.0108 Z-2.3667 I0.0063 J0.0108
G2 X7.5125 Y3.0 Z-2.4 I0.0062 J-0.0108
G2 X7.4938 Y2.9892 Z-2.4333 I-0.0125 J0.0
G2 Y3.0108 Z-2.4667 I0.0063 J0.0108
G2 X7.5125 Y3.0 Z-2.5 I0.0062 J-0.0108
G2 X7.4938 Y2.9892 Z-2.5333 I-0.0125 J0.0
G2 Y3.0108 Z-2.5667 I0.0063 J0.0108
G2 X7.5125 Y3.0 Z-2.6 I0.0062 J-0.0108
G2 X7.4938 Y2.9892 Z-2.6333 I-0.0125 J0.0
G2 Y3.0108 Z-2.6667 I0.0063 J0.0108
G2 X7.5125 Y3.0 Z-2.7 I0.0062 J-0.0108
G2 X7.4938 Y2.9892 Z-2.7333 I-0.0125 J0.0
G2 Y3.0108 Z-2.7667 I0.0063 J0.0108
G2 X7.5125 Y3.0 Z-2.8 I0.0062 J-0.0108
G2 X7.4938 Y2.9892 Z-2.8333 I-0.0125 J0.0
G2 Y3.0108 Z-2.8667 I0.0063 J0.0108
G2 X7.5125 Y3.0 Z-2.9 I0.0062 J-0.0108
G2 X7.4938 Y2.9892 Z-2.9333 I-0.0125 J0.0
G2 Y3.0108 Z-2.9667 I0.0063 J0.0108
G2 X7.5125 Y3.0 Z-3.0 I0.0062 J-0.0108
G2 X7.4938 Y2.9892 Z-3.0333 I-0.0125 J0.0
G2 Y3.0108 Z-3.0667 I0.0063 J0.0108
G2 X7.5125 Y3.0 Z-3.1 I0.0062 J-0.0108
G2 X7.4938 Y2.9892 Z-3.1333 I-0.0125 J0.0
G2 Y3.0108 Z-3.1667 I0.0063 J0.0108
G2 X7.5125 Y3.0 Z-3.2 I0.0062 J-0.0108
G2 X7.4938 Y2.9892 I-0.0125 J0.0
G2 Y3.0108 I0.0063 J0.0108
G2 X7.5125 Y3.0 I0.0062 J-0.0108
( Profile1 )
S1000
G0 Z3.0
G0 X-1.5875 Y128.5
G0 Z0.01
G1 F1000.0 Z-0.1
G1 F2000.0 Y0.0
G3 X0.0 Y-1.5875 I1.5875 J0.0
G1 X55.64
G3 X57.2275 Y0.0 I0.0 J1.5875
G1 Y128.5
G3 X55.64 Y130.0875 I-1.5875 J0.0
G1 X0.0
G3 X-1.5875 Y128.5 I0.0 J-1.5875
G1 F1000.0 Z-0.2
G1 F2000.0 Y0.0
G3 X0.0 Y-1.5875 I1.5875 J0.0
G1 X55.64
G3 X57.2275 Y0.0 I0.0 J1.5875
G1 Y128.5
G3 X55.64 Y130.0875 I-1.5875 J0.0
G1 X0.0
G3 X-1.5875 Y128.5 I0.0 J-1.5875
G1 F1000.0 Z-0.3
G1 F2000.0 Y0.0
G3 X0.0 Y-1.5875 I1.5875 J0.0
G1 X55.64
G3 X57.2275 Y0.0 I0.0 J1.5875
G1 Y128.5
G3 X55.64 Y130.0875 I-1.5875 J0.0
G1 X0.0
G3 X-1.5875 Y128.5 I0.0 J-1.5875
G1 F1000.0 Z-0.4
G1 F2000.0 Y0.0
G3 X0.0 Y-1.5875 I1.5875 J0.0
G1 X55.64
G3 X57.2275 Y0.0 I0.0 J1.5875
G1 Y128.5
G3 X55.64 Y130.0875 I-1.5875 J0.0
G1 X0.0
G3 X-1.5875 Y128.5 I0.0 J-1.5875
G1 F1000.0 Z-0.5
G1 F2000.0 Y0.0
G3 X0.0 Y-1.5875 I1.5875 J0.0
G1 X55.64
G3 X57.2275 Y0.0 I0.0 J1.5875
G1 Y128.5
G3 X55.64 Y130.0875 I-1.5875 J0.0
G1 X0.0
G3 X-1.5875 Y128.5 I0.0 J-1.5875
G1 F1000.0 Z-0.6
G1 F2000.0 Y0.0
G3 X0.0 Y-1.5875 I1.5875 J0.0
G1 X55.64
G3 X57.2275 Y0.0 I0.0 J1.5875
G1 Y128.5
G3 X55.64 Y130.0875 I-1.5875 J0.0
G1 X0.0
G3 X-1.5875 Y128.5 I0.0 J-1.5875
G1 F1000.0 Z-0.7
G1 F2000.0 Y0.0
G3 X0.0 Y-1.5875 I1.5875 J0.0
G1 X55.64
G3 X57.2275 Y0.0 I0.0 J1.5875
G1 Y128.5
G3 X55.64 Y130.0875 I-1.5875 J0.0
G1 X0.0
G3 X-1.5875 Y128.5 I0.0 J-1.5875
G1 F1000.0 Z-0.8
G1 F2000.0 Y0.0
G3 X0.0 Y-1.5875 I1.5875 J0.0
G1 X55.64
G3 X57.2275 Y0.0 I0.0 J1.5875
G1 Y128.5
G3 X55.64 Y130.0875 I-1.5875 J0.0
G1 X0.0
G3 X-1.5875 Y128.5 I0.0 J-1.5875
G1 F1000.0 Z-0.9
G1 F2000.0 Y0.0
G3 X0.0 Y-1.5875 I1.5875 J0.0
G1 X55.64
G3 X57.2275 Y0.0 I0.0 J1.5875
G1 Y128.5
G3 X55.64 Y130.0875 I-1.5875 J0.0
G1 X0.0
G3 X-1.5875 Y128.5 I0.0 J-1.5875
G1 F1000.0 Z-1.0
G1 F2000.0 Y0.0
G3 X0.0 Y-1.5875 I1.5875 J0.0
G1 X55.64
G3 X57.2275 Y0.0 I0.0 J1.5875
G1 Y128.5
G3 X55.64 Y130.0875 I-1.5875 J0.0
G1 X0.0
G3 X-1.5875 Y128.5 I0.0 J-1.5875
G1 F1000.0 Z-1.1
G1 F2000.0 Y0.0
G3 X0.0 Y-1.5875 I1.5875 J0.0
G1 X55.64
G3 X57.2275 Y0.0 I0.0 J1.5875
G1 Y128.5
G3 X55.64 Y130.0875 I-1.5875 J0.0
G1 X0.0
G3 X-1.5875 Y128.5 I0.0 J-1.5875
G1 F1000.0 Z-1.2
G1 F2000.0 Y0.0
G3 X0.0 Y-1.5875 I1.5875 J0.0
G1 X55.64
G3 X57.2275 Y0.0 I0.0 J1.5875
G1 Y128.5
G3 X55.64 Y130.0875 I-1.5875 J0.0
G1 X0.0
G3 X-1.5875 Y128.5 I0.0 J-1.5875
G1 F1000.0 Z-1.3
G1 F2000.0 Y85.0525
G1 Y84.0525 Z-1.2
G1 Y80.8775
G1 Y79.8775 Z-1.3
G1 Y0.0
G3 X0.0 Y-1.5875 I1.5875 J0.0
G1 X7.0175
G1 X8.0175 Z-1.2
G1 X11.1925
G1 X12.1925 Z-1.3
G1 X55.64
G3 X57.2275 Y0.0 I0.0 J1.5875
G1 Y43.4475
G1 Y44.4475 Z-1.2
G1 Y47.6225
G1 Y48.6225 Z-1.3
G1 Y128.5
G3 X55.64 Y130.0875 I-1.5875 J0.0
G1 X48.6225
G1 X47.6225 Z-1.2
G1 X44.4475
G1 X43.4475 Z-1.3
G1 X0.0
G3 X-1.5875 Y128.5 I0.0 J-1.5875
G1 F1000.0 Z-1.4
G1 F2000.0 Y85.0525
G1 Y84.0525 Z-1.2
G1 Y80.8775
G1 Y79.8775 Z-1.4
G1 Y0.0
G3 X0.0 Y-1.5875 I1.5875 J0.0
G1 X7.0175
G1 X8.0175 Z-1.2
G1 X11.1925
G1 X12.1925 Z-1.4
G1 X55.64
G3 X57.2275 Y0.0 I0.0 J1.5875
G1 Y43.4475
G1 Y44.4475 Z-1.2
G1 Y47.6225
G1 Y48.6225 Z-1.4
G1 Y128.5
G3 X55.64 Y130.0875 I-1.5875 J0.0
G1 X48.6225
G1 X47.6225 Z-1.2
G1 X44.4475
G1 X43.4475 Z-1.4
G1 X0.0
G3 X-1.5875 Y128.5 I0.0 J-1.5875
G1 F1000.0 Z-1.5
G1 F2000.0 Y85.0525
G1 Y84.0525 Z-1.2
G1 Y80.8775
G1 Y79.8775 Z-1.5
G1 Y0.0
G3 X0.0 Y-1.5875 I1.5875 J0.0
G1 X7.0175
G1 X8.0175 Z-1.2
G1 X11.1925
G1 X12.1925 Z-1.5
G1 X55.64
G3 X57.2275 Y0.0 I0.0 J1.5875
G1 Y43.4475
G1 Y44.4475 Z-1.2
G1 Y47.6225
G1 Y48.6225 Z-1.5
G1 Y128.5
G3 X55.64 Y130.0875 I-1.5875 J0.0
G1 X48.6225
G1 X47.6225 Z-1.2
G1 X44.4475
G1 X43.4475 Z-1.5
G1 X0.0
G3 X-1.5875 Y128.5 I0.0 J-1.5875
G1 F1000.0 Z-1.6
G1 F2000.0 Y85.0525
G1 Y84.0525 Z-1.2
G1 Y80.8775
G1 Y79.8775 Z-1.6
G1 Y0.0
G3 X0.0 Y-1.5875 I1.5875 J0.0
G1 X7.0175
G1 X8.0175 Z-1.2
G1 X11.1925
G1 X12.1925 Z-1.6
G1 X55.64
G3 X57.2275 Y0.0 I0.0 J1.5875
G1 Y43.4475
G1 Y44.4475 Z-1.2
G1 Y47.6225
G1 Y48.6225 Z-1.6
G1 Y128.5
G3 X55.64 Y130.0875 I-1.5875 J0.0
G1 X48.6225
G1 X47.6225 Z-1.2
G1 X44.4475
G1 X43.4475 Z-1.6
G1 X0.0
G3 X-1.5875 Y128.5 I0.0 J-1.5875
G1 F1000.0 Z-1.7
G1 F2000.0 Y85.0525
G1 Y84.0525 Z-1.2
G1 Y80.8775
G1 Y79.8775 Z-1.7
G1 Y0.0
G3 X0.0 Y-1.5875 I1.5875 J0.0
G1 X7.0175
G1 X8.0175 Z-1.2
G1 X11.1925
G1 X12.1925 Z-1.7
G1 X55.64
G3 X57.2275 Y0.0 I0.0 J1.5875
G1 Y43.4475
G1 Y44.4475 Z-1.2
G1 Y47.6225
G1 Y48.6225 Z-1.7
G1 Y128.5
G3 X55.64 Y130.0875 I-1.5875 J0.0
G1 X48.6225
G1 X47.6225 Z-1.2
G1 X44.4475
G1 X43.4475 Z-1.7
G1 X0.0
G3 X-1.5875 Y128.5 I0.0 J-1.5875
G1 F1000.0 Z-1.8
G1 F2000.0 Y85.0525
G1 Y84.0525 Z-1.2
G1 Y80.8775
G1 Y79.8775 Z-1.8
G1 Y0.0
G3 X0.0 Y-1.5875 I1.5875 J0.0
G1 X7.0175
G1 X8.0175 Z-1.2
G1 X11.1925
G1 X12.1925 Z-1.8
G1 X55.64
G3 X57.2275 Y0.0 I0.0 J1.5875
G1 Y43.4475
G1 Y44.4475 Z-1.2
G1 Y47.6225
G1 Y48.6225 Z-1.8
G1 Y128.5
G3 X55.64 Y130.0875 I-1.5875 J0.0
G1 X48.6225
G1 X47.6225 Z-1.2
G1 X44.4475
G1 X43.4475 Z-1.8
G1 X0.0
