(/Applications/pcbgcode.repo/pcb-gcode.ulp)
(Copyright 2005 - 2012 by John Johnson)
(See readme.txt for licensing terms.)
(This file generated from the board:)
(.../hip_bass_drum/eagle/Hip Bass Drum.brd)
(Current profile is .../pcbgcode.repo/profiles/mach.pp  )
(This file generated 10/28/14 7:52 PM)
(Settings from pcb-machine.h)
(spindle on time = 0.0000)
(  Tool Size)
(0.0103  )
(spindle speed = 30000.0000)
(tool change at 0.0000  0.0000  3.0000  )
(feed rate xy = F20    )
(feed rate z  = F10    )
(Z Axis Settings)
(  High     Up        Down     Drill)
(0.5000  	0.1000  	-0.0021 	-0.0631 )
(Settings from pcb-defaults.h)
(isolate min = 0.0010)
(isolate max = 0.0030)
(isolate step = 0.0010)
(Generated bottom outlines, bottom drill, )
(Unit of measure: inch)
(Inch Mode)
G20
(Absolute Coordinates)
G90
S30000
G00 Z0.5000  
G00 X0.0000  Y0.0000  
M03
G04 P0.000000
G00 Z0.1000  
G00 X-0.0758 Y0.1801  
G01 Z-0.0021 F10    
G01 X-0.0801 Y0.1758  F20    
G01 X-0.0852 Y0.1724  
G01 X-0.0909 Y0.1700  
G01 X-0.0969 Y0.1689  
G01 X-0.2701 Y0.1689  
G01 X-0.2821 Y0.1569  
G01 X-0.3179 Y0.1569  
G01 X-0.3299 Y0.1689  
G01 X-0.3701 Y0.1689  
G01 X-0.3821 Y0.1569  
G01 X-0.4179 Y0.1569  
G01 X-0.4431 Y0.1821  
G01 X-0.4431 Y0.2179  
G01 X-0.4179 Y0.2431  
G01 X-0.3821 Y0.2431  
G01 X-0.3701 Y0.2311  
G01 X-0.3299 Y0.2311  
G01 X-0.3179 Y0.2431  
G01 X-0.2821 Y0.2431  
G01 X-0.2701 Y0.2311  
G01 X-0.1311 Y0.2311  
G01 X-0.1311 Y1.6689  
G01 X-0.3857 Y1.6689  
G01 X-0.3867 Y1.6679  
G01 X-0.4133 Y1.6679  
G01 X-0.4321 Y1.6867  
G01 X-0.4321 Y1.7133  
G01 X-0.4133 Y1.7321  
G01 X-0.3867 Y1.7321  
G01 X-0.3857 Y1.7311  
G01 X-0.0969 Y1.7311  
G01 X-0.0909 Y1.7300  
G01 X-0.0852 Y1.7276  
G01 X-0.0801 Y1.7242  
G01 X-0.0758 Y1.7199  
G01 X-0.0724 Y1.7148  
G01 X-0.0700 Y1.7091  
G01 X-0.0689 Y1.7031  
G01 X-0.0689 Y0.1969  
G01 X-0.0700 Y0.1909  
G01 X-0.0724 Y0.1852  
G01 X-0.0758 Y0.1801  
G00 Z0.1000  
G00 X-0.2569 Y0.2821  
G01 Z-0.0021 F10    
G01 X-0.2821 Y0.2569  F20    
G01 X-0.3179 Y0.2569  
G01 X-0.3299 Y0.2689  
G01 X-0.3701 Y0.2689  
G01 X-0.3821 Y0.2569  
G01 X-0.4179 Y0.2569  
G01 X-0.4431 Y0.2821  
G01 X-0.4431 Y0.3179  
G01 X-0.4179 Y0.3431  
G01 X-0.3821 Y0.3431  
G01 X-0.3701 Y0.3311  
G01 X-0.3311 Y0.3311  
G01 X-0.3311 Y0.3701  
G01 X-0.3431 Y0.3821  
G01 X-0.3431 Y0.3859  
G01 X-0.3569 Y0.3859  
G01 X-0.3569 Y0.3821  
G01 X-0.3821 Y0.3569  
G01 X-0.4179 Y0.3569  
G01 X-0.4299 Y0.3689  
G01 X-0.5531 Y0.3689  
G01 X-0.5591 Y0.3700  
G01 X-0.5648 Y0.3724  
G01 X-0.5699 Y0.3758  
G01 X-0.5742 Y0.3801  
G01 X-0.5776 Y0.3852  
G01 X-0.5800 Y0.3909  
G01 X-0.5811 Y0.3969  
G01 X-0.5811 Y1.0189  
G01 X-0.8516 Y1.0189  
G01 X-0.8529 Y1.0180  
G01 X-0.8595 Y1.0152  
G01 X-0.8608 Y1.0150  
G01 X-0.8255 Y0.9091  
G01 X-0.8249 Y0.9076  
G01 X-0.8247 Y0.9067  
G01 X-0.8244 Y0.9058  
G01 X-0.8242 Y0.9042  
G01 X-0.8239 Y0.9026  
G01 X-0.8239 Y0.9016  
G01 X-0.8237 Y0.9007  
G01 X-0.8239 Y0.8991  
G01 X-0.8239 Y0.5474  
G01 X-0.8249 Y0.5424  
G01 X-0.8268 Y0.5376  
G01 X-0.8297 Y0.5333  
G01 X-0.8333 Y0.5297  
G01 X-0.8376 Y0.5268  
G01 X-0.8424 Y0.5249  
G01 X-0.8474 Y0.5239  
G01 X-0.9450 Y0.5239  
G01 X-0.9470 Y0.5219  
G01 X-0.9529 Y0.5180  
G01 X-0.9595 Y0.5152  
G01 X-0.9664 Y0.5139  
G01 X-0.9689 Y0.5139  
G01 X-0.9689 Y0.3469  
G01 X-0.9700 Y0.3409  
G01 X-0.9724 Y0.3352  
G01 X-0.9758 Y0.3301  
G01 X-0.9801 Y0.3258  
G01 X-0.9852 Y0.3224  
G01 X-0.9909 Y0.3200  
G01 X-0.9969 Y0.3189  
G01 X-1.1689 Y0.3189  
G01 X-1.1689 Y0.2469  
G01 X-1.1700 Y0.2409  
G01 X-1.1724 Y0.2352  
G01 X-1.1758 Y0.2301  
G01 X-1.1801 Y0.2258  
G01 X-1.1852 Y0.2224  
G01 X-1.1909 Y0.2200  
G01 X-1.1969 Y0.2189  
G01 X-1.3139 Y0.2189  
G01 X-1.3139 Y0.2164  
G01 X-1.3152 Y0.2095  
G01 X-1.3180 Y0.2029  
G01 X-1.3219 Y0.1970  
G01 X-1.3270 Y0.1919  
G01 X-1.3329 Y0.1880  
G01 X-1.3395 Y0.1852  
G01 X-1.3464 Y0.1839  
G01 X-1.3536 Y0.1839  
G01 X-1.3605 Y0.1852  
G01 X-1.3671 Y0.1880  
G01 X-1.3730 Y0.1919  
G01 X-1.3781 Y0.1970  
G01 X-1.3820 Y0.2029  
G01 X-1.3848 Y0.2095  
G01 X-1.3861 Y0.2164  
G01 X-1.3861 Y0.2836  
G01 X-1.3848 Y0.2905  
G01 X-1.3820 Y0.2971  
G01 X-1.3811 Y0.2984  
G01 X-1.3811 Y0.4189  
G01 X-1.3857 Y0.4189  
G01 X-1.3867 Y0.4179  
G01 X-1.4133 Y0.4179  
G01 X-1.4321 Y0.4367  
G01 X-1.4321 Y0.4633  
G01 X-1.4133 Y0.4821  
G01 X-1.3867 Y0.4821  
G01 X-1.3857 Y0.4811  
G01 X-1.3469 Y0.4811  
G01 X-1.3409 Y0.4800  
G01 X-1.3352 Y0.4776  
G01 X-1.3301 Y0.4742  
G01 X-1.3258 Y0.4699  
G01 X-1.3224 Y0.4648  
G01 X-1.3200 Y0.4591  
G01 X-1.3189 Y0.4531  
G01 X-1.3189 Y0.2984  
G01 X-1.3180 Y0.2971  
G01 X-1.3152 Y0.2905  
G01 X-1.3139 Y0.2836  
G01 X-1.3139 Y0.2811  
G01 X-1.2311 Y0.2811  
G01 X-1.2311 Y0.3357  
G01 X-1.2321 Y0.3367  
G01 X-1.2321 Y0.3633  
G01 X-1.2133 Y0.3821  
G01 X-1.1867 Y0.3821  
G01 X-1.1857 Y0.3811  
G01 X-1.0311 Y0.3811  
G01 X-1.0311 Y0.5139  
G01 X-1.0336 Y0.5139  
G01 X-1.0405 Y0.5152  
G01 X-1.0471 Y0.5180  
G01 X-1.0530 Y0.5219  
G01 X-1.0581 Y0.5270  
G01 X-1.0620 Y0.5329  
G01 X-1.0648 Y0.5395  
G01 X-1.0661 Y0.5464  
G01 X-1.0661 Y0.5536  
G01 X-1.0648 Y0.5605  
G01 X-1.0620 Y0.5671  
G01 X-1.0581 Y0.5730  
G01 X-1.0530 Y0.5781  
G01 X-1.0471 Y0.5820  
G01 X-1.0405 Y0.5848  
G01 X-1.0336 Y0.5861  
G01 X-0.9664 Y0.5861  
G01 X-0.9595 Y0.5848  
G01 X-0.9529 Y0.5820  
G01 X-0.9470 Y0.5781  
G01 X-0.9450 Y0.5761  
G01 X-0.8761 Y0.5761  
G01 X-0.8761 Y0.8958  
G01 X-0.9155 Y1.0139  
G01 X-0.9336 Y1.0139  
G01 X-0.9405 Y1.0152  
G01 X-0.9471 Y1.0180  
G01 X-0.9530 Y1.0219  
G01 X-0.9581 Y1.0270  
G01 X-0.9620 Y1.0329  
G01 X-0.9648 Y1.0395  
G01 X-0.9661 Y1.0464  
G01 X-0.9661 Y1.0536  
G01 X-0.9648 Y1.0605  
G01 X-0.9620 Y1.0671  
G01 X-0.9581 Y1.0730  
G01 X-0.9530 Y1.0781  
G01 X-0.9471 Y1.0820  
G01 X-0.9405 Y1.0848  
G01 X-0.9336 Y1.0861  
G01 X-0.8664 Y1.0861  
G01 X-0.8595 Y1.0848  
G01 X-0.8529 Y1.0820  
G01 X-0.8516 Y1.0811  
G01 X-0.5811 Y1.0811  
G01 X-0.5811 Y1.3779  
G01 X-0.5876 Y1.3844  
G01 X-0.5876 Y1.4156  
G01 X-0.5811 Y1.4221  
G01 X-0.5811 Y1.8789  
G01 X-0.5834 Y1.8822  
G01 X-0.5862 Y1.8890  
G01 X-0.5876 Y1.8963  
G01 X-0.5876 Y1.9037  
G01 X-0.5862 Y1.9110  
G01 X-0.5834 Y1.9178  
G01 X-0.5792 Y1.9240  
G01 X-0.5740 Y1.9292  
G01 X-0.5678 Y1.9334  
G01 X-0.5610 Y1.9362  
G01 X-0.5537 Y1.9376  
G01 X-0.5463 Y1.9376  
G01 X-0.5390 Y1.9362  
G01 X-0.5322 Y1.9334  
G01 X-0.5289 Y1.9311  
G01 X-0.4311 Y1.9311  
G01 X-0.4311 Y2.4189  
G01 X-0.5016 Y2.4189  
G01 X-0.5029 Y2.4180  
G01 X-0.5095 Y2.4152  
G01 X-0.5164 Y2.4139  
G01 X-0.5836 Y2.4139  
G01 X-0.5905 Y2.4152  
G01 X-0.5971 Y2.4180  
G01 X-0.5984 Y2.4189  
G01 X-0.8031 Y2.4189  
G01 X-0.8091 Y2.4200  
G01 X-0.8148 Y2.4224  
G01 X-0.8199 Y2.4258  
G01 X-0.8242 Y2.4301  
G01 X-0.8276 Y2.4352  
G01 X-0.8300 Y2.4409  
G01 X-0.8311 Y2.4469  
G01 X-0.8311 Y2.6189  
G01 X-0.9357 Y2.6189  
G01 X-0.9367 Y2.6179  
G01 X-0.9633 Y2.6179  
G01 X-0.9821 Y2.6367  
G01 X-0.9821 Y2.6633  
G01 X-0.9811 Y2.6643  
G01 X-0.9811 Y2.6689  
G01 X-1.3689 Y2.6689  
G01 X-1.3689 Y2.5984  
G01 X-1.3680 Y2.5971  
G01 X-1.3652 Y2.5905  
G01 X-1.3639 Y2.5836  
G01 X-1.3639 Y2.5164  
G01 X-1.3652 Y2.5095  
G01 X-1.3680 Y2.5029  
G01 X-1.3719 Y2.4970  
G01 X-1.3770 Y2.4919  
G01 X-1.3829 Y2.4880  
G01 X-1.3895 Y2.4852  
G01 X-1.3964 Y2.4839  
G01 X-1.4036 Y2.4839  
G01 X-1.4105 Y2.4852  
G01 X-1.4171 Y2.4880  
G01 X-1.4230 Y2.4919  
G01 X-1.4281 Y2.4970  
G01 X-1.4320 Y2.5029  
G01 X-1.4348 Y2.5095  
G01 X-1.4361 Y2.5164  
G01 X-1.4361 Y2.5836  
G01 X-1.4348 Y2.5905  
G01 X-1.4320 Y2.5971  
G01 X-1.4311 Y2.5984  
G01 X-1.4311 Y2.6689  
G01 X-1.6689 Y2.6689  
G01 X-1.6689 Y2.6643  
G01 X-1.6679 Y2.6633  
G01 X-1.6679 Y2.6367  
G01 X-1.6867 Y2.6179  
G01 X-1.7133 Y2.6179  
G01 X-1.7143 Y2.6189  
G01 X-2.1189 Y2.6189  
G01 X-2.1189 Y2.4761  
G01 X-1.7974 Y2.4761  
G01 X-1.7924 Y2.4751  
G01 X-1.7876 Y2.4732  
G01 X-1.7833 Y2.4703  
G01 X-1.7797 Y2.4667  
G01 X-1.7768 Y2.4624  
G01 X-1.7749 Y2.4576  
G01 X-1.7739 Y2.4526  
G01 X-1.7739 Y2.2193  
G01 X-1.7679 Y2.2133  
G01 X-1.7679 Y2.1867  
G01 X-1.7867 Y2.1679  
G01 X-1.8133 Y2.1679  
G01 X-1.8321 Y2.1867  
G01 X-1.8321 Y2.2133  
G01 X-1.8261 Y2.2193  
G01 X-1.8261 Y2.4239  
G01 X-2.1307 Y2.4239  
G01 X-2.1367 Y2.4179  
G01 X-2.1446 Y2.4179  
G01 X-2.2343 Y2.3730  
G01 X-2.2352 Y2.3724  
G01 X-2.2371 Y2.3716  
G01 X-2.2388 Y2.3708  
G01 X-2.2399 Y2.3705  
G01 X-2.2409 Y2.3700  
G01 X-2.2428 Y2.3697  
G01 X-2.2447 Y2.3691  
G01 X-2.2458 Y2.3691  
G01 X-2.2469 Y2.3689  
G01 X-2.2489 Y2.3689  
G01 X-2.2509 Y2.3687  
G01 X-2.2520 Y2.3689  
G01 X-2.4689 Y2.3689  
G01 X-2.4689 Y0.6311  
G01 X-2.1143 Y0.6311  
G01 X-2.1133 Y0.6321  
G01 X-2.0867 Y0.6321  
G01 X-2.0679 Y0.6133  
G01 X-2.0679 Y0.5867  
G01 X-2.0867 Y0.5679  
G01 X-2.1133 Y0.5679  
G01 X-2.1143 Y0.5689  
G01 X-2.5031 Y0.5689  
G01 X-2.5091 Y0.5700  
G01 X-2.5148 Y0.5724  
G01 X-2.5199 Y0.5758  
G01 X-2.5242 Y0.5801  
G01 X-2.5276 Y0.5852  
G01 X-2.5300 Y0.5909  
G01 X-2.5311 Y0.5969  
G01 X-2.5311 Y2.4031  
G01 X-2.5300 Y2.4091  
G01 X-2.5276 Y2.4148  
G01 X-2.5242 Y2.4199  
G01 X-2.5199 Y2.4242  
G01 X-2.5148 Y2.4276  
G01 X-2.5091 Y2.4300  
G01 X-2.5031 Y2.4311  
G01 X-2.2574 Y2.4311  
G01 X-2.1811 Y2.4693  
G01 X-2.1811 Y2.6531  
G01 X-2.1800 Y2.6591  
G01 X-2.1776 Y2.6648  
G01 X-2.1742 Y2.6699  
G01 X-2.1699 Y2.6742  
G01 X-2.1648 Y2.6776  
G01 X-2.1591 Y2.6800  
G01 X-2.1531 Y2.6811  
G01 X-1.7311 Y2.6811  
G01 X-1.7311 Y2.7031  
G01 X-1.7300 Y2.7091  
G01 X-1.7276 Y2.7148  
G01 X-1.7242 Y2.7199  
G01 X-1.7199 Y2.7242  
G01 X-1.7148 Y2.7276  
G01 X-1.7091 Y2.7300  
G01 X-1.7031 Y2.7311  
G01 X-0.9469 Y2.7311  
G01 X-0.9409 Y2.7300  
G01 X-0.9352 Y2.7276  
G01 X-0.9301 Y2.7242  
G01 X-0.9258 Y2.7199  
G01 X-0.9224 Y2.7148  
G01 X-0.9200 Y2.7091  
G01 X-0.9189 Y2.7031  
G01 X-0.9189 Y2.6811  
G01 X-0.8143 Y2.6811  
G01 X-0.8133 Y2.6821  
G01 X-0.7867 Y2.6821  
G01 X-0.7679 Y2.6633  
G01 X-0.7679 Y2.6367  
G01 X-0.7689 Y2.6357  
G01 X-0.7689 Y2.4811  
G01 X-0.5984 Y2.4811  
G01 X-0.5971 Y2.4820  
G01 X-0.5905 Y2.4848  
G01 X-0.5836 Y2.4861  
G01 X-0.5164 Y2.4861  
G01 X-0.5095 Y2.4848  
G01 X-0.5029 Y2.4820  
G01 X-0.5016 Y2.4811  
G01 X-0.3969 Y2.4811  
G01 X-0.3909 Y2.4800  
G01 X-0.3852 Y2.4776  
G01 X-0.3801 Y2.4742  
G01 X-0.3758 Y2.4699  
G01 X-0.3724 Y2.4648  
G01 X-0.3700 Y2.4591  
G01 X-0.3689 Y2.4531  
G01 X-0.3689 Y1.8969  
G01 X-0.3700 Y1.8909  
G01 X-0.3724 Y1.8852  
G01 X-0.3758 Y1.8801  
G01 X-0.3801 Y1.8758  
G01 X-0.3852 Y1.8724  
G01 X-0.3909 Y1.8700  
G01 X-0.3969 Y1.8689  
G01 X-0.5189 Y1.8689  
G01 X-0.5189 Y1.4221  
G01 X-0.5124 Y1.4156  
G01 X-0.5124 Y1.3844  
G01 X-0.5189 Y1.3779  
G01 X-0.5189 Y0.4311  
G01 X-0.4311 Y0.4311  
G01 X-0.4311 Y0.4701  
G01 X-0.4431 Y0.4821  
G01 X-0.4431 Y0.5179  
G01 X-0.4179 Y0.5431  
G01 X-0.3821 Y0.5431  
G01 X-0.3701 Y0.5311  
G01 X-0.3299 Y0.5311  
G01 X-0.3179 Y0.5431  
G01 X-0.2821 Y0.5431  
G01 X-0.2569 Y0.5179  
G01 X-0.2569 Y0.4821  
G01 X-0.2821 Y0.4569  
G01 X-0.3179 Y0.4569  
G01 X-0.3299 Y0.4689  
G01 X-0.3689 Y0.4689  
G01 X-0.3689 Y0.4299  
G01 X-0.3569 Y0.4179  
G01 X-0.3569 Y0.4141  
G01 X-0.3431 Y0.4141  
G01 X-0.3431 Y0.4179  
G01 X-0.3179 Y0.4431  
G01 X-0.2821 Y0.4431  
G01 X-0.2569 Y0.4179  
G01 X-0.2569 Y0.3821  
G01 X-0.2689 Y0.3701  
G01 X-0.2689 Y0.3299  
G01 X-0.2569 Y0.3179  
G01 X-0.2569 Y0.2821  
G00 Z0.1000  
G00 X-0.2701 Y0.5689  
G01 Z-0.0021 F10    
G01 X-0.2821 Y0.5569  F20    
G01 X-0.3179 Y0.5569  
G01 X-0.3299 Y0.5689  
G01 X-0.3701 Y0.5689  
G01 X-0.3821 Y0.5569  
G01 X-0.4179 Y0.5569  
G01 X-0.4431 Y0.5821  
G01 X-0.4431 Y0.6179  
G01 X-0.4179 Y0.6431  
G01 X-0.3821 Y0.6431  
G01 X-0.3701 Y0.6311  
G01 X-0.3299 Y0.6311  
G01 X-0.3179 Y0.6431  
G01 X-0.2821 Y0.6431  
G01 X-0.2701 Y0.6311  
G01 X-0.2311 Y0.6311  
G01 X-0.2311 Y1.5689  
G01 X-0.3857 Y1.5689  
G01 X-0.3867 Y1.5679  
G01 X-0.4133 Y1.5679  
G01 X-0.4321 Y1.5867  
G01 X-0.4321 Y1.6133  
G01 X-0.4133 Y1.6321  
G01 X-0.3867 Y1.6321  
G01 X-0.3857 Y1.6311  
G01 X-0.1969 Y1.6311  
G01 X-0.1909 Y1.6300  
G01 X-0.1852 Y1.6276  
G01 X-0.1801 Y1.6242  
G01 X-0.1758 Y1.6199  
G01 X-0.1724 Y1.6148  
G01 X-0.1700 Y1.6091  
G01 X-0.1689 Y1.6031  
G01 X-0.1689 Y0.5969  
G01 X-0.1700 Y0.5909  
G01 X-0.1724 Y0.5852  
G01 X-0.1758 Y0.5801  
G01 X-0.1801 Y0.5758  
G01 X-0.1852 Y0.5724  
G01 X-0.1909 Y0.5700  
G01 X-0.1969 Y0.5689  
G01 X-0.2701 Y0.5689  
G00 Z0.1000  
G00 X-0.2821 Y0.6569  
G01 Z-0.0021 F10    
G01 X-0.3179 Y0.6569  F20    
G01 X-0.3431 Y0.6821  
G01 X-0.3431 Y0.7179  
G01 X-0.3179 Y0.7431  
G01 X-0.2821 Y0.7431  
G01 X-0.2569 Y0.7179  
G01 X-0.2569 Y0.6821  
G01 X-0.2821 Y0.6569  
G00 Z0.1000  
G00 X-0.3569 Y0.6821  
G01 Z-0.0021 F10    
G01 X-0.3821 Y0.6569  F20    
G01 X-0.4179 Y0.6569  
G01 X-0.4431 Y0.6821  
G01 X-0.4431 Y0.7179  
G01 X-0.4179 Y0.7431  
G01 X-0.3821 Y0.7431  
G01 X-0.3569 Y0.7179  
G01 X-0.3569 Y0.6821  
G00 Z0.1000  
G00 X-0.3569 Y0.7821  
G01 Z-0.0021 F10    
G01 X-0.3821 Y0.7569  F20    
G01 X-0.4179 Y0.7569  
G01 X-0.4431 Y0.7821  
G01 X-0.4431 Y0.8179  
G01 X-0.4179 Y0.8431  
G01 X-0.3821 Y0.8431  
G01 X-0.3569 Y0.8179  
G01 X-0.3569 Y0.7821  
G00 Z0.1000  
G00 X-0.3431 Y0.7821  
G01 Z-0.0021 F10    
G01 X-0.3431 Y0.8179  F20    
G01 X-0.3179 Y0.8431  
G01 X-0.2821 Y0.8431  
G01 X-0.2569 Y0.8179  
G01 X-0.2569 Y0.7821  
G01 X-0.2821 Y0.7569  
G01 X-0.3179 Y0.7569  
G01 X-0.3431 Y0.7821  
G00 Z0.1000  
G00 X-0.3431 Y0.8821  
G01 Z-0.0021 F10    
G01 X-0.3431 Y0.9179  F20    
G01 X-0.3179 Y0.9431  
G01 X-0.2821 Y0.9431  
G01 X-0.2569 Y0.9179  
G01 X-0.2569 Y0.8821  
G01 X-0.2821 Y0.8569  
G01 X-0.3179 Y0.8569  
G01 X-0.3431 Y0.8821  
G00 Z0.1000  
G00 X-0.3569 Y0.8821  
G01 Z-0.0021 F10    
G01 X-0.3821 Y0.8569  F20    
G01 X-0.4179 Y0.8569  
G01 X-0.4431 Y0.8821  
G01 X-0.4431 Y0.9179  
G01 X-0.4179 Y0.9431  
G01 X-0.3821 Y0.9431  
G01 X-0.3569 Y0.9179  
G01 X-0.3569 Y0.8821  
G00 Z0.1000  
G00 X-0.7179 Y0.8633  
G01 Z-0.0021 F10    
G01 X-0.7179 Y0.8367  F20    
G01 X-0.7189 Y0.8357  
G01 X-0.7189 Y0.0969  
G01 X-0.7200 Y0.0909  
G01 X-0.7224 Y0.0852  
G01 X-0.7258 Y0.0801  
G01 X-0.7301 Y0.0758  
G01 X-0.7352 Y0.0724  
G01 X-0.7409 Y0.0700  
G01 X-0.7469 Y0.0689  
G01 X-1.4531 Y0.0689  
G01 X-1.4591 Y0.0700  
G01 X-1.4648 Y0.0724  
G01 X-1.4699 Y0.0758  
G01 X-1.4742 Y0.0801  
G01 X-1.4776 Y0.0852  
G01 X-1.4800 Y0.0909  
G01 X-1.4811 Y0.0969  
G01 X-1.4811 Y0.2016  
G01 X-1.4820 Y0.2029  
G01 X-1.4848 Y0.2095  
G01 X-1.4861 Y0.2164  
G01 X-1.4861 Y0.2836  
G01 X-1.4848 Y0.2905  
G01 X-1.4820 Y0.2971  
G01 X-1.4781 Y0.3030  
G01 X-1.4730 Y0.3081  
G01 X-1.4671 Y0.3120  
G01 X-1.4605 Y0.3148  
G01 X-1.4536 Y0.3161  
G01 X-1.4464 Y0.3161  
G01 X-1.4395 Y0.3148  
G01 X-1.4329 Y0.3120  
G01 X-1.4270 Y0.3081  
G01 X-1.4219 Y0.3030  
G01 X-1.4180 Y0.2971  
G01 X-1.4152 Y0.2905  
G01 X-1.4139 Y0.2836  
G01 X-1.4139 Y0.2164  
G01 X-1.4152 Y0.2095  
G01 X-1.4180 Y0.2029  
G01 X-1.4189 Y0.2016  
G01 X-1.4189 Y0.1311  
G01 X-0.7811 Y0.1311  
G01 X-0.7811 Y0.8357  
G01 X-0.7821 Y0.8367  
G01 X-0.7821 Y0.8633  
G01 X-0.7633 Y0.8821  
G01 X-0.7367 Y0.8821  
G01 X-0.7179 Y0.8633  
G00 Z0.1000  
G00 X-1.0279 Y0.8471  
G01 Z-0.0021 F10    
G01 X-1.0294 Y0.8415  F20    
G01 X-1.0323 Y0.8364  
G01 X-1.0364 Y0.8323  
G01 X-1.0415 Y0.8294  
G01 X-1.0471 Y0.8279  
G01 X-1.2529 Y0.8279  
G01 X-1.2585 Y0.8294  
G01 X-1.2636 Y0.8323  
G01 X-1.2677 Y0.8364  
G01 X-1.2706 Y0.8415  
G01 X-1.2721 Y0.8471  
G01 X-1.2721 Y0.9267  
G01 X-1.2821 Y0.9367  
G01 X-1.2821 Y0.9633  
G01 X-1.2633 Y0.9821  
G01 X-1.2367 Y0.9821  
G01 X-1.2179 Y0.9633  
G01 X-1.2179 Y0.9367  
G01 X-1.2279 Y0.9267  
G01 X-1.2279 Y0.8721  
G01 X-1.0721 Y0.8721  
G01 X-1.0721 Y1.1529  
G01 X-1.0706 Y1.1585  
G01 X-1.0677 Y1.1636  
G01 X-1.0636 Y1.1677  
G01 X-1.0585 Y1.1706  
G01 X-1.0529 Y1.1721  
G01 X-0.9587 Y1.1721  
G01 X-0.9581 Y1.1730  
G01 X-0.9530 Y1.1781  
G01 X-0.9471 Y1.1820  
G01 X-0.9405 Y1.1848  
G01 X-0.9336 Y1.1861  
G01 X-0.8664 Y1.1861  
G01 X-0.8595 Y1.1848  
G01 X-0.8529 Y1.1820  
G01 X-0.8470 Y1.1781  
G01 X-0.8419 Y1.1730  
G01 X-0.8380 Y1.1671  
G01 X-0.8352 Y1.1605  
G01 X-0.8339 Y1.1536  
G01 X-0.8339 Y1.1464  
G01 X-0.8352 Y1.1395  
G01 X-0.8380 Y1.1329  
G01 X-0.8419 Y1.1270  
G01 X-0.8470 Y1.1219  
G01 X-0.8529 Y1.1180  
G01 X-0.8595 Y1.1152  
G01 X-0.8664 Y1.1139  
G01 X-0.9336 Y1.1139  
G01 X-0.9405 Y1.1152  
G01 X-0.9471 Y1.1180  
G01 X-0.9530 Y1.1219  
G01 X-0.9581 Y1.1270  
G01 X-0.9587 Y1.1279  
G01 X-1.0279 Y1.1279  
G01 X-1.0279 Y0.8471  
G00 Z0.1000  
G00 X-1.0336 Y0.6861  
G01 Z-0.0021 F10    
G01 X-0.9664 Y0.6861  F20    
G01 X-0.9595 Y0.6848  
G01 X-0.9529 Y0.6820  
G01 X-0.9470 Y0.6781  
G01 X-0.9419 Y0.6730  
G01 X-0.9380 Y0.6671  
G01 X-0.9352 Y0.6605  
G01 X-0.9339 Y0.6536  
G01 X-0.9339 Y0.6464  
G01 X-0.9352 Y0.6395  
G01 X-0.9380 Y0.6329  
G01 X-0.9419 Y0.6270  
G01 X-0.9470 Y0.6219  
G01 X-0.9529 Y0.6180  
G01 X-0.9595 Y0.6152  
G01 X-0.9664 Y0.6139  
G01 X-1.0336 Y0.6139  
G01 X-1.0405 Y0.6152  
G01 X-1.0471 Y0.6180  
G01 X-1.0484 Y0.6189  
G01 X-1.2031 Y0.6189  
G01 X-1.2091 Y0.6200  
G01 X-1.2148 Y0.6224  
G01 X-1.2199 Y0.6258  
G01 X-1.2242 Y0.6301  
G01 X-1.2276 Y0.6352  
G01 X-1.2300 Y0.6409  
G01 X-1.2311 Y0.6469  
G01 X-1.2311 Y0.6689  
G01 X-1.3779 Y0.6689  
G01 X-1.3844 Y0.6624  
G01 X-1.4156 Y0.6624  
G01 X-1.4376 Y0.6844  
G01 X-1.4376 Y0.7156  
G01 X-1.4156 Y0.7376  
G01 X-1.3844 Y0.7376  
G01 X-1.3779 Y0.7311  
G01 X-1.2311 Y0.7311  
G01 X-1.2311 Y0.7357  
G01 X-1.2321 Y0.7367  
G01 X-1.2321 Y0.7633  
G01 X-1.2133 Y0.7821  
G01 X-1.1867 Y0.7821  
G01 X-1.1679 Y0.7633  
G01 X-1.1679 Y0.7367  
G01 X-1.1689 Y0.7357  
G01 X-1.1689 Y0.6811  
G01 X-1.0484 Y0.6811  
G01 X-1.0471 Y0.6820  
G01 X-1.0405 Y0.6848  
G01 X-1.0336 Y0.6861  
G00 Z0.1000  
G00 X-1.1179 Y0.9367  
G01 Z-0.0021 F10    
G01 X-1.1367 Y0.9179  F20    
G01 X-1.1633 Y0.9179  
G01 X-1.1821 Y0.9367  
G01 X-1.1821 Y0.9633  
G01 X-1.1721 Y0.9733  
G01 X-1.1721 Y1.0779  
G01 X-1.4679 Y1.0779  
G01 X-1.4679 Y1.0708  
G01 X-1.4691 Y1.0646  
G01 X-1.4715 Y1.0588  
G01 X-1.4750 Y1.0535  
G01 X-1.4795 Y1.0490  
G01 X-1.4848 Y1.0455  
G01 X-1.4906 Y1.0431  
G01 X-1.4968 Y1.0419  
G01 X-1.5032 Y1.0419  
G01 X-1.5094 Y1.0431  
G01 X-1.5152 Y1.0455  
G01 X-1.5205 Y1.0490  
G01 X-1.5250 Y1.0535  
G01 X-1.5285 Y1.0588  
G01 X-1.5309 Y1.0646  
G01 X-1.5321 Y1.0708  
G01 X-1.5321 Y1.1292  
G01 X-1.5309 Y1.1354  
G01 X-1.5285 Y1.1412  
G01 X-1.5250 Y1.1465  
G01 X-1.5205 Y1.1510  
G01 X-1.5152 Y1.1545  
G01 X-1.5094 Y1.1569  
G01 X-1.5032 Y1.1581  
G01 X-1.4968 Y1.1581  
G01 X-1.4906 Y1.1569  
G01 X-1.4848 Y1.1545  
G01 X-1.4795 Y1.1510  
G01 X-1.4750 Y1.1465  
G01 X-1.4715 Y1.1412  
G01 X-1.4691 Y1.1354  
G01 X-1.4679 Y1.1292  
G01 X-1.4679 Y1.1221  
G01 X-1.1471 Y1.1221  
G01 X-1.1415 Y1.1206  
G01 X-1.1364 Y1.1177  
G01 X-1.1323 Y1.1136  
G01 X-1.1294 Y1.1085  
G01 X-1.1279 Y1.1029  
G01 X-1.1279 Y0.9733  
G01 X-1.1179 Y0.9633  
G01 X-1.1179 Y0.9367  
G00 Z0.1000  
G00 X-1.3240 Y0.9290  
G01 Z-0.0021 F10    
G01 X-1.3250 Y0.9267  F20    
G01 X-1.3267 Y0.9250  
G01 X-1.3279 Y0.9245  
G01 X-1.3279 Y0.7971  
G01 X-1.3294 Y0.7915  
G01 X-1.3323 Y0.7864  
G01 X-1.3364 Y0.7823  
G01 X-1.3415 Y0.7794  
G01 X-1.3471 Y0.7779  
G01 X-1.3695 Y0.7779  
G01 X-1.3708 Y0.7760  
G01 X-1.3760 Y0.7708  
G01 X-1.3822 Y0.7666  
G01 X-1.3890 Y0.7638  
G01 X-1.3963 Y0.7624  
G01 X-1.4037 Y0.7624  
G01 X-1.4110 Y0.7638  
G01 X-1.4178 Y0.7666  
G01 X-1.4240 Y0.7708  
G01 X-1.4292 Y0.7760  
G01 X-1.4334 Y0.7822  
G01 X-1.4362 Y0.7890  
G01 X-1.4376 Y0.7963  
G01 X-1.4376 Y0.8037  
G01 X-1.4362 Y0.8110  
G01 X-1.4334 Y0.8178  
G01 X-1.4292 Y0.8240  
G01 X-1.4240 Y0.8292  
G01 X-1.4178 Y0.8334  
G01 X-1.4110 Y0.8362  
G01 X-1.4037 Y0.8376  
G01 X-1.3963 Y0.8376  
G01 X-1.3890 Y0.8362  
G01 X-1.3822 Y0.8334  
G01 X-1.3760 Y0.8292  
G01 X-1.3721 Y0.8254  
G01 X-1.3721 Y0.9245  
G01 X-1.3733 Y0.9250  
G01 X-1.3750 Y0.9267  
G01 X-1.3760 Y0.9290  
G01 X-1.3760 Y0.9710  
G01 X-1.3750 Y0.9733  
G01 X-1.3733 Y0.9750  
G01 X-1.3710 Y0.9760  
G01 X-1.3290 Y0.9760  
G01 X-1.3267 Y0.9750  
G01 X-1.3250 Y0.9733  
G01 X-1.3240 Y0.9710  
G01 X-1.3240 Y0.9290  
G00 Z0.1000  
G00 X-1.6179 Y0.9367  
G01 Z-0.0021 F10    
G01 X-1.6367 Y0.9179  F20    
G01 X-1.6633 Y0.9179  
G01 X-1.6671 Y0.9217  
G01 X-1.8981 Y0.9679  
G01 X-1.9133 Y0.9679  
G01 X-1.9321 Y0.9867  
G01 X-1.9321 Y1.0133  
G01 X-1.9133 Y1.0321  
G01 X-1.8867 Y1.0321  
G01 X-1.8829 Y1.0283  
G01 X-1.6811 Y0.9880  
G01 X-1.6811 Y1.0658  
G01 X-1.6821 Y1.0708  
G01 X-1.6821 Y1.1292  
G01 X-1.6809 Y1.1354  
G01 X-1.6785 Y1.1412  
G01 X-1.6750 Y1.1465  
G01 X-1.6705 Y1.1510  
G01 X-1.6652 Y1.1545  
G01 X-1.6594 Y1.1569  
G01 X-1.6532 Y1.1581  
G01 X-1.6468 Y1.1581  
G01 X-1.6406 Y1.1569  
G01 X-1.6348 Y1.1545  
G01 X-1.6295 Y1.1510  
G01 X-1.6250 Y1.1465  
G01 X-1.6215 Y1.1412  
G01 X-1.6191 Y1.1354  
G01 X-1.6179 Y1.1292  
G01 X-1.6179 Y1.0708  
G01 X-1.6189 Y1.0658  
G01 X-1.6189 Y0.9643  
G01 X-1.6179 Y0.9633  
G01 X-1.6179 Y0.9367  
G00 Z0.1000  
G00 X-1.6301 Y0.7242  
G01 Z-0.0021 F10    
G01 X-1.6258 Y0.7199  F20    
G01 X-1.6224 Y0.7148  
G01 X-1.6200 Y0.7091  
G01 X-1.6189 Y0.7031  
G01 X-1.6189 Y0.5643  
G01 X-1.6179 Y0.5633  
G01 X-1.6179 Y0.5367  
G01 X-1.6189 Y0.5357  
G01 X-1.6189 Y0.4811  
G01 X-1.5143 Y0.4811  
G01 X-1.5133 Y0.4821  
G01 X-1.4867 Y0.4821  
G01 X-1.4679 Y0.4633  
G01 X-1.4679 Y0.4367  
G01 X-1.4867 Y0.4179  
G01 X-1.5133 Y0.4179  
G01 X-1.5143 Y0.4189  
G01 X-1.6531 Y0.4189  
G01 X-1.6591 Y0.4200  
G01 X-1.6648 Y0.4224  
G01 X-1.6699 Y0.4258  
G01 X-1.6742 Y0.4301  
G01 X-1.6776 Y0.4352  
G01 X-1.6800 Y0.4409  
G01 X-1.6811 Y0.4469  
G01 X-1.6811 Y0.5357  
G01 X-1.6821 Y0.5367  
G01 X-1.6821 Y0.5633  
G01 X-1.6811 Y0.5643  
G01 X-1.6811 Y0.6689  
G01 X-1.7639 Y0.6689  
G01 X-1.7639 Y0.6664  
G01 X-1.7652 Y0.6595  
G01 X-1.7680 Y0.6529  
G01 X-1.7719 Y0.6470  
G01 X-1.7770 Y0.6419  
G01 X-1.7829 Y0.6380  
G01 X-1.7895 Y0.6352  
G01 X-1.7964 Y0.6339  
G01 X-1.8036 Y0.6339  
G01 X-1.8105 Y0.6352  
G01 X-1.8171 Y0.6380  
G01 X-1.8230 Y0.6419  
G01 X-1.8281 Y0.6470  
G01 X-1.8320 Y0.6529  
G01 X-1.8348 Y0.6595  
G01 X-1.8361 Y0.6664  
G01 X-1.8361 Y0.7336  
G01 X-1.8348 Y0.7405  
G01 X-1.8320 Y0.7471  
G01 X-1.8281 Y0.7530  
G01 X-1.8230 Y0.7581  
G01 X-1.8171 Y0.7620  
G01 X-1.8105 Y0.7648  
G01 X-1.8036 Y0.7661  
G01 X-1.7964 Y0.7661  
G01 X-1.7895 Y0.7648  
G01 X-1.7829 Y0.7620  
G01 X-1.7770 Y0.7581  
G01 X-1.7719 Y0.7530  
G01 X-1.7680 Y0.7471  
G01 X-1.7652 Y0.7405  
G01 X-1.7639 Y0.7336  
G01 X-1.7639 Y0.7311  
G01 X-1.6469 Y0.7311  
G01 X-1.6409 Y0.7300  
G01 X-1.6352 Y0.7276  
G01 X-1.6301 Y0.7242  
G00 Z0.1000  
G00 X-1.8639 Y0.7336  
G01 Z-0.0021 F10    
G01 X-1.8639 Y0.6664  F20    
G01 X-1.8652 Y0.6595  
G01 X-1.8680 Y0.6529  
G01 X-1.8689 Y0.6516  
G01 X-1.8689 Y0.5811  
G01 X-1.8143 Y0.5811  
G01 X-1.8133 Y0.5821  
G01 X-1.7867 Y0.5821  
G01 X-1.7679 Y0.5633  
G01 X-1.7679 Y0.5367  
G01 X-1.7867 Y0.5179  
G01 X-1.8133 Y0.5179  
G01 X-1.8143 Y0.5189  
G01 X-1.9031 Y0.5189  
G01 X-1.9091 Y0.5200  
G01 X-1.9148 Y0.5224  
G01 X-1.9199 Y0.5258  
G01 X-1.9242 Y0.5301  
G01 X-1.9276 Y0.5352  
G01 X-1.9300 Y0.5409  
G01 X-1.9311 Y0.5469  
G01 X-1.9311 Y0.6516  
G01 X-1.9320 Y0.6529  
G01 X-1.9348 Y0.6595  
G01 X-1.9361 Y0.6664  
G01 X-1.9361 Y0.7336  
G01 X-1.9348 Y0.7405  
G01 X-1.9320 Y0.7471  
G01 X-1.9281 Y0.7530  
G01 X-1.9230 Y0.7581  
G01 X-1.9171 Y0.7620  
G01 X-1.9105 Y0.7648  
G01 X-1.9036 Y0.7661  
G01 X-1.8964 Y0.7661  
G01 X-1.8895 Y0.7648  
G01 X-1.8829 Y0.7620  
G01 X-1.8770 Y0.7581  
G01 X-1.8719 Y0.7530  
G01 X-1.8680 Y0.7471  
G01 X-1.8652 Y0.7405  
G01 X-1.8639 Y0.7336  
G00 Z0.1000  
G00 X-1.9639 Y0.7336  
G01 Z-0.0021 F10    
G01 X-1.9639 Y0.6664  F20    
G01 X-1.9652 Y0.6595  
G01 X-1.9680 Y0.6529  
G01 X-1.9719 Y0.6470  
G01 X-1.9770 Y0.6419  
G01 X-1.9829 Y0.6380  
G01 X-1.9895 Y0.6352  
G01 X-1.9964 Y0.6339  
G01 X-2.0036 Y0.6339  
G01 X-2.0105 Y0.6352  
G01 X-2.0171 Y0.6380  
G01 X-2.0230 Y0.6419  
G01 X-2.0281 Y0.6470  
G01 X-2.0320 Y0.6529  
G01 X-2.0348 Y0.6595  
G01 X-2.0361 Y0.6664  
G01 X-2.0361 Y0.7336  
G01 X-2.0348 Y0.7405  
G01 X-2.0320 Y0.7471  
G01 X-2.0311 Y0.7484  
G01 X-2.0311 Y0.8871  
G01 X-2.1119 Y0.9679  
G01 X-2.1133 Y0.9679  
G01 X-2.1321 Y0.9867  
G01 X-2.1321 Y1.0133  
G01 X-2.1133 Y1.0321  
G01 X-2.0867 Y1.0321  
G01 X-2.0679 Y1.0133  
G01 X-2.0679 Y1.0119  
G01 X-1.9871 Y0.9311  
G01 X-1.9143 Y0.9311  
G01 X-1.9133 Y0.9321  
G01 X-1.8867 Y0.9321  
G01 X-1.8679 Y0.9133  
G01 X-1.8679 Y0.8867  
G01 X-1.8867 Y0.8679  
G01 X-1.9133 Y0.8679  
G01 X-1.9143 Y0.8689  
G01 X-1.9689 Y0.8689  
G01 X-1.9689 Y0.7484  
G01 X-1.9680 Y0.7471  
G01 X-1.9652 Y0.7405  
G01 X-1.9639 Y0.7336  
G00 Z0.1000  
G00 X-1.9710 Y1.1240  
G01 Z-0.0021 F10    
G01 X-1.9733 Y1.1250  F20    
G01 X-1.9750 Y1.1267  
G01 X-1.9760 Y1.1290  
G01 X-1.9760 Y1.1465  
G01 X-1.9761 Y1.1474  
G01 X-1.9761 Y1.1526  
G01 X-1.9760 Y1.1535  
G01 X-1.9760 Y1.1710  
G01 X-1.9750 Y1.1733  
G01 X-1.9733 Y1.1750  
G01 X-1.9710 Y1.1760  
G01 X-1.9535 Y1.1760  
G01 X-1.9526 Y1.1761  
G01 X-1.8108 Y1.1761  
G01 X-1.7167 Y1.2703  
G01 X-1.7124 Y1.2732  
G01 X-1.7076 Y1.2751  
G01 X-1.7026 Y1.2761  
G01 X-1.1761 Y1.2761  
G01 X-1.1761 Y1.3307  
G01 X-1.1821 Y1.3367  
G01 X-1.1821 Y1.3633  
G01 X-1.1761 Y1.3693  
G01 X-1.1761 Y1.4553  
G01 X-1.1785 Y1.4588  
G01 X-1.1809 Y1.4646  
G01 X-1.1821 Y1.4708  
G01 X-1.1821 Y1.5292  
G01 X-1.1809 Y1.5354  
G01 X-1.1785 Y1.5412  
G01 X-1.1750 Y1.5465  
G01 X-1.1705 Y1.5510  
G01 X-1.1652 Y1.5545  
G01 X-1.1594 Y1.5569  
G01 X-1.1532 Y1.5581  
G01 X-1.1468 Y1.5581  
G01 X-1.1406 Y1.5569  
G01 X-1.1348 Y1.5545  
G01 X-1.1295 Y1.5510  
G01 X-1.1250 Y1.5465  
G01 X-1.1215 Y1.5412  
G01 X-1.1191 Y1.5354  
G01 X-1.1179 Y1.5292  
G01 X-1.1179 Y1.4708  
G01 X-1.1191 Y1.4646  
G01 X-1.1215 Y1.4588  
G01 X-1.1239 Y1.4553  
G01 X-1.1239 Y1.3693  
G01 X-1.1179 Y1.3633  
G01 X-1.1179 Y1.3367  
G01 X-1.1239 Y1.3307  
G01 X-1.1239 Y1.2474  
G01 X-1.1249 Y1.2424  
G01 X-1.1268 Y1.2376  
G01 X-1.1297 Y1.2333  
G01 X-1.1333 Y1.2297  
G01 X-1.1376 Y1.2268  
G01 X-1.1424 Y1.2249  
G01 X-1.1474 Y1.2239  
G01 X-1.6892 Y1.2239  
G01 X-1.7797 Y1.1333  
G01 X-1.7833 Y1.1297  
G01 X-1.7876 Y1.1268  
G01 X-1.7924 Y1.1249  
G01 X-1.7974 Y1.1239  
G01 X-1.9526 Y1.1239  
G01 X-1.9535 Y1.1240  
G01 X-1.9710 Y1.1240  
G00 Z0.1000  
G00 X-1.8974 Y1.2239  
G01 Z-0.0021 F10    
G01 X-2.2026 Y1.2239  F20    
G01 X-2.2076 Y1.2249  
G01 X-2.2124 Y1.2268  
G01 X-2.2167 Y1.2297  
G01 X-2.2203 Y1.2333  
G01 X-2.2232 Y1.2376  
G01 X-2.2251 Y1.2424  
G01 X-2.2261 Y1.2474  
G01 X-2.2261 Y1.3450  
G01 X-2.2281 Y1.3470  
G01 X-2.2320 Y1.3529  
G01 X-2.2348 Y1.3595  
G01 X-2.2361 Y1.3664  
G01 X-2.2361 Y1.4336  
G01 X-2.2348 Y1.4405  
G01 X-2.2320 Y1.4471  
G01 X-2.2281 Y1.4530  
G01 X-2.2261 Y1.4550  
G01 X-2.2261 Y1.5739  
G01 X-2.3307 Y1.5739  
G01 X-2.3367 Y1.5679  
G01 X-2.3633 Y1.5679  
G01 X-2.3821 Y1.5867  
G01 X-2.3821 Y1.6133  
G01 X-2.3633 Y1.6321  
G01 X-2.3367 Y1.6321  
G01 X-2.3307 Y1.6261  
G01 X-2.2761 Y1.6261  
G01 X-2.2761 Y1.7807  
G01 X-2.2821 Y1.7867  
G01 X-2.2821 Y1.8133  
G01 X-2.2633 Y1.8321  
G01 X-2.2367 Y1.8321  
G01 X-2.2179 Y1.8133  
G01 X-2.2179 Y1.7867  
G01 X-2.2239 Y1.7807  
G01 X-2.2239 Y1.6261  
G01 X-2.1974 Y1.6261  
G01 X-2.1924 Y1.6251  
G01 X-2.1876 Y1.6232  
G01 X-2.1833 Y1.6203  
G01 X-2.1797 Y1.6167  
G01 X-2.1768 Y1.6124  
G01 X-2.1749 Y1.6076  
G01 X-2.1739 Y1.6026  
G01 X-2.1739 Y1.4550  
G01 X-2.1719 Y1.4530  
G01 X-2.1680 Y1.4471  
G01 X-2.1652 Y1.4405  
G01 X-2.1639 Y1.4336  
G01 X-2.1639 Y1.3664  
G01 X-2.1652 Y1.3595  
G01 X-2.1680 Y1.3529  
G01 X-2.1719 Y1.3470  
G01 X-2.1739 Y1.3450  
G01 X-2.1739 Y1.2761  
G01 X-1.9108 Y1.2761  
G01 X-1.8167 Y1.3703  
G01 X-1.8124 Y1.3732  
G01 X-1.8076 Y1.3751  
G01 X-1.8026 Y1.3761  
G01 X-1.2761 Y1.3761  
G01 X-1.2761 Y1.4553  
G01 X-1.2785 Y1.4588  
G01 X-1.2809 Y1.4646  
G01 X-1.2821 Y1.4708  
G01 X-1.2821 Y1.5292  
G01 X-1.2809 Y1.5354  
G01 X-1.2785 Y1.5412  
G01 X-1.2750 Y1.5465  
G01 X-1.2705 Y1.5510  
G01 X-1.2652 Y1.5545  
G01 X-1.2594 Y1.5569  
G01 X-1.2532 Y1.5581  
G01 X-1.2468 Y1.5581  
G01 X-1.2406 Y1.5569  
G01 X-1.2348 Y1.5545  
G01 X-1.2295 Y1.5510  
G01 X-1.2250 Y1.5465  
G01 X-1.2215 Y1.5412  
G01 X-1.2191 Y1.5354  
G01 X-1.2179 Y1.5292  
G01 X-1.2179 Y1.4708  
G01 X-1.2191 Y1.4646  
G01 X-1.2215 Y1.4588  
G01 X-1.2239 Y1.4553  
G01 X-1.2239 Y1.3693  
G01 X-1.2179 Y1.3633  
G01 X-1.2179 Y1.3367  
G01 X-1.2367 Y1.3179  
G01 X-1.2633 Y1.3179  
G01 X-1.2693 Y1.3239  
G01 X-1.7892 Y1.3239  
G01 X-1.8797 Y1.2333  
G01 X-1.8833 Y1.2297  
G01 X-1.8876 Y1.2268  
G01 X-1.8924 Y1.2249  
G01 X-1.8974 Y1.2239  
G00 Z0.1000  
G00 X-1.9250 Y1.3767  
G01 Z-0.0021 F10    
G01 X-1.9267 Y1.3750  F20    
G01 X-1.9290 Y1.3740  
G01 X-1.9465 Y1.3740  
G01 X-1.9474 Y1.3739  
G01 X-2.0639 Y1.3739  
G01 X-2.0639 Y1.3664  
G01 X-2.0652 Y1.3595  
G01 X-2.0680 Y1.3529  
G01 X-2.0719 Y1.3470  
G01 X-2.0770 Y1.3419  
G01 X-2.0829 Y1.3380  
G01 X-2.0895 Y1.3352  
G01 X-2.0964 Y1.3339  
G01 X-2.1036 Y1.3339  
G01 X-2.1105 Y1.3352  
G01 X-2.1171 Y1.3380  
G01 X-2.1230 Y1.3419  
G01 X-2.1281 Y1.3470  
G01 X-2.1320 Y1.3529  
G01 X-2.1348 Y1.3595  
G01 X-2.1361 Y1.3664  
G01 X-2.1361 Y1.4336  
G01 X-2.1348 Y1.4405  
G01 X-2.1320 Y1.4471  
G01 X-2.1281 Y1.4530  
G01 X-2.1230 Y1.4581  
G01 X-2.1171 Y1.4620  
G01 X-2.1105 Y1.4648  
G01 X-2.1036 Y1.4661  
G01 X-2.0964 Y1.4661  
G01 X-2.0895 Y1.4648  
G01 X-2.0829 Y1.4620  
G01 X-2.0770 Y1.4581  
G01 X-2.0719 Y1.4530  
G01 X-2.0680 Y1.4471  
G01 X-2.0652 Y1.4405  
G01 X-2.0639 Y1.4336  
G01 X-2.0639 Y1.4261  
G01 X-1.9761 Y1.4261  
G01 X-1.9761 Y1.5739  
G01 X-2.0526 Y1.5739  
G01 X-2.0576 Y1.5749  
G01 X-2.0624 Y1.5768  
G01 X-2.0667 Y1.5797  
G01 X-2.0703 Y1.5833  
G01 X-2.0732 Y1.5876  
G01 X-2.0751 Y1.5924  
G01 X-2.0761 Y1.5974  
G01 X-2.0761 Y1.7807  
G01 X-2.0821 Y1.7867  
G01 X-2.0821 Y1.8133  
G01 X-2.0633 Y1.8321  
G01 X-2.0367 Y1.8321  
G01 X-2.0179 Y1.8133  
G01 X-2.0179 Y1.7867  
G01 X-2.0239 Y1.7807  
G01 X-2.0239 Y1.6261  
G01 X-1.9693 Y1.6261  
G01 X-1.9633 Y1.6321  
G01 X-1.9367 Y1.6321  
G01 X-1.9179 Y1.6133  
G01 X-1.9179 Y1.5867  
G01 X-1.9239 Y1.5807  
G01 X-1.9239 Y1.3974  
G01 X-1.9240 Y1.3965  
G01 X-1.9240 Y1.3790  
G01 X-1.9250 Y1.3767  
G00 Z0.1000  
G00 X-1.8133 Y1.4679  
G01 Z-0.0021 F10    
G01 X-1.8321 Y1.4867  F20    
G01 X-1.8321 Y1.5133  
G01 X-1.8261 Y1.5193  
G01 X-1.8261 Y1.6739  
G01 X-1.9526 Y1.6739  
G01 X-1.9576 Y1.6749  
G01 X-1.9624 Y1.6768  
G01 X-1.9667 Y1.6797  
G01 X-1.9703 Y1.6833  
G01 X-1.9732 Y1.6876  
G01 X-1.9751 Y1.6924  
G01 X-1.9761 Y1.6974  
G01 X-1.9761 Y1.8739  
G01 X-2.0307 Y1.8739  
G01 X-2.0367 Y1.8679  
G01 X-2.0633 Y1.8679  
G01 X-2.0693 Y1.8739  
G01 X-2.2307 Y1.8739  
G01 X-2.2367 Y1.8679  
G01 X-2.2633 Y1.8679  
G01 X-2.2821 Y1.8867  
G01 X-2.2821 Y1.9133  
G01 X-2.2633 Y1.9321  
G01 X-2.2367 Y1.9321  
G01 X-2.2307 Y1.9261  
G01 X-2.0693 Y1.9261  
G01 X-2.0633 Y1.9321  
G01 X-2.0367 Y1.9321  
G01 X-2.0307 Y1.9261  
G01 X-1.9474 Y1.9261  
G01 X-1.9424 Y1.9251  
G01 X-1.9376 Y1.9232  
G01 X-1.9333 Y1.9203  
G01 X-1.9297 Y1.9167  
G01 X-1.9268 Y1.9124  
G01 X-1.9249 Y1.9076  
G01 X-1.9239 Y1.9026  
G01 X-1.9239 Y1.7261  
G01 X-1.7974 Y1.7261  
G01 X-1.7924 Y1.7251  
G01 X-1.7876 Y1.7232  
G01 X-1.7833 Y1.7203  
G01 X-1.7797 Y1.7167  
G01 X-1.7768 Y1.7124  
G01 X-1.7749 Y1.7076  
G01 X-1.7739 Y1.7026  
G01 X-1.7739 Y1.5193  
G01 X-1.7679 Y1.5133  
G01 X-1.7679 Y1.4867  
G01 X-1.7867 Y1.4679  
G01 X-1.8133 Y1.4679  
G00 Z0.1000  
G00 X-1.6821 Y1.4708  
G01 Z-0.0021 F10    
G01 X-1.6821 Y1.5292  F20    
G01 X-1.6809 Y1.5354  
G01 X-1.6785 Y1.5412  
G01 X-1.6750 Y1.5465  
G01 X-1.6705 Y1.5510  
G01 X-1.6652 Y1.5545  
G01 X-1.6594 Y1.5569  
G01 X-1.6532 Y1.5581  
G01 X-1.6468 Y1.5581  
G01 X-1.6406 Y1.5569  
G01 X-1.6348 Y1.5545  
G01 X-1.6295 Y1.5510  
G01 X-1.6250 Y1.5465  
G01 X-1.6215 Y1.5412  
G01 X-1.6191 Y1.5354  
G01 X-1.6182 Y1.5311  
G01 X-1.5318 Y1.5311  
G01 X-1.5311 Y1.5342  
G01 X-1.5311 Y1.9658  
G01 X-1.5321 Y1.9708  
G01 X-1.5321 Y2.0292  
G01 X-1.5309 Y2.0354  
G01 X-1.5285 Y2.0412  
G01 X-1.5250 Y2.0465  
G01 X-1.5205 Y2.0510  
G01 X-1.5152 Y2.0545  
G01 X-1.5094 Y2.0569  
G01 X-1.5032 Y2.0581  
G01 X-1.4968 Y2.0581  
G01 X-1.4906 Y2.0569  
G01 X-1.4848 Y2.0545  
G01 X-1.4795 Y2.0510  
G01 X-1.4750 Y2.0465  
G01 X-1.4715 Y2.0412  
G01 X-1.4691 Y2.0354  
G01 X-1.4679 Y2.0292  
G01 X-1.4679 Y1.9708  
G01 X-1.4689 Y1.9658  
G01 X-1.4689 Y1.8311  
G01 X-1.3818 Y1.8311  
G01 X-1.3809 Y1.8354  
G01 X-1.3785 Y1.8412  
G01 X-1.3750 Y1.8465  
G01 X-1.3705 Y1.8510  
G01 X-1.3652 Y1.8545  
G01 X-1.3594 Y1.8569  
G01 X-1.3532 Y1.8581  
G01 X-1.3468 Y1.8581  
G01 X-1.3406 Y1.8569  
G01 X-1.3348 Y1.8545  
G01 X-1.3295 Y1.8510  
G01 X-1.3250 Y1.8465  
G01 X-1.3215 Y1.8412  
G01 X-1.3191 Y1.8354  
G01 X-1.3179 Y1.8292  
G01 X-1.3179 Y1.7708  
G01 X-1.3191 Y1.7646  
G01 X-1.3215 Y1.7588  
G01 X-1.3250 Y1.7535  
G01 X-1.3295 Y1.7490  
G01 X-1.3348 Y1.7455  
G01 X-1.3406 Y1.7431  
G01 X-1.3468 Y1.7419  
G01 X-1.3532 Y1.7419  
G01 X-1.3594 Y1.7431  
G01 X-1.3652 Y1.7455  
G01 X-1.3705 Y1.7490  
G01 X-1.3750 Y1.7535  
G01 X-1.3785 Y1.7588  
G01 X-1.3809 Y1.7646  
G01 X-1.3818 Y1.7689  
G01 X-1.4689 Y1.7689  
G01 X-1.4689 Y1.5342  
G01 X-1.4679 Y1.5292  
G01 X-1.4679 Y1.4708  
G01 X-1.4691 Y1.4646  
G01 X-1.4715 Y1.4588  
G01 X-1.4750 Y1.4535  
G01 X-1.4795 Y1.4490  
G01 X-1.4848 Y1.4455  
G01 X-1.4906 Y1.4431  
G01 X-1.4968 Y1.4419  
G01 X-1.5032 Y1.4419  
G01 X-1.5094 Y1.4431  
G01 X-1.5152 Y1.4455  
G01 X-1.5205 Y1.4490  
G01 X-1.5250 Y1.4535  
G01 X-1.5285 Y1.4588  
G01 X-1.5309 Y1.4646  
G01 X-1.5318 Y1.4689  
G01 X-1.6182 Y1.4689  
G01 X-1.6191 Y1.4646  
G01 X-1.6215 Y1.4588  
G01 X-1.6250 Y1.4535  
G01 X-1.6295 Y1.4490  
G01 X-1.6348 Y1.4455  
G01 X-1.6406 Y1.4431  
G01 X-1.6468 Y1.4419  
G01 X-1.6532 Y1.4419  
G01 X-1.6594 Y1.4431  
G01 X-1.6652 Y1.4455  
G01 X-1.6705 Y1.4490  
G01 X-1.6750 Y1.4535  
G01 X-1.6785 Y1.4588  
G01 X-1.6809 Y1.4646  
G01 X-1.6821 Y1.4708  
G00 Z0.1000  
G00 X-1.3821 Y1.4708  
G01 Z-0.0021 F10    
G01 X-1.3821 Y1.5292  F20    
G01 X-1.3809 Y1.5354  
G01 X-1.3785 Y1.5412  
G01 X-1.3750 Y1.5465  
G01 X-1.3721 Y1.5493  
G01 X-1.3721 Y1.6529  
G01 X-1.3706 Y1.6585  
G01 X-1.3677 Y1.6636  
G01 X-1.3636 Y1.6677  
G01 X-1.3585 Y1.6706  
G01 X-1.3529 Y1.6721  
G01 X-1.2141 Y1.6721  
G01 X-1.2141 Y1.9687  
G01 X-1.2321 Y1.9867  
G01 X-1.2321 Y2.0133  
G01 X-1.2133 Y2.0321  
G01 X-1.1867 Y2.0321  
G01 X-1.1679 Y2.0133  
G01 X-1.1679 Y1.9867  
G01 X-1.1859 Y1.9687  
G01 X-1.1859 Y1.6721  
G01 X-0.9007 Y1.6721  
G01 X-0.8984 Y1.6723  
G01 X-0.8978 Y1.6721  
G01 X-0.8971 Y1.6721  
G01 X-0.8949 Y1.6716  
G01 X-0.8927 Y1.6711  
G01 X-0.8921 Y1.6708  
G01 X-0.8915 Y1.6706  
G01 X-0.8895 Y1.6695  
G01 X-0.8138 Y1.6317  
G01 X-0.8133 Y1.6321  
G01 X-0.7867 Y1.6321  
G01 X-0.7807 Y1.6261  
G01 X-0.6474 Y1.6261  
G01 X-0.6424 Y1.6251  
G01 X-0.6376 Y1.6232  
G01 X-0.6333 Y1.6203  
G01 X-0.6297 Y1.6167  
G01 X-0.6268 Y1.6124  
G01 X-0.6249 Y1.6076  
G01 X-0.6239 Y1.6026  
G01 X-0.6239 Y1.4271  
G01 X-0.6208 Y1.4240  
G01 X-0.6166 Y1.4178  
G01 X-0.6138 Y1.4110  
G01 X-0.6124 Y1.4037  
G01 X-0.6124 Y1.3963  
G01 X-0.6138 Y1.3890  
G01 X-0.6166 Y1.3822  
G01 X-0.6208 Y1.3760  
G01 X-0.6260 Y1.3708  
G01 X-0.6322 Y1.3666  
G01 X-0.6390 Y1.3638  
G01 X-0.6463 Y1.3624  
G01 X-0.6537 Y1.3624  
G01 X-0.6610 Y1.3638  
G01 X-0.6678 Y1.3666  
G01 X-0.6740 Y1.3708  
G01 X-0.6792 Y1.3760  
G01 X-0.6834 Y1.3822  
G01 X-0.6862 Y1.3890  
G01 X-0.6876 Y1.3963  
G01 X-0.6876 Y1.4037  
G01 X-0.6862 Y1.4110  
G01 X-0.6834 Y1.4178  
G01 X-0.6792 Y1.4240  
G01 X-0.6761 Y1.4271  
G01 X-0.6761 Y1.5739  
G01 X-0.7807 Y1.5739  
G01 X-0.7867 Y1.5679  
G01 X-0.8133 Y1.5679  
G01 X-0.8321 Y1.5867  
G01 X-0.8321 Y1.5913  
G01 X-0.9052 Y1.6279  
G01 X-1.3279 Y1.6279  
G01 X-1.3279 Y1.5493  
G01 X-1.3250 Y1.5465  
G01 X-1.3215 Y1.5412  
G01 X-1.3191 Y1.5354  
G01 X-1.3179 Y1.5292  
G01 X-1.3179 Y1.4708  
G01 X-1.3191 Y1.4646  
G01 X-1.3215 Y1.4588  
G01 X-1.3250 Y1.4535  
G01 X-1.3295 Y1.4490  
G01 X-1.3348 Y1.4455  
G01 X-1.3406 Y1.4431  
G01 X-1.3468 Y1.4419  
G01 X-1.3532 Y1.4419  
G01 X-1.3594 Y1.4431  
G01 X-1.3652 Y1.4455  
G01 X-1.3705 Y1.4490  
G01 X-1.3750 Y1.4535  
G01 X-1.3785 Y1.4588  
G01 X-1.3809 Y1.4646  
G01 X-1.3821 Y1.4708  
G00 Z0.1000  
G00 X-1.0821 Y1.4708  
G01 Z-0.0021 F10    
G01 X-1.0821 Y1.5292  F20    
G01 X-1.0809 Y1.5354  
G01 X-1.0785 Y1.5412  
G01 X-1.0750 Y1.5465  
G01 X-1.0705 Y1.5510  
G01 X-1.0652 Y1.5545  
G01 X-1.0594 Y1.5569  
G01 X-1.0532 Y1.5581  
G01 X-1.0468 Y1.5581  
G01 X-1.0406 Y1.5569  
G01 X-1.0348 Y1.5545  
G01 X-1.0295 Y1.5510  
G01 X-1.0250 Y1.5465  
G01 X-1.0215 Y1.5412  
G01 X-1.0191 Y1.5354  
G01 X-1.0179 Y1.5292  
G01 X-1.0179 Y1.5261  
G01 X-0.8974 Y1.5261  
G01 X-0.8924 Y1.5251  
G01 X-0.8876 Y1.5232  
G01 X-0.8833 Y1.5203  
G01 X-0.8797 Y1.5167  
G01 X-0.8768 Y1.5124  
G01 X-0.8749 Y1.5076  
G01 X-0.8739 Y1.5026  
G01 X-0.8739 Y1.2861  
G01 X-0.8664 Y1.2861  
G01 X-0.8595 Y1.2848  
G01 X-0.8529 Y1.2820  
G01 X-0.8470 Y1.2781  
G01 X-0.8450 Y1.2761  
G01 X-0.7693 Y1.2761  
G01 X-0.7633 Y1.2821  
G01 X-0.7367 Y1.2821  
G01 X-0.7179 Y1.2633  
G01 X-0.7179 Y1.2367  
G01 X-0.7367 Y1.2179  
G01 X-0.7633 Y1.2179  
G01 X-0.7693 Y1.2239  
G01 X-0.8450 Y1.2239  
G01 X-0.8470 Y1.2219  
G01 X-0.8529 Y1.2180  
G01 X-0.8595 Y1.2152  
G01 X-0.8664 Y1.2139  
G01 X-0.9336 Y1.2139  
G01 X-0.9405 Y1.2152  
G01 X-0.9471 Y1.2180  
G01 X-0.9530 Y1.2219  
G01 X-0.9581 Y1.2270  
G01 X-0.9620 Y1.2329  
G01 X-0.9648 Y1.2395  
G01 X-0.9661 Y1.2464  
G01 X-0.9661 Y1.2536  
G01 X-0.9648 Y1.2605  
G01 X-0.9620 Y1.2671  
G01 X-0.9581 Y1.2730  
G01 X-0.9530 Y1.2781  
G01 X-0.9471 Y1.2820  
G01 X-0.9405 Y1.2848  
G01 X-0.9336 Y1.2861  
G01 X-0.9261 Y1.2861  
G01 X-0.9261 Y1.4739  
G01 X-1.0179 Y1.4739  
G01 X-1.0179 Y1.4708  
G01 X-1.0191 Y1.4646  
G01 X-1.0215 Y1.4588  
G01 X-1.0250 Y1.4535  
G01 X-1.0295 Y1.4490  
G01 X-1.0348 Y1.4455  
G01 X-1.0406 Y1.4431  
G01 X-1.0468 Y1.4419  
G01 X-1.0532 Y1.4419  
G01 X-1.0594 Y1.4431  
G01 X-1.0652 Y1.4455  
G01 X-1.0705 Y1.4490  
G01 X-1.0750 Y1.4535  
G01 X-1.0785 Y1.4588  
G01 X-1.0809 Y1.4646  
G01 X-1.0821 Y1.4708  
G00 Z0.1000  
G00 X-1.0705 Y1.7490  
G01 Z-0.0021 F10    
G01 X-1.0750 Y1.7535  F20    
G01 X-1.0785 Y1.7588  
G01 X-1.0809 Y1.7646  
G01 X-1.0821 Y1.7708  
G01 X-1.0821 Y1.8292  
G01 X-1.0809 Y1.8354  
G01 X-1.0785 Y1.8412  
G01 X-1.0750 Y1.8465  
G01 X-1.0705 Y1.8510  
G01 X-1.0652 Y1.8545  
G01 X-1.0594 Y1.8569  
G01 X-1.0532 Y1.8581  
G01 X-1.0468 Y1.8581  
G01 X-1.0406 Y1.8569  
G01 X-1.0348 Y1.8545  
G01 X-1.0295 Y1.8510  
G01 X-1.0250 Y1.8465  
G01 X-1.0215 Y1.8412  
G01 X-1.0191 Y1.8354  
G01 X-1.0179 Y1.8292  
G01 X-1.0179 Y1.8261  
G01 X-0.8261 Y1.8261  
G01 X-0.8261 Y1.9026  
G01 X-0.8251 Y1.9076  
G01 X-0.8232 Y1.9124  
G01 X-0.8203 Y1.9167  
G01 X-0.8167 Y1.9203  
G01 X-0.8124 Y1.9232  
G01 X-0.8076 Y1.9251  
G01 X-0.8026 Y1.9261  
G01 X-0.6771 Y1.9261  
G01 X-0.6656 Y1.9376  
G01 X-0.6344 Y1.9376  
G01 X-0.6124 Y1.9156  
G01 X-0.6124 Y1.8844  
G01 X-0.6344 Y1.8624  
G01 X-0.6656 Y1.8624  
G01 X-0.6771 Y1.8739  
G01 X-0.7739 Y1.8739  
G01 X-0.7739 Y1.7193  
G01 X-0.7679 Y1.7133  
G01 X-0.7679 Y1.6867  
G01 X-0.7867 Y1.6679  
G01 X-0.8133 Y1.6679  
G01 X-0.8321 Y1.6867  
G01 X-0.8321 Y1.7133  
G01 X-0.8261 Y1.7193  
G01 X-0.8261 Y1.7739  
G01 X-1.0179 Y1.7739  
G01 X-1.0179 Y1.7708  
G01 X-1.0191 Y1.7646  
G01 X-1.0215 Y1.7588  
G01 X-1.0250 Y1.7535  
G01 X-1.0295 Y1.7490  
G01 X-1.0348 Y1.7455  
G01 X-1.0406 Y1.7431  
G01 X-1.0468 Y1.7419  
G01 X-1.0532 Y1.7419  
G01 X-1.0594 Y1.7431  
G01 X-1.0652 Y1.7455  
G01 X-1.0705 Y1.7490  
G00 Z0.1000  
G00 X-1.1250 Y1.7535  
G01 Z-0.0021 F10    
G01 X-1.1295 Y1.7490  F20    
G01 X-1.1348 Y1.7455  
G01 X-1.1406 Y1.7431  
G01 X-1.1468 Y1.7419  
G01 X-1.1532 Y1.7419  
G01 X-1.1594 Y1.7431  
G01 X-1.1652 Y1.7455  
G01 X-1.1705 Y1.7490  
G01 X-1.1750 Y1.7535  
G01 X-1.1785 Y1.7588  
G01 X-1.1809 Y1.7646  
G01 X-1.1821 Y1.7708  
G01 X-1.1821 Y1.8292  
G01 X-1.1809 Y1.8354  
G01 X-1.1785 Y1.8412  
G01 X-1.1750 Y1.8465  
G01 X-1.1705 Y1.8510  
G01 X-1.1652 Y1.8545  
G01 X-1.1594 Y1.8569  
G01 X-1.1532 Y1.8581  
G01 X-1.1502 Y1.8581  
G01 X-1.1238 Y1.9109  
G01 X-1.1232 Y1.9124  
G01 X-1.1227 Y1.9132  
G01 X-1.1222 Y1.9140  
G01 X-1.1212 Y1.9153  
G01 X-1.1203 Y1.9167  
G01 X-1.1197 Y1.9173  
G01 X-1.1191 Y1.9181  
G01 X-1.1178 Y1.9191  
G01 X-1.0229 Y2.0141  
G01 X-0.9820 Y2.1366  
G01 X-0.9821 Y2.1367  
G01 X-0.9821 Y2.1633  
G01 X-0.9761 Y2.1693  
G01 X-0.9761 Y2.2307  
G01 X-0.9821 Y2.2367  
G01 X-0.9821 Y2.2633  
G01 X-0.9633 Y2.2821  
G01 X-0.9367 Y2.2821  
G01 X-0.9179 Y2.2633  
G01 X-0.9179 Y2.2367  
G01 X-0.9239 Y2.2307  
G01 X-0.9239 Y2.1693  
G01 X-0.9179 Y2.1633  
G01 X-0.9179 Y2.1367  
G01 X-0.9314 Y2.1231  
G01 X-0.9747 Y1.9933  
G01 X-0.9749 Y1.9924  
G01 X-0.9755 Y1.9909  
G01 X-0.9760 Y1.9893  
G01 X-0.9765 Y1.9885  
G01 X-0.9768 Y1.9876  
G01 X-0.9777 Y1.9862  
G01 X-0.9786 Y1.9848  
G01 X-0.9792 Y1.9841  
G01 X-0.9797 Y1.9833  
G01 X-0.9809 Y1.9822  
G01 X-0.9819 Y1.9809  
G01 X-0.9827 Y1.9803  
G01 X-1.0785 Y1.8845  
G01 X-1.1179 Y1.8058  
G01 X-1.1179 Y1.7708  
G01 X-1.1191 Y1.7646  
G01 X-1.1215 Y1.7588  
G01 X-1.1250 Y1.7535  
G00 Z0.1000  
G00 X-1.2250 Y1.7535  
G01 Z-0.0021 F10    
G01 X-1.2295 Y1.7490  F20    
G01 X-1.2348 Y1.7455  
G01 X-1.2406 Y1.7431  
G01 X-1.2468 Y1.7419  
G01 X-1.2532 Y1.7419  
G01 X-1.2594 Y1.7431  
G01 X-1.2652 Y1.7455  
G01 X-1.2705 Y1.7490  
G01 X-1.2750 Y1.7535  
G01 X-1.2785 Y1.7588  
G01 X-1.2809 Y1.7646  
G01 X-1.2821 Y1.7708  
G01 X-1.2821 Y1.8058  
G01 X-1.3632 Y1.9679  
G01 X-1.3633 Y1.9679  
G01 X-1.3821 Y1.9867  
G01 X-1.3821 Y2.0133  
G01 X-1.3633 Y2.0321  
G01 X-1.3367 Y2.0321  
G01 X-1.3179 Y2.0133  
G01 X-1.3179 Y1.9942  
G01 X-1.2498 Y1.8581  
G01 X-1.2468 Y1.8581  
G01 X-1.2406 Y1.8569  
G01 X-1.2348 Y1.8545  
G01 X-1.2295 Y1.8510  
G01 X-1.2250 Y1.8465  
G01 X-1.2215 Y1.8412  
G01 X-1.2191 Y1.8354  
G01 X-1.2179 Y1.8292  
G01 X-1.2179 Y1.7708  
G01 X-1.2191 Y1.7646  
G01 X-1.2215 Y1.7588  
G01 X-1.2250 Y1.7535  
G00 Z0.1000  
G00 X-1.2133 Y2.3679  
G01 Z-0.0021 F10    
G01 X-1.2321 Y2.3867  F20    
G01 X-1.2321 Y2.4133  
G01 X-1.2261 Y2.4193  
G01 X-1.2261 Y2.4950  
G01 X-1.2281 Y2.4970  
G01 X-1.2320 Y2.5029  
G01 X-1.2348 Y2.5095  
G01 X-1.2361 Y2.5164  
G01 X-1.2361 Y2.5836  
G01 X-1.2348 Y2.5905  
G01 X-1.2320 Y2.5971  
G01 X-1.2281 Y2.6030  
G01 X-1.2230 Y2.6081  
G01 X-1.2171 Y2.6120  
G01 X-1.2105 Y2.6148  
G01 X-1.2036 Y2.6161  
G01 X-1.1964 Y2.6161  
G01 X-1.1895 Y2.6148  
G01 X-1.1829 Y2.6120  
G01 X-1.1770 Y2.6081  
G01 X-1.1719 Y2.6030  
G01 X-1.1680 Y2.5971  
G01 X-1.1652 Y2.5905  
G01 X-1.1639 Y2.5836  
G01 X-1.1639 Y2.5164  
G01 X-1.1652 Y2.5095  
G01 X-1.1680 Y2.5029  
G01 X-1.1719 Y2.4970  
G01 X-1.1739 Y2.4950  
G01 X-1.1739 Y2.4193  
G01 X-1.1679 Y2.4133  
G01 X-1.1679 Y2.3867  
G01 X-1.1867 Y2.3679  
G01 X-1.2133 Y2.3679  
G00 Z0.1000  
G00 X-1.2797 Y2.3833  
G01 Z-0.0021 F10    
G01 X-1.2833 Y2.3797  F20    
G01 X-1.2876 Y2.3768  
G01 X-1.2924 Y2.3749  
G01 X-1.2974 Y2.3739  
G01 X-1.3307 Y2.3739  
G01 X-1.3367 Y2.3679  
G01 X-1.3633 Y2.3679  
G01 X-1.3821 Y2.3867  
G01 X-1.3821 Y2.4133  
G01 X-1.3633 Y2.4321  
G01 X-1.3367 Y2.4321  
G01 X-1.3307 Y2.4261  
G01 X-1.3261 Y2.4261  
G01 X-1.3261 Y2.4950  
G01 X-1.3281 Y2.4970  
G01 X-1.3320 Y2.5029  
G01 X-1.3348 Y2.5095  
G01 X-1.3361 Y2.5164  
G01 X-1.3361 Y2.5836  
G01 X-1.3348 Y2.5905  
G01 X-1.3320 Y2.5971  
G01 X-1.3281 Y2.6030  
G01 X-1.3230 Y2.6081  
G01 X-1.3171 Y2.6120  
G01 X-1.3105 Y2.6148  
G01 X-1.3036 Y2.6161  
G01 X-1.2964 Y2.6161  
G01 X-1.2895 Y2.6148  
G01 X-1.2829 Y2.6120  
G01 X-1.2770 Y2.6081  
G01 X-1.2719 Y2.6030  
G01 X-1.2680 Y2.5971  
G01 X-1.2652 Y2.5905  
G01 X-1.2639 Y2.5836  
G01 X-1.2639 Y2.5164  
G01 X-1.2652 Y2.5095  
G01 X-1.2680 Y2.5029  
G01 X-1.2719 Y2.4970  
G01 X-1.2739 Y2.4950  
G01 X-1.2739 Y2.3974  
G01 X-1.2749 Y2.3924  
G01 X-1.2768 Y2.3876  
G01 X-1.2797 Y2.3833  
G00 Z0.1000  
G00 X-1.4679 Y2.3708  
G01 Z-0.0021 F10    
G01 X-1.4691 Y2.3646  F20    
G01 X-1.4715 Y2.3588  
G01 X-1.4750 Y2.3535  
G01 X-1.4795 Y2.3490  
G01 X-1.4848 Y2.3455  
G01 X-1.4906 Y2.3431  
G01 X-1.4968 Y2.3419  
G01 X-1.5032 Y2.3419  
G01 X-1.5094 Y2.3431  
G01 X-1.5152 Y2.3455  
G01 X-1.5205 Y2.3490  
G01 X-1.5250 Y2.3535  
G01 X-1.5285 Y2.3588  
G01 X-1.5309 Y2.3646  
G01 X-1.5321 Y2.3708  
G01 X-1.5321 Y2.3739  
G01 X-1.5739 Y2.3739  
G01 X-1.5739 Y2.3693  
G01 X-1.5679 Y2.3633  
G01 X-1.5679 Y2.3367  
G01 X-1.5867 Y2.3179  
G01 X-1.6133 Y2.3179  
G01 X-1.6321 Y2.3367  
G01 X-1.6321 Y2.3633  
G01 X-1.6261 Y2.3693  
G01 X-1.6261 Y2.5239  
G01 X-1.6807 Y2.5239  
G01 X-1.6867 Y2.5179  
G01 X-1.7133 Y2.5179  
G01 X-1.7321 Y2.5367  
G01 X-1.7321 Y2.5633  
G01 X-1.7133 Y2.5821  
G01 X-1.6867 Y2.5821  
G01 X-1.6807 Y2.5761  
G01 X-1.5974 Y2.5761  
G01 X-1.5924 Y2.5751  
G01 X-1.5876 Y2.5732  
G01 X-1.5833 Y2.5703  
G01 X-1.5797 Y2.5667  
G01 X-1.5768 Y2.5624  
G01 X-1.5749 Y2.5576  
G01 X-1.5739 Y2.5526  
G01 X-1.5739 Y2.4261  
G01 X-1.5321 Y2.4261  
G01 X-1.5321 Y2.4292  
G01 X-1.5309 Y2.4354  
G01 X-1.5285 Y2.4412  
G01 X-1.5250 Y2.4465  
G01 X-1.5205 Y2.4510  
G01 X-1.5152 Y2.4545  
G01 X-1.5094 Y2.4569  
G01 X-1.5032 Y2.4581  
G01 X-1.4968 Y2.4581  
G01 X-1.4906 Y2.4569  
G01 X-1.4848 Y2.4545  
G01 X-1.4795 Y2.4510  
G01 X-1.4750 Y2.4465  
G01 X-1.4715 Y2.4412  
G01 X-1.4691 Y2.4354  
G01 X-1.4679 Y2.4292  
G01 X-1.4679 Y2.3708  
G00 Z0.1000  
G00 X-1.8833 Y2.3703  
G01 Z-0.0021 F10    
G01 X-1.8797 Y2.3667  F20    
G01 X-1.8768 Y2.3624  
G01 X-1.8749 Y2.3576  
G01 X-1.8739 Y2.3526  
G01 X-1.8739 Y2.1821  
G01 X-1.8617 Y2.1821  
G01 X-1.8429 Y2.1633  
G01 X-1.8429 Y2.1367  
G01 X-1.8617 Y2.1179  
G01 X-1.8883 Y2.1179  
G01 X-1.8948 Y2.1244  
G01 X-1.8974 Y2.1239  
G01 X-1.9026 Y2.1239  
G01 X-1.9076 Y2.1249  
G01 X-1.9124 Y2.1268  
G01 X-1.9167 Y2.1297  
G01 X-1.9203 Y2.1333  
G01 X-1.9232 Y2.1376  
G01 X-1.9251 Y2.1424  
G01 X-1.9261 Y2.1474  
G01 X-1.9261 Y2.3239  
G01 X-1.9807 Y2.3239  
G01 X-1.9867 Y2.3179  
G01 X-2.0133 Y2.3179  
G01 X-2.0321 Y2.3367  
G01 X-2.0321 Y2.3633  
G01 X-2.0133 Y2.3821  
G01 X-1.9867 Y2.3821  
G01 X-1.9807 Y2.3761  
G01 X-1.8974 Y2.3761  
G01 X-1.8924 Y2.3751  
G01 X-1.8876 Y2.3732  
G01 X-1.8833 Y2.3703  
G00 Z0.1000  
G00 X-1.9833 Y2.1703  
G01 Z-0.0021 F10    
G01 X-1.9797 Y2.1667  F20    
G01 X-1.9768 Y2.1624  
G01 X-1.9749 Y2.1576  
G01 X-1.9739 Y2.1526  
G01 X-1.9739 Y2.0704  
G01 X-1.8261 Y2.0335  
G01 X-1.8261 Y2.0807  
G01 X-1.8321 Y2.0867  
G01 X-1.8321 Y2.1133  
G01 X-1.8133 Y2.1321  
G01 X-1.7867 Y2.1321  
G01 X-1.7679 Y2.1133  
G01 X-1.7679 Y2.0867  
G01 X-1.7739 Y2.0807  
G01 X-1.7739 Y2.0019  
G01 X-1.7738 Y2.0013  
G01 X-1.7739 Y1.9994  
G01 X-1.7739 Y1.9193  
G01 X-1.7679 Y1.9133  
G01 X-1.7679 Y1.8867  
G01 X-1.7867 Y1.8679  
G01 X-1.8133 Y1.8679  
G01 X-1.8321 Y1.8867  
G01 X-1.8321 Y1.9133  
G01 X-1.8261 Y1.9193  
G01 X-1.8261 Y1.9796  
G01 X-2.0057 Y2.0245  
G01 X-2.0076 Y2.0249  
G01 X-2.0082 Y2.0251  
G01 X-2.0088 Y2.0253  
G01 X-2.0106 Y2.0261  
G01 X-2.0124 Y2.0268  
G01 X-2.0129 Y2.0272  
G01 X-2.0135 Y2.0275  
G01 X-2.0151 Y2.0286  
G01 X-2.0167 Y2.0297  
G01 X-2.0171 Y2.0301  
G01 X-2.0176 Y2.0305  
G01 X-2.0189 Y2.0320  
G01 X-2.0203 Y2.0333  
G01 X-2.0207 Y2.0339  
G01 X-2.0211 Y2.0343  
G01 X-2.0221 Y2.0360  
G01 X-2.0232 Y2.0376  
G01 X-2.0234 Y2.0382  
G01 X-2.0237 Y2.0388  
G01 X-2.0244 Y2.0406  
G01 X-2.0251 Y2.0424  
G01 X-2.0253 Y2.0430  
G01 X-2.0255 Y2.0436  
G01 X-2.0258 Y2.0455  
G01 X-2.0261 Y2.0474  
G01 X-2.0261 Y2.0481  
G01 X-2.0262 Y2.0487  
G01 X-2.0261 Y2.0506  
G01 X-2.0261 Y2.1239  
G01 X-2.2950 Y2.1239  
G01 X-2.2970 Y2.1219  
G01 X-2.3029 Y2.1180  
G01 X-2.3095 Y2.1152  
G01 X-2.3164 Y2.1139  
G01 X-2.3836 Y2.1139  
G01 X-2.3905 Y2.1152  
G01 X-2.3971 Y2.1180  
G01 X-2.4030 Y2.1219  
G01 X-2.4081 Y2.1270  
G01 X-2.4120 Y2.1329  
G01 X-2.4148 Y2.1395  
G01 X-2.4161 Y2.1464  
G01 X-2.4161 Y2.1536  
G01 X-2.4148 Y2.1605  
G01 X-2.4120 Y2.1671  
G01 X-2.4081 Y2.1730  
G01 X-2.4030 Y2.1781  
G01 X-2.3971 Y2.1820  
G01 X-2.3905 Y2.1848  
G01 X-2.3836 Y2.1861  
G01 X-2.3811 Y2.1861  
G01 X-2.3811 Y2.2139  
G01 X-2.3836 Y2.2139  
G01 X-2.3905 Y2.2152  
G01 X-2.3971 Y2.2180  
G01 X-2.4030 Y2.2219  
G01 X-2.4081 Y2.2270  
G01 X-2.4120 Y2.2329  
G01 X-2.4148 Y2.2395  
G01 X-2.4161 Y2.2464  
G01 X-2.4161 Y2.2536  
G01 X-2.4148 Y2.2605  
G01 X-2.4120 Y2.2671  
G01 X-2.4081 Y2.2730  
G01 X-2.4030 Y2.2781  
G01 X-2.3971 Y2.2820  
G01 X-2.3905 Y2.2848  
G01 X-2.3836 Y2.2861  
G01 X-2.3164 Y2.2861  
G01 X-2.3095 Y2.2848  
G01 X-2.3029 Y2.2820  
G01 X-2.2970 Y2.2781  
G01 X-2.2919 Y2.2730  
G01 X-2.2880 Y2.2671  
G01 X-2.2852 Y2.2605  
G01 X-2.2839 Y2.2536  
G01 X-2.2839 Y2.2464  
G01 X-2.2852 Y2.2395  
G01 X-2.2880 Y2.2329  
G01 X-2.2919 Y2.2270  
G01 X-2.2970 Y2.2219  
G01 X-2.3029 Y2.2180  
G01 X-2.3095 Y2.2152  
G01 X-2.3164 Y2.2139  
G01 X-2.3189 Y2.2139  
G01 X-2.3189 Y2.1861  
G01 X-2.3164 Y2.1861  
G01 X-2.3095 Y2.1848  
G01 X-2.3029 Y2.1820  
G01 X-2.2970 Y2.1781  
G01 X-2.2950 Y2.1761  
G01 X-1.9974 Y2.1761  
G01 X-1.9924 Y2.1751  
G01 X-1.9876 Y2.1732  
G01 X-1.9833 Y2.1703  
G00 Z0.1000  
G00 X-2.1367 Y2.0821  
G01 Z-0.0021 F10    
G01 X-2.1179 Y2.0633  F20    
G01 X-2.1179 Y2.0367  
G01 X-2.1367 Y2.0179  
G01 X-2.1633 Y2.0179  
G01 X-2.1693 Y2.0239  
G01 X-2.2950 Y2.0239  
G01 X-2.2970 Y2.0219  
G01 X-2.3029 Y2.0180  
G01 X-2.3095 Y2.0152  
G01 X-2.3164 Y2.0139  
G01 X-2.3836 Y2.0139  
G01 X-2.3905 Y2.0152  
G01 X-2.3971 Y2.0180  
G01 X-2.4030 Y2.0219  
G01 X-2.4081 Y2.0270  
G01 X-2.4120 Y2.0329  
G01 X-2.4148 Y2.0395  
G01 X-2.4161 Y2.0464  
G01 X-2.4161 Y2.0536  
G01 X-2.4148 Y2.0605  
G01 X-2.4120 Y2.0671  
G01 X-2.4081 Y2.0730  
G01 X-2.4030 Y2.0781  
G01 X-2.3971 Y2.0820  
G01 X-2.3905 Y2.0848  
G01 X-2.3836 Y2.0861  
G01 X-2.3164 Y2.0861  
G01 X-2.3095 Y2.0848  
G01 X-2.3029 Y2.0820  
G01 X-2.2970 Y2.0781  
G01 X-2.2950 Y2.0761  
G01 X-2.1693 Y2.0761  
G01 X-2.1633 Y2.0821  
G01 X-2.1367 Y2.0821  
G00 Z0.1000  
G00 X-0.8821 Y2.1367  
G01 Z-0.0021 F10    
G01 X-0.8821 Y2.1633  F20    
G01 X-0.8761 Y2.1693  
G01 X-0.8761 Y2.2526  
G01 X-0.8751 Y2.2576  
G01 X-0.8732 Y2.2624  
G01 X-0.8703 Y2.2667  
G01 X-0.8667 Y2.2703  
G01 X-0.8624 Y2.2732  
G01 X-0.8576 Y2.2751  
G01 X-0.8526 Y2.2761  
G01 X-0.8193 Y2.2761  
G01 X-0.8133 Y2.2821  
G01 X-0.7867 Y2.2821  
G01 X-0.7807 Y2.2761  
G01 X-0.6761 Y2.2761  
G01 X-0.6761 Y2.3526  
G01 X-0.6751 Y2.3576  
G01 X-0.6732 Y2.3624  
G01 X-0.6703 Y2.3667  
G01 X-0.6667 Y2.3703  
G01 X-0.6624 Y2.3732  
G01 X-0.6576 Y2.3751  
G01 X-0.6526 Y2.3761  
G01 X-0.6050 Y2.3761  
G01 X-0.6030 Y2.3781  
G01 X-0.5971 Y2.3820  
G01 X-0.5905 Y2.3848  
G01 X-0.5836 Y2.3861  
G01 X-0.5164 Y2.3861  
G01 X-0.5095 Y2.3848  
G01 X-0.5029 Y2.3820  
G01 X-0.4970 Y2.3781  
G01 X-0.4919 Y2.3730  
G01 X-0.4880 Y2.3671  
G01 X-0.4852 Y2.3605  
G01 X-0.4839 Y2.3536  
G01 X-0.4839 Y2.3464  
G01 X-0.4852 Y2.3395  
G01 X-0.4880 Y2.3329  
G01 X-0.4919 Y2.3270  
G01 X-0.4970 Y2.3219  
G01 X-0.5029 Y2.3180  
G01 X-0.5095 Y2.3152  
G01 X-0.5164 Y2.3139  
G01 X-0.5836 Y2.3139  
G01 X-0.5905 Y2.3152  
G01 X-0.5971 Y2.3180  
G01 X-0.6030 Y2.3219  
G01 X-0.6050 Y2.3239  
G01 X-0.6239 Y2.3239  
G01 X-0.6239 Y2.2474  
G01 X-0.6249 Y2.2424  
G01 X-0.6268 Y2.2376  
G01 X-0.6297 Y2.2333  
G01 X-0.6333 Y2.2297  
G01 X-0.6376 Y2.2268  
G01 X-0.6424 Y2.2249  
G01 X-0.6474 Y2.2239  
G01 X-0.7807 Y2.2239  
G01 X-0.7867 Y2.2179  
G01 X-0.8133 Y2.2179  
G01 X-0.8193 Y2.2239  
G01 X-0.8239 Y2.2239  
G01 X-0.8239 Y2.1693  
G01 X-0.8179 Y2.1633  
G01 X-0.8179 Y2.1367  
G01 X-0.8367 Y2.1179  
G01 X-0.8633 Y2.1179  
G01 X-0.8821 Y2.1367  
G00 Z0.1000  
G00 X-1.5270 Y0.3081  
G01 Z-0.0021 F10    
G01 X-1.5219 Y0.3030  F20    
G01 X-1.5180 Y0.2971  
G01 X-1.5152 Y0.2905  
G01 X-1.5139 Y0.2836  
G01 X-1.5139 Y0.2164  
G01 X-1.5152 Y0.2095  
G01 X-1.5180 Y0.2029  
G01 X-1.5219 Y0.1970  
G01 X-1.5270 Y0.1919  
G01 X-1.5329 Y0.1880  
G01 X-1.5395 Y0.1852  
G01 X-1.5464 Y0.1839  
G01 X-1.5536 Y0.1839  
G01 X-1.5605 Y0.1852  
G01 X-1.5671 Y0.1880  
G01 X-1.5730 Y0.1919  
G01 X-1.5781 Y0.1970  
G01 X-1.5820 Y0.2029  
G01 X-1.5848 Y0.2095  
G01 X-1.5861 Y0.2164  
G01 X-1.5861 Y0.2189  
G01 X-1.7689 Y0.2189  
G01 X-1.7689 Y0.1643  
G01 X-1.7679 Y0.1633  
G01 X-1.7679 Y0.1367  
G01 X-1.7867 Y0.1179  
G01 X-1.8133 Y0.1179  
G01 X-1.8321 Y0.1367  
G01 X-1.8321 Y0.1633  
G01 X-1.8311 Y0.1643  
G01 X-1.8311 Y0.2531  
G01 X-1.8300 Y0.2591  
G01 X-1.8276 Y0.2648  
G01 X-1.8242 Y0.2699  
G01 X-1.8199 Y0.2742  
G01 X-1.8148 Y0.2776  
G01 X-1.8091 Y0.2800  
G01 X-1.8031 Y0.2811  
G01 X-1.5861 Y0.2811  
G01 X-1.5861 Y0.2836  
G01 X-1.5848 Y0.2905  
G01 X-1.5820 Y0.2971  
G01 X-1.5781 Y0.3030  
G01 X-1.5730 Y0.3081  
G01 X-1.5671 Y0.3120  
G01 X-1.5605 Y0.3148  
G01 X-1.5536 Y0.3161  
G01 X-1.5464 Y0.3161  
G01 X-1.5395 Y0.3148  
G01 X-1.5329 Y0.3120  
G01 X-1.5270 Y0.3081  
G00 Z0.1000  
G00 X-0.0750 Y0.1795  
G01 Z-0.0021 F10    
G01 X-0.0795 Y0.1750  F20    
G01 X-0.0848 Y0.1715  
G01 X-0.0906 Y0.1691  
G01 X-0.0968 Y0.1679  
G01 X-0.2697 Y0.1679  
G01 X-0.2817 Y0.1559  
G01 X-0.3183 Y0.1559  
G01 X-0.3303 Y0.1679  
G01 X-0.3697 Y0.1679  
G01 X-0.3817 Y0.1559  
G01 X-0.4183 Y0.1559  
G01 X-0.4441 Y0.1817  
G01 X-0.4441 Y0.2183  
G01 X-0.4183 Y0.2441  
G01 X-0.3817 Y0.2441  
G01 X-0.3697 Y0.2321  
G01 X-0.3303 Y0.2321  
G01 X-0.3183 Y0.2441  
G01 X-0.2817 Y0.2441  
G01 X-0.2697 Y0.2321  
G01 X-0.1321 Y0.2321  
G01 X-0.1321 Y1.6679  
G01 X-0.3853 Y1.6679  
G01 X-0.3863 Y1.6669  
G01 X-0.4137 Y1.6669  
G01 X-0.4331 Y1.6863  
G01 X-0.4331 Y1.7137  
G01 X-0.4137 Y1.7331  
G01 X-0.3863 Y1.7331  
G01 X-0.3853 Y1.7321  
G01 X-0.0968 Y1.7321  
G01 X-0.0906 Y1.7309  
G01 X-0.0848 Y1.7285  
G01 X-0.0795 Y1.7250  
G01 X-0.0750 Y1.7205  
G01 X-0.0715 Y1.7152  
G01 X-0.0691 Y1.7094  
G01 X-0.0679 Y1.7032  
G01 X-0.0679 Y0.1968  
G01 X-0.0691 Y0.1906  
G01 X-0.0715 Y0.1848  
G01 X-0.0750 Y0.1795  
G00 Z0.1000  
G00 X-0.2559 Y0.2817  
G01 Z-0.0021 F10    
G01 X-0.2817 Y0.2559  F20    
G01 X-0.3183 Y0.2559  
G01 X-0.3303 Y0.2679  
G01 X-0.3697 Y0.2679  
G01 X-0.3817 Y0.2559  
G01 X-0.4183 Y0.2559  
G01 X-0.4441 Y0.2817  
G01 X-0.4441 Y0.3183  
G01 X-0.4183 Y0.3441  
G01 X-0.3817 Y0.3441  
G01 X-0.3697 Y0.3321  
G01 X-0.3321 Y0.3321  
G01 X-0.3321 Y0.3697  
G01 X-0.3441 Y0.3817  
G01 X-0.3441 Y0.3849  
G01 X-0.3559 Y0.3849  
G01 X-0.3559 Y0.3817  
G01 X-0.3817 Y0.3559  
G01 X-0.4183 Y0.3559  
G01 X-0.4303 Y0.3679  
G01 X-0.5532 Y0.3679  
G01 X-0.5594 Y0.3691  
G01 X-0.5652 Y0.3715  
G01 X-0.5705 Y0.3750  
G01 X-0.5750 Y0.3795  
G01 X-0.5785 Y0.3848  
G01 X-0.5809 Y0.3906  
G01 X-0.5821 Y0.3968  
G01 X-0.5821 Y1.0179  
G01 X-0.8512 Y1.0179  
G01 X-0.8524 Y1.0171  
G01 X-0.8592 Y1.0143  
G01 X-0.8595 Y1.0142  
G01 X-0.8245 Y0.9095  
G01 X-0.8239 Y0.9079  
G01 X-0.8237 Y0.9070  
G01 X-0.8234 Y0.9060  
G01 X-0.8232 Y0.9044  
G01 X-0.8229 Y0.9027  
G01 X-0.8229 Y0.9017  
G01 X-0.8227 Y0.9007  
G01 X-0.8229 Y0.8990  
G01 X-0.8229 Y0.5473  
G01 X-0.8239 Y0.5421  
G01 X-0.8259 Y0.5371  
G01 X-0.8289 Y0.5327  
G01 X-0.8327 Y0.5289  
G01 X-0.8371 Y0.5259  
G01 X-0.8421 Y0.5239  
G01 X-0.8473 Y0.5229  
G01 X-0.9446 Y0.5229  
G01 X-0.9463 Y0.5211  
G01 X-0.9524 Y0.5171  
G01 X-0.9592 Y0.5143  
G01 X-0.9663 Y0.5129  
G01 X-0.9679 Y0.5129  
G01 X-0.9679 Y0.3468  
G01 X-0.9691 Y0.3406  
G01 X-0.9715 Y0.3348  
G01 X-0.9750 Y0.3295  
G01 X-0.9795 Y0.3250  
G01 X-0.9848 Y0.3215  
G01 X-0.9906 Y0.3191  
G01 X-0.9968 Y0.3179  
G01 X-1.1679 Y0.3179  
G01 X-1.1679 Y0.2468  
G01 X-1.1691 Y0.2406  
G01 X-1.1715 Y0.2348  
G01 X-1.1750 Y0.2295  
G01 X-1.1795 Y0.2250  
G01 X-1.1848 Y0.2215  
G01 X-1.1906 Y0.2191  
G01 X-1.1968 Y0.2179  
G01 X-1.3129 Y0.2179  
G01 X-1.3129 Y0.2163  
G01 X-1.3143 Y0.2092  
G01 X-1.3171 Y0.2024  
G01 X-1.3211 Y0.1963  
G01 X-1.3263 Y0.1911  
G01 X-1.3324 Y0.1871  
G01 X-1.3392 Y0.1843  
G01 X-1.3463 Y0.1829  
G01 X-1.3537 Y0.1829  
G01 X-1.3608 Y0.1843  
G01 X-1.3676 Y0.1871  
G01 X-1.3737 Y0.1911  
G01 X-1.3789 Y0.1963  
G01 X-1.3829 Y0.2024  
G01 X-1.3857 Y0.2092  
G01 X-1.3871 Y0.2163  
G01 X-1.3871 Y0.2837  
G01 X-1.3857 Y0.2908  
G01 X-1.3829 Y0.2976  
G01 X-1.3821 Y0.2988  
G01 X-1.3821 Y0.4179  
G01 X-1.3853 Y0.4179  
G01 X-1.3863 Y0.4169  
G01 X-1.4137 Y0.4169  
G01 X-1.4331 Y0.4363  
G01 X-1.4331 Y0.4637  
G01 X-1.4137 Y0.4831  
G01 X-1.3863 Y0.4831  
G01 X-1.3853 Y0.4821  
G01 X-1.3468 Y0.4821  
G01 X-1.3406 Y0.4809  
G01 X-1.3348 Y0.4785  
G01 X-1.3295 Y0.4750  
G01 X-1.3250 Y0.4705  
G01 X-1.3215 Y0.4652  
G01 X-1.3191 Y0.4594  
G01 X-1.3179 Y0.4532  
G01 X-1.3179 Y0.2988  
G01 X-1.3171 Y0.2976  
G01 X-1.3143 Y0.2908  
G01 X-1.3129 Y0.2837  
G01 X-1.3129 Y0.2821  
G01 X-1.2321 Y0.2821  
G01 X-1.2321 Y0.3353  
G01 X-1.2331 Y0.3363  
G01 X-1.2331 Y0.3637  
G01 X-1.2137 Y0.3831  
G01 X-1.1863 Y0.3831  
G01 X-1.1853 Y0.3821  
G01 X-1.0321 Y0.3821  
G01 X-1.0321 Y0.5129  
G01 X-1.0337 Y0.5129  
G01 X-1.0408 Y0.5143  
G01 X-1.0476 Y0.5171  
G01 X-1.0537 Y0.5211  
G01 X-1.0589 Y0.5263  
G01 X-1.0629 Y0.5324  
G01 X-1.0657 Y0.5392  
G01 X-1.0671 Y0.5463  
G01 X-1.0671 Y0.5537  
G01 X-1.0657 Y0.5608  
G01 X-1.0629 Y0.5676  
G01 X-1.0589 Y0.5737  
G01 X-1.0537 Y0.5789  
G01 X-1.0476 Y0.5829  
G01 X-1.0408 Y0.5857  
G01 X-1.0337 Y0.5871  
G01 X-0.9663 Y0.5871  
G01 X-0.9592 Y0.5857  
G01 X-0.9524 Y0.5829  
G01 X-0.9463 Y0.5789  
G01 X-0.9446 Y0.5771  
G01 X-0.8771 Y0.5771  
G01 X-0.8771 Y0.8956  
G01 X-0.9162 Y1.0129  
G01 X-0.9337 Y1.0129  
G01 X-0.9408 Y1.0143  
G01 X-0.9476 Y1.0171  
G01 X-0.9537 Y1.0211  
G01 X-0.9589 Y1.0263  
G01 X-0.9629 Y1.0324  
G01 X-0.9657 Y1.0392  
G01 X-0.9671 Y1.0463  
G01 X-0.9671 Y1.0537  
G01 X-0.9657 Y1.0608  
G01 X-0.9629 Y1.0676  
G01 X-0.9589 Y1.0737  
G01 X-0.9537 Y1.0789  
G01 X-0.9476 Y1.0829  
G01 X-0.9408 Y1.0857  
G01 X-0.9337 Y1.0871  
G01 X-0.8663 Y1.0871  
G01 X-0.8592 Y1.0857  
G01 X-0.8524 Y1.0829  
G01 X-0.8512 Y1.0821  
G01 X-0.5821 Y1.0821  
G01 X-0.5821 Y1.3775  
G01 X-0.5886 Y1.3840  
G01 X-0.5886 Y1.4160  
G01 X-0.5821 Y1.4225  
G01 X-0.5821 Y1.8785  
G01 X-0.5843 Y1.8817  
G01 X-0.5872 Y1.8887  
G01 X-0.5886 Y1.8962  
G01 X-0.5886 Y1.9038  
G01 X-0.5872 Y1.9113  
G01 X-0.5843 Y1.9183  
G01 X-0.5800 Y1.9246  
G01 X-0.5746 Y1.9300  
G01 X-0.5683 Y1.9343  
G01 X-0.5613 Y1.9372  
G01 X-0.5538 Y1.9386  
G01 X-0.5462 Y1.9386  
G01 X-0.5387 Y1.9372  
G01 X-0.5317 Y1.9343  
G01 X-0.5285 Y1.9321  
G01 X-0.4321 Y1.9321  
G01 X-0.4321 Y2.4179  
G01 X-0.5012 Y2.4179  
G01 X-0.5024 Y2.4171  
G01 X-0.5092 Y2.4143  
G01 X-0.5163 Y2.4129  
G01 X-0.5837 Y2.4129  
G01 X-0.5908 Y2.4143  
G01 X-0.5976 Y2.4171  
G01 X-0.5988 Y2.4179  
G01 X-0.8032 Y2.4179  
G01 X-0.8094 Y2.4191  
G01 X-0.8152 Y2.4215  
G01 X-0.8205 Y2.4250  
G01 X-0.8250 Y2.4295  
G01 X-0.8285 Y2.4348  
G01 X-0.8309 Y2.4406  
G01 X-0.8321 Y2.4468  
G01 X-0.8321 Y2.6179  
G01 X-0.9353 Y2.6179  
G01 X-0.9363 Y2.6169  
G01 X-0.9637 Y2.6169  
G01 X-0.9831 Y2.6363  
G01 X-0.9831 Y2.6637  
G01 X-0.9821 Y2.6647  
G01 X-0.9821 Y2.6679  
G01 X-1.3679 Y2.6679  
G01 X-1.3679 Y2.5988  
G01 X-1.3671 Y2.5976  
G01 X-1.3643 Y2.5908  
G01 X-1.3629 Y2.5837  
G01 X-1.3629 Y2.5163  
G01 X-1.3643 Y2.5092  
G01 X-1.3671 Y2.5024  
G01 X-1.3711 Y2.4963  
G01 X-1.3763 Y2.4911  
G01 X-1.3824 Y2.4871  
G01 X-1.3892 Y2.4843  
G01 X-1.3963 Y2.4829  
G01 X-1.4037 Y2.4829  
G01 X-1.4108 Y2.4843  
G01 X-1.4176 Y2.4871  
G01 X-1.4237 Y2.4911  
G01 X-1.4289 Y2.4963  
G01 X-1.4329 Y2.5024  
G01 X-1.4357 Y2.5092  
G01 X-1.4371 Y2.5163  
G01 X-1.4371 Y2.5837  
G01 X-1.4357 Y2.5908  
G01 X-1.4329 Y2.5976  
G01 X-1.4321 Y2.5988  
G01 X-1.4321 Y2.6679  
G01 X-1.6679 Y2.6679  
G01 X-1.6679 Y2.6647  
G01 X-1.6669 Y2.6637  
G01 X-1.6669 Y2.6363  
G01 X-1.6863 Y2.6169  
G01 X-1.7137 Y2.6169  
G01 X-1.7147 Y2.6179  
G01 X-2.1179 Y2.6179  
G01 X-2.1179 Y2.4771  
G01 X-1.7973 Y2.4771  
G01 X-1.7921 Y2.4761  
G01 X-1.7871 Y2.4741  
G01 X-1.7827 Y2.4711  
G01 X-1.7789 Y2.4673  
G01 X-1.7759 Y2.4629  
G01 X-1.7739 Y2.4579  
G01 X-1.7729 Y2.4527  
G01 X-1.7729 Y2.2197  
G01 X-1.7669 Y2.2137  
G01 X-1.7669 Y2.1863  
G01 X-1.7863 Y2.1669  
G01 X-1.8137 Y2.1669  
G01 X-1.8331 Y2.1863  
G01 X-1.8331 Y2.2137  
G01 X-1.8271 Y2.2197  
G01 X-1.8271 Y2.4229  
G01 X-2.1303 Y2.4229  
G01 X-2.1363 Y2.4169  
G01 X-2.1444 Y2.4169  
G01 X-2.2338 Y2.3721  
G01 X-2.2348 Y2.3715  
G01 X-2.2366 Y2.3707  
G01 X-2.2385 Y2.3698  
G01 X-2.2396 Y2.3695  
G01 X-2.2406 Y2.3691  
G01 X-2.2426 Y2.3687  
G01 X-2.2446 Y2.3682  
G01 X-2.2457 Y2.3681  
G01 X-2.2468 Y2.3679  
G01 X-2.2489 Y2.3679  
G01 X-2.2509 Y2.3677  
G01 X-2.2520 Y2.3679  
G01 X-2.4679 Y2.3679  
G01 X-2.4679 Y0.6321  
G01 X-2.1147 Y0.6321  
G01 X-2.1137 Y0.6331  
G01 X-2.0863 Y0.6331  
G01 X-2.0669 Y0.6137  
G01 X-2.0669 Y0.5863  
G01 X-2.0863 Y0.5669  
G01 X-2.1137 Y0.5669  
G01 X-2.1147 Y0.5679  
G01 X-2.5032 Y0.5679  
G01 X-2.5094 Y0.5691  
G01 X-2.5152 Y0.5715  
G01 X-2.5205 Y0.5750  
G01 X-2.5250 Y0.5795  
G01 X-2.5285 Y0.5848  
G01 X-2.5309 Y0.5906  
G01 X-2.5321 Y0.5968  
G01 X-2.5321 Y2.4032  
G01 X-2.5309 Y2.4094  
G01 X-2.5285 Y2.4152  
G01 X-2.5250 Y2.4205  
G01 X-2.5205 Y2.4250  
G01 X-2.5152 Y2.4285  
G01 X-2.5094 Y2.4309  
G01 X-2.5032 Y2.4321  
G01 X-2.2576 Y2.4321  
G01 X-2.1821 Y2.4699  
G01 X-2.1821 Y2.6532  
G01 X-2.1809 Y2.6594  
G01 X-2.1785 Y2.6652  
G01 X-2.1750 Y2.6705  
G01 X-2.1705 Y2.6750  
G01 X-2.1652 Y2.6785  
G01 X-2.1594 Y2.6809  
G01 X-2.1532 Y2.6821  
G01 X-1.7321 Y2.6821  
G01 X-1.7321 Y2.7032  
G01 X-1.7309 Y2.7094  
G01 X-1.7285 Y2.7152  
G01 X-1.7250 Y2.7205  
G01 X-1.7205 Y2.7250  
G01 X-1.7152 Y2.7285  
G01 X-1.7094 Y2.7309  
G01 X-1.7032 Y2.7321  
G01 X-0.9468 Y2.7321  
G01 X-0.9406 Y2.7309  
G01 X-0.9348 Y2.7285  
G01 X-0.9295 Y2.7250  
G01 X-0.9250 Y2.7205  
G01 X-0.9215 Y2.7152  
G01 X-0.9191 Y2.7094  
G01 X-0.9179 Y2.7032  
G01 X-0.9179 Y2.6821  
G01 X-0.8147 Y2.6821  
G01 X-0.8137 Y2.6831  
G01 X-0.7863 Y2.6831  
G01 X-0.7669 Y2.6637  
G01 X-0.7669 Y2.6363  
G01 X-0.7679 Y2.6353  
G01 X-0.7679 Y2.4821  
G01 X-0.5988 Y2.4821  
G01 X-0.5976 Y2.4829  
G01 X-0.5908 Y2.4857  
G01 X-0.5837 Y2.4871  
G01 X-0.5163 Y2.4871  
G01 X-0.5092 Y2.4857  
G01 X-0.5024 Y2.4829  
G01 X-0.5012 Y2.4821  
G01 X-0.3968 Y2.4821  
G01 X-0.3906 Y2.4809  
G01 X-0.3848 Y2.4785  
G01 X-0.3795 Y2.4750  
G01 X-0.3750 Y2.4705  
G01 X-0.3715 Y2.4652  
G01 X-0.3691 Y2.4594  
G01 X-0.3679 Y2.4532  
G01 X-0.3679 Y1.8968  
G01 X-0.3691 Y1.8906  
G01 X-0.3715 Y1.8848  
G01 X-0.3750 Y1.8795  
G01 X-0.3795 Y1.8750  
G01 X-0.3848 Y1.8715  
G01 X-0.3906 Y1.8691  
G01 X-0.3968 Y1.8679  
G01 X-0.5179 Y1.8679  
G01 X-0.5179 Y1.4225  
G01 X-0.5114 Y1.4160  
G01 X-0.5114 Y1.3840  
G01 X-0.5179 Y1.3775  
G01 X-0.5179 Y0.4321  
G01 X-0.4321 Y0.4321  
G01 X-0.4321 Y0.4697  
G01 X-0.4441 Y0.4817  
G01 X-0.4441 Y0.5183  
G01 X-0.4183 Y0.5441  
G01 X-0.3817 Y0.5441  
G01 X-0.3697 Y0.5321  
G01 X-0.3303 Y0.5321  
G01 X-0.3183 Y0.5441  
G01 X-0.2817 Y0.5441  
G01 X-0.2559 Y0.5183  
G01 X-0.2559 Y0.4817  
G01 X-0.2817 Y0.4559  
G01 X-0.3183 Y0.4559  
G01 X-0.3303 Y0.4679  
G01 X-0.3679 Y0.4679  
G01 X-0.3679 Y0.4303  
G01 X-0.3559 Y0.4183  
G01 X-0.3559 Y0.4151  
G01 X-0.3441 Y0.4151  
G01 X-0.3441 Y0.4183  
G01 X-0.3183 Y0.4441  
G01 X-0.2817 Y0.4441  
G01 X-0.2559 Y0.4183  
G01 X-0.2559 Y0.3817  
G01 X-0.2679 Y0.3697  
G01 X-0.2679 Y0.3303  
G01 X-0.2559 Y0.3183  
G01 X-0.2559 Y0.2817  
G00 Z0.1000  
G00 X-0.2697 Y0.5679  
G01 Z-0.0021 F10    
G01 X-0.2817 Y0.5559  F20    
G01 X-0.3183 Y0.5559  
G01 X-0.3303 Y0.5679  
G01 X-0.3697 Y0.5679  
G01 X-0.3817 Y0.5559  
G01 X-0.4183 Y0.5559  
G01 X-0.4441 Y0.5817  
G01 X-0.4441 Y0.6183  
G01 X-0.4183 Y0.6441  
G01 X-0.3817 Y0.6441  
G01 X-0.3697 Y0.6321  
G01 X-0.3303 Y0.6321  
G01 X-0.3183 Y0.6441  
G01 X-0.2817 Y0.6441  
G01 X-0.2697 Y0.6321  
G01 X-0.2321 Y0.6321  
G01 X-0.2321 Y1.5679  
G01 X-0.3853 Y1.5679  
G01 X-0.3863 Y1.5669  
G01 X-0.4137 Y1.5669  
G01 X-0.4331 Y1.5863  
G01 X-0.4331 Y1.6137  
G01 X-0.4137 Y1.6331  
G01 X-0.3863 Y1.6331  
G01 X-0.3853 Y1.6321  
G01 X-0.1968 Y1.6321  
G01 X-0.1906 Y1.6309  
G01 X-0.1848 Y1.6285  
G01 X-0.1795 Y1.6250  
G01 X-0.1750 Y1.6205  
G01 X-0.1715 Y1.6152  
G01 X-0.1691 Y1.6094  
G01 X-0.1679 Y1.6032  
G01 X-0.1679 Y0.5968  
G01 X-0.1691 Y0.5906  
G01 X-0.1715 Y0.5848  
G01 X-0.1750 Y0.5795  
G01 X-0.1795 Y0.5750  
G01 X-0.1848 Y0.5715  
G01 X-0.1906 Y0.5691  
G01 X-0.1968 Y0.5679  
G01 X-0.2697 Y0.5679  
G00 Z0.1000  
G00 X-0.2817 Y0.6559  
G01 Z-0.0021 F10    
G01 X-0.3183 Y0.6559  F20    
G01 X-0.3441 Y0.6817  
G01 X-0.3441 Y0.7183  
G01 X-0.3183 Y0.7441  
G01 X-0.2817 Y0.7441  
G01 X-0.2559 Y0.7183  
G01 X-0.2559 Y0.6817  
G01 X-0.2817 Y0.6559  
G00 Z0.1000  
G00 X-0.3559 Y0.6817  
G01 Z-0.0021 F10    
G01 X-0.3817 Y0.6559  F20    
G01 X-0.4183 Y0.6559  
G01 X-0.4441 Y0.6817  
G01 X-0.4441 Y0.7183  
G01 X-0.4183 Y0.7441  
G01 X-0.3817 Y0.7441  
G01 X-0.3559 Y0.7183  
G01 X-0.3559 Y0.6817  
G00 Z0.1000  
G00 X-0.3559 Y0.7817  
G01 Z-0.0021 F10    
G01 X-0.3817 Y0.7559  F20    
G01 X-0.4183 Y0.7559  
G01 X-0.4441 Y0.7817  
G01 X-0.4441 Y0.8183  
G01 X-0.4183 Y0.8441  
G01 X-0.3817 Y0.8441  
G01 X-0.3559 Y0.8183  
G01 X-0.3559 Y0.7817  
G00 Z0.1000  
G00 X-0.3441 Y0.7817  
G01 Z-0.0021 F10    
G01 X-0.3441 Y0.8183  F20    
G01 X-0.3183 Y0.8441  
G01 X-0.2817 Y0.8441  
G01 X-0.2559 Y0.8183  
G01 X-0.2559 Y0.7817  
G01 X-0.2817 Y0.7559  
G01 X-0.3183 Y0.7559  
G01 X-0.3441 Y0.7817  
G00 Z0.1000  
G00 X-0.3441 Y0.8817  
G01 Z-0.0021 F10    
G01 X-0.3441 Y0.9183  F20    
G01 X-0.3183 Y0.9441  
G01 X-0.2817 Y0.9441  
G01 X-0.2559 Y0.9183  
G01 X-0.2559 Y0.8817  
G01 X-0.2817 Y0.8559  
G01 X-0.3183 Y0.8559  
G01 X-0.3441 Y0.8817  
G00 Z0.1000  
G00 X-0.3559 Y0.8817  
G01 Z-0.0021 F10    
G01 X-0.3817 Y0.8559  F20    
G01 X-0.4183 Y0.8559  
G01 X-0.4441 Y0.8817  
G01 X-0.4441 Y0.9183  
G01 X-0.4183 Y0.9441  
G01 X-0.3817 Y0.9441  
G01 X-0.3559 Y0.9183  
G01 X-0.3559 Y0.8817  
G00 Z0.1000  
G00 X-0.7169 Y0.8637  
G01 Z-0.0021 F10    
G01 X-0.7169 Y0.8363  F20    
G01 X-0.7179 Y0.8353  
G01 X-0.7179 Y0.0968  
G01 X-0.7191 Y0.0906  
G01 X-0.7215 Y0.0848  
G01 X-0.7250 Y0.0795  
G01 X-0.7295 Y0.0750  
G01 X-0.7348 Y0.0715  
G01 X-0.7406 Y0.0691  
G01 X-0.7468 Y0.0679  
G01 X-1.4532 Y0.0679  
G01 X-1.4594 Y0.0691  
G01 X-1.4652 Y0.0715  
G01 X-1.4705 Y0.0750  
G01 X-1.4750 Y0.0795  
G01 X-1.4785 Y0.0848  
G01 X-1.4809 Y0.0906  
G01 X-1.4821 Y0.0968  
G01 X-1.4821 Y0.2012  
G01 X-1.4829 Y0.2024  
G01 X-1.4857 Y0.2092  
G01 X-1.4871 Y0.2163  
G01 X-1.4871 Y0.2837  
G01 X-1.4857 Y0.2908  
G01 X-1.4829 Y0.2976  
G01 X-1.4789 Y0.3037  
G01 X-1.4737 Y0.3089  
G01 X-1.4676 Y0.3129  
G01 X-1.4608 Y0.3157  
G01 X-1.4537 Y0.3171  
G01 X-1.4463 Y0.3171  
G01 X-1.4392 Y0.3157  
G01 X-1.4324 Y0.3129  
G01 X-1.4263 Y0.3089  
G01 X-1.4211 Y0.3037  
G01 X-1.4171 Y0.2976  
G01 X-1.4143 Y0.2908  
G01 X-1.4129 Y0.2837  
G01 X-1.4129 Y0.2163  
G01 X-1.4143 Y0.2092  
G01 X-1.4171 Y0.2024  
G01 X-1.4179 Y0.2012  
G01 X-1.4179 Y0.1321  
G01 X-0.7821 Y0.1321  
G01 X-0.7821 Y0.8353  
G01 X-0.7831 Y0.8363  
G01 X-0.7831 Y0.8637  
G01 X-0.7637 Y0.8831  
G01 X-0.7363 Y0.8831  
G01 X-0.7169 Y0.8637  
G00 Z0.1000  
G00 X-1.0269 Y0.8477  
G01 Z-0.0021 F10    
G01 X-1.0277 Y0.8432  F20    
G01 X-1.0295 Y0.8390  
G01 X-1.0320 Y0.8352  
G01 X-1.0352 Y0.8320  
G01 X-1.0390 Y0.8295  
G01 X-1.0432 Y0.8277  
G01 X-1.0477 Y0.8269  
G01 X-1.2523 Y0.8269  
G01 X-1.2568 Y0.8277  
G01 X-1.2610 Y0.8295  
G01 X-1.2648 Y0.8320  
G01 X-1.2680 Y0.8352  
G01 X-1.2705 Y0.8390  
G01 X-1.2723 Y0.8432  
G01 X-1.2731 Y0.8477  
G01 X-1.2731 Y0.9263  
G01 X-1.2831 Y0.9363  
G01 X-1.2831 Y0.9637  
G01 X-1.2637 Y0.9831  
G01 X-1.2363 Y0.9831  
G01 X-1.2169 Y0.9637  
G01 X-1.2169 Y0.9363  
G01 X-1.2269 Y0.9263  
G01 X-1.2269 Y0.8731  
G01 X-1.0731 Y0.8731  
G01 X-1.0731 Y1.1523  
G01 X-1.0723 Y1.1568  
G01 X-1.0705 Y1.1610  
G01 X-1.0680 Y1.1648  
G01 X-1.0648 Y1.1680  
G01 X-1.0610 Y1.1705  
G01 X-1.0568 Y1.1723  
G01 X-1.0523 Y1.1731  
G01 X-0.9592 Y1.1731  
G01 X-0.9589 Y1.1737  
G01 X-0.9537 Y1.1789  
G01 X-0.9476 Y1.1829  
G01 X-0.9408 Y1.1857  
G01 X-0.9337 Y1.1871  
G01 X-0.8663 Y1.1871  
G01 X-0.8592 Y1.1857  
G01 X-0.8524 Y1.1829  
G01 X-0.8463 Y1.1789  
G01 X-0.8411 Y1.1737  
G01 X-0.8371 Y1.1676  
G01 X-0.8343 Y1.1608  
G01 X-0.8329 Y1.1537  
G01 X-0.8329 Y1.1463  
G01 X-0.8343 Y1.1392  
G01 X-0.8371 Y1.1324  
G01 X-0.8411 Y1.1263  
G01 X-0.8463 Y1.1211  
G01 X-0.8524 Y1.1171  
G01 X-0.8592 Y1.1143  
G01 X-0.8663 Y1.1129  
G01 X-0.9337 Y1.1129  
G01 X-0.9408 Y1.1143  
G01 X-0.9476 Y1.1171  
G01 X-0.9537 Y1.1211  
G01 X-0.9589 Y1.1263  
G01 X-0.9592 Y1.1269  
G01 X-1.0269 Y1.1269  
G01 X-1.0269 Y0.8477  
G00 Z0.1000  
G00 X-1.0337 Y0.6871  
G01 Z-0.0021 F10    
G01 X-0.9663 Y0.6871  F20    
G01 X-0.9592 Y0.6857  
G01 X-0.9524 Y0.6829  
G01 X-0.9463 Y0.6789  
G01 X-0.9411 Y0.6737  
G01 X-0.9371 Y0.6676  
G01 X-0.9343 Y0.6608  
G01 X-0.9329 Y0.6537  
G01 X-0.9329 Y0.6463  
G01 X-0.9343 Y0.6392  
G01 X-0.9371 Y0.6324  
G01 X-0.9411 Y0.6263  
G01 X-0.9463 Y0.6211  
G01 X-0.9524 Y0.6171  
G01 X-0.9592 Y0.6143  
G01 X-0.9663 Y0.6129  
G01 X-1.0337 Y0.6129  
G01 X-1.0408 Y0.6143  
G01 X-1.0476 Y0.6171  
G01 X-1.0488 Y0.6179  
G01 X-1.2032 Y0.6179  
G01 X-1.2094 Y0.6191  
G01 X-1.2152 Y0.6215  
G01 X-1.2205 Y0.6250  
G01 X-1.2250 Y0.6295  
G01 X-1.2285 Y0.6348  
G01 X-1.2309 Y0.6406  
G01 X-1.2321 Y0.6468  
G01 X-1.2321 Y0.6679  
G01 X-1.3775 Y0.6679  
G01 X-1.3840 Y0.6614  
G01 X-1.4160 Y0.6614  
G01 X-1.4386 Y0.6840  
G01 X-1.4386 Y0.7160  
G01 X-1.4160 Y0.7386  
G01 X-1.3840 Y0.7386  
G01 X-1.3775 Y0.7321  
G01 X-1.2321 Y0.7321  
G01 X-1.2321 Y0.7353  
G01 X-1.2331 Y0.7363  
G01 X-1.2331 Y0.7637  
G01 X-1.2137 Y0.7831  
G01 X-1.1863 Y0.7831  
G01 X-1.1669 Y0.7637  
G01 X-1.1669 Y0.7363  
G01 X-1.1679 Y0.7353  
G01 X-1.1679 Y0.6821  
G01 X-1.0488 Y0.6821  
G01 X-1.0476 Y0.6829  
G01 X-1.0408 Y0.6857  
G01 X-1.0337 Y0.6871  
G00 Z0.1000  
G00 X-1.1169 Y0.9363  
G01 Z-0.0021 F10    
G01 X-1.1363 Y0.9169  F20    
G01 X-1.1637 Y0.9169  
G01 X-1.1831 Y0.9363  
G01 X-1.1831 Y0.9637  
G01 X-1.1731 Y0.9737  
G01 X-1.1731 Y1.0769  
G01 X-1.4669 Y1.0769  
G01 X-1.4669 Y1.0707  
G01 X-1.4681 Y1.0643  
G01 X-1.4706 Y1.0583  
G01 X-1.4743 Y1.0529  
G01 X-1.4789 Y1.0483  
G01 X-1.4843 Y1.0446  
G01 X-1.4903 Y1.0421  
G01 X-1.4967 Y1.0409  
G01 X-1.5033 Y1.0409  
G01 X-1.5097 Y1.0421  
G01 X-1.5157 Y1.0446  
G01 X-1.5211 Y1.0483  
G01 X-1.5257 Y1.0529  
G01 X-1.5294 Y1.0583  
G01 X-1.5319 Y1.0643  
G01 X-1.5331 Y1.0707  
G01 X-1.5331 Y1.1293  
G01 X-1.5319 Y1.1357  
G01 X-1.5294 Y1.1417  
G01 X-1.5257 Y1.1471  
G01 X-1.5211 Y1.1517  
G01 X-1.5157 Y1.1554  
G01 X-1.5097 Y1.1579  
G01 X-1.5033 Y1.1591  
G01 X-1.4967 Y1.1591  
G01 X-1.4903 Y1.1579  
G01 X-1.4843 Y1.1554  
G01 X-1.4789 Y1.1517  
G01 X-1.4743 Y1.1471  
G01 X-1.4706 Y1.1417  
G01 X-1.4681 Y1.1357  
G01 X-1.4669 Y1.1293  
G01 X-1.4669 Y1.1231  
G01 X-1.1477 Y1.1231  
G01 X-1.1432 Y1.1223  
G01 X-1.1390 Y1.1205  
G01 X-1.1352 Y1.1180  
G01 X-1.1320 Y1.1148  
G01 X-1.1295 Y1.1110  
G01 X-1.1277 Y1.1068  
G01 X-1.1269 Y1.1023  
G01 X-1.1269 Y0.9737  
G01 X-1.1169 Y0.9637  
G01 X-1.1169 Y0.9363  
G00 Z0.1000  
G00 X-1.3230 Y0.9288  
G01 Z-0.0021 F10    
G01 X-1.3241 Y0.9261  F20    
G01 X-1.3261 Y0.9241  
G01 X-1.3269 Y0.9238  
G01 X-1.3269 Y0.7977  
G01 X-1.3277 Y0.7932  
G01 X-1.3295 Y0.7890  
G01 X-1.3320 Y0.7852  
G01 X-1.3352 Y0.7820  
G01 X-1.3390 Y0.7795  
G01 X-1.3432 Y0.7777  
G01 X-1.3477 Y0.7769  
G01 X-1.3690 Y0.7769  
G01 X-1.3700 Y0.7754  
G01 X-1.3754 Y0.7700  
G01 X-1.3817 Y0.7657  
G01 X-1.3887 Y0.7628  
G01 X-1.3962 Y0.7614  
G01 X-1.4038 Y0.7614  
G01 X-1.4113 Y0.7628  
G01 X-1.4183 Y0.7657  
G01 X-1.4246 Y0.7700  
G01 X-1.4300 Y0.7754  
G01 X-1.4343 Y0.7817  
G01 X-1.4372 Y0.7887  
G01 X-1.4386 Y0.7962  
G01 X-1.4386 Y0.8038  
G01 X-1.4372 Y0.8113  
G01 X-1.4343 Y0.8183  
G01 X-1.4300 Y0.8246  
G01 X-1.4246 Y0.8300  
G01 X-1.4183 Y0.8343  
G01 X-1.4113 Y0.8372  
G01 X-1.4038 Y0.8386  
G01 X-1.3962 Y0.8386  
G01 X-1.3887 Y0.8372  
G01 X-1.3817 Y0.8343  
G01 X-1.3754 Y0.8300  
G01 X-1.3731 Y0.8278  
G01 X-1.3731 Y0.9238  
G01 X-1.3739 Y0.9241  
G01 X-1.3759 Y0.9261  
G01 X-1.3770 Y0.9288  
G01 X-1.3770 Y0.9712  
G01 X-1.3759 Y0.9739  
G01 X-1.3739 Y0.9759  
G01 X-1.3712 Y0.9770  
G01 X-1.3288 Y0.9770  
G01 X-1.3261 Y0.9759  
G01 X-1.3241 Y0.9739  
G01 X-1.3230 Y0.9712  
G01 X-1.3230 Y0.9288  
G00 Z0.1000  
G00 X-1.6169 Y0.9363  
G01 Z-0.0021 F10    
G01 X-1.6363 Y0.9169  F20    
G01 X-1.6637 Y0.9169  
G01 X-1.6676 Y0.9207  
G01 X-1.8982 Y0.9669  
G01 X-1.9137 Y0.9669  
G01 X-1.9331 Y0.9863  
G01 X-1.9331 Y1.0137  
G01 X-1.9137 Y1.0331  
G01 X-1.8863 Y1.0331  
G01 X-1.8824 Y1.0293  
G01 X-1.6821 Y0.9892  
G01 X-1.6821 Y1.0657  
G01 X-1.6831 Y1.0707  
G01 X-1.6831 Y1.1293  
G01 X-1.6819 Y1.1357  
G01 X-1.6794 Y1.1417  
G01 X-1.6757 Y1.1471  
G01 X-1.6711 Y1.1517  
G01 X-1.6657 Y1.1554  
G01 X-1.6597 Y1.1579  
G01 X-1.6533 Y1.1591  
G01 X-1.6467 Y1.1591  
G01 X-1.6403 Y1.1579  
G01 X-1.6343 Y1.1554  
G01 X-1.6289 Y1.1517  
G01 X-1.6243 Y1.1471  
G01 X-1.6206 Y1.1417  
G01 X-1.6181 Y1.1357  
G01 X-1.6169 Y1.1293  
G01 X-1.6169 Y1.0707  
G01 X-1.6179 Y1.0657  
G01 X-1.6179 Y0.9647  
G01 X-1.6169 Y0.9637  
G01 X-1.6169 Y0.9363  
G00 Z0.1000  
G00 X-1.6295 Y0.7250  
G01 Z-0.0021 F10    
G01 X-1.6250 Y0.7205  F20    
G01 X-1.6215 Y0.7152  
G01 X-1.6191 Y0.7094  
G01 X-1.6179 Y0.7032  
G01 X-1.6179 Y0.5647  
G01 X-1.6169 Y0.5637  
G01 X-1.6169 Y0.5363  
G01 X-1.6179 Y0.5353  
G01 X-1.6179 Y0.4821  
G01 X-1.5147 Y0.4821  
G01 X-1.5137 Y0.4831  
G01 X-1.4863 Y0.4831  
G01 X-1.4669 Y0.4637  
G01 X-1.4669 Y0.4363  
G01 X-1.4863 Y0.4169  
G01 X-1.5137 Y0.4169  
G01 X-1.5147 Y0.4179  
G01 X-1.6532 Y0.4179  
G01 X-1.6594 Y0.4191  
G01 X-1.6652 Y0.4215  
G01 X-1.6705 Y0.4250  
G01 X-1.6750 Y0.4295  
G01 X-1.6785 Y0.4348  
G01 X-1.6809 Y0.4406  
G01 X-1.6821 Y0.4468  
G01 X-1.6821 Y0.5353  
G01 X-1.6831 Y0.5363  
G01 X-1.6831 Y0.5637  
G01 X-1.6821 Y0.5647  
G01 X-1.6821 Y0.6679  
G01 X-1.7629 Y0.6679  
G01 X-1.7629 Y0.6663  
G01 X-1.7643 Y0.6592  
G01 X-1.7671 Y0.6524  
G01 X-1.7711 Y0.6463  
G01 X-1.7763 Y0.6411  
G01 X-1.7824 Y0.6371  
G01 X-1.7892 Y0.6343  
G01 X-1.7963 Y0.6329  
G01 X-1.8037 Y0.6329  
G01 X-1.8108 Y0.6343  
G01 X-1.8176 Y0.6371  
G01 X-1.8237 Y0.6411  
G01 X-1.8289 Y0.6463  
G01 X-1.8329 Y0.6524  
G01 X-1.8357 Y0.6592  
G01 X-1.8371 Y0.6663  
G01 X-1.8371 Y0.7337  
G01 X-1.8357 Y0.7408  
G01 X-1.8329 Y0.7476  
G01 X-1.8289 Y0.7537  
G01 X-1.8237 Y0.7589  
G01 X-1.8176 Y0.7629  
G01 X-1.8108 Y0.7657  
G01 X-1.8037 Y0.7671  
G01 X-1.7963 Y0.7671  
G01 X-1.7892 Y0.7657  
G01 X-1.7824 Y0.7629  
G01 X-1.7763 Y0.7589  
G01 X-1.7711 Y0.7537  
G01 X-1.7671 Y0.7476  
G01 X-1.7643 Y0.7408  
G01 X-1.7629 Y0.7337  
G01 X-1.7629 Y0.7321  
G01 X-1.6468 Y0.7321  
G01 X-1.6406 Y0.7309  
G01 X-1.6348 Y0.7285  
G01 X-1.6295 Y0.7250  
G00 Z0.1000  
G00 X-1.8629 Y0.7337  
G01 Z-0.0021 F10    
G01 X-1.8629 Y0.6663  F20    
G01 X-1.8643 Y0.6592  
G01 X-1.8671 Y0.6524  
G01 X-1.8679 Y0.6512  
G01 X-1.8679 Y0.5821  
G01 X-1.8147 Y0.5821  
G01 X-1.8137 Y0.5831  
G01 X-1.7863 Y0.5831  
G01 X-1.7669 Y0.5637  
G01 X-1.7669 Y0.5363  
G01 X-1.7863 Y0.5169  
G01 X-1.8137 Y0.5169  
G01 X-1.8147 Y0.5179  
G01 X-1.9032 Y0.5179  
G01 X-1.9094 Y0.5191  
G01 X-1.9152 Y0.5215  
G01 X-1.9205 Y0.5250  
G01 X-1.9250 Y0.5295  
G01 X-1.9285 Y0.5348  
G01 X-1.9309 Y0.5406  
G01 X-1.9321 Y0.5468  
G01 X-1.9321 Y0.6512  
G01 X-1.9329 Y0.6524  
G01 X-1.9357 Y0.6592  
G01 X-1.9371 Y0.6663  
G01 X-1.9371 Y0.7337  
G01 X-1.9357 Y0.7408  
G01 X-1.9329 Y0.7476  
G01 X-1.9289 Y0.7537  
G01 X-1.9237 Y0.7589  
G01 X-1.9176 Y0.7629  
G01 X-1.9108 Y0.7657  
G01 X-1.9037 Y0.7671  
G01 X-1.8963 Y0.7671  
G01 X-1.8892 Y0.7657  
G01 X-1.8824 Y0.7629  
G01 X-1.8763 Y0.7589  
G01 X-1.8711 Y0.7537  
G01 X-1.8671 Y0.7476  
G01 X-1.8643 Y0.7408  
G01 X-1.8629 Y0.7337  
G00 Z0.1000  
G00 X-1.9629 Y0.7337  
G01 Z-0.0021 F10    
G01 X-1.9629 Y0.6663  F20    
G01 X-1.9643 Y0.6592  
G01 X-1.9671 Y0.6524  
G01 X-1.9711 Y0.6463  
G01 X-1.9763 Y0.6411  
G01 X-1.9824 Y0.6371  
G01 X-1.9892 Y0.6343  
G01 X-1.9963 Y0.6329  
G01 X-2.0037 Y0.6329  
G01 X-2.0108 Y0.6343  
G01 X-2.0176 Y0.6371  
G01 X-2.0237 Y0.6411  
G01 X-2.0289 Y0.6463  
G01 X-2.0329 Y0.6524  
G01 X-2.0357 Y0.6592  
G01 X-2.0371 Y0.6663  
G01 X-2.0371 Y0.7337  
G01 X-2.0357 Y0.7408  
G01 X-2.0329 Y0.7476  
G01 X-2.0321 Y0.7488  
G01 X-2.0321 Y0.8867  
G01 X-2.1123 Y0.9669  
G01 X-2.1137 Y0.9669  
G01 X-2.1331 Y0.9863  
G01 X-2.1331 Y1.0137  
G01 X-2.1137 Y1.0331  
G01 X-2.0863 Y1.0331  
G01 X-2.0669 Y1.0137  
G01 X-2.0669 Y1.0123  
G01 X-1.9867 Y0.9321  
G01 X-1.9147 Y0.9321  
G01 X-1.9137 Y0.9331  
G01 X-1.8863 Y0.9331  
G01 X-1.8669 Y0.9137  
G01 X-1.8669 Y0.8863  
G01 X-1.8863 Y0.8669  
G01 X-1.9137 Y0.8669  
G01 X-1.9147 Y0.8679  
G01 X-1.9679 Y0.8679  
G01 X-1.9679 Y0.7488  
G01 X-1.9671 Y0.7476  
G01 X-1.9643 Y0.7408  
G01 X-1.9629 Y0.7337  
G00 Z0.1000  
G00 X-1.9712 Y1.1230  
G01 Z-0.0021 F10    
G01 X-1.9739 Y1.1241  F20    
G01 X-1.9759 Y1.1261  
G01 X-1.9770 Y1.1288  
G01 X-1.9770 Y1.1464  
G01 X-1.9771 Y1.1473  
G01 X-1.9771 Y1.1527  
G01 X-1.9770 Y1.1536  
G01 X-1.9770 Y1.1712  
G01 X-1.9759 Y1.1739  
G01 X-1.9739 Y1.1759  
G01 X-1.9712 Y1.1770  
G01 X-1.9536 Y1.1770  
G01 X-1.9527 Y1.1771  
G01 X-1.8112 Y1.1771  
G01 X-1.7173 Y1.2711  
G01 X-1.7129 Y1.2741  
G01 X-1.7079 Y1.2761  
G01 X-1.7027 Y1.2771  
G01 X-1.1771 Y1.2771  
G01 X-1.1771 Y1.3303  
G01 X-1.1831 Y1.3363  
G01 X-1.1831 Y1.3637  
G01 X-1.1771 Y1.3697  
G01 X-1.1771 Y1.4550  
G01 X-1.1794 Y1.4583  
G01 X-1.1819 Y1.4643  
G01 X-1.1831 Y1.4707  
G01 X-1.1831 Y1.5293  
G01 X-1.1819 Y1.5357  
G01 X-1.1794 Y1.5417  
G01 X-1.1757 Y1.5471  
G01 X-1.1711 Y1.5517  
G01 X-1.1657 Y1.5554  
G01 X-1.1597 Y1.5579  
G01 X-1.1533 Y1.5591  
G01 X-1.1467 Y1.5591  
G01 X-1.1403 Y1.5579  
G01 X-1.1343 Y1.5554  
G01 X-1.1289 Y1.5517  
G01 X-1.1243 Y1.5471  
G01 X-1.1206 Y1.5417  
G01 X-1.1181 Y1.5357  
G01 X-1.1169 Y1.5293  
G01 X-1.1169 Y1.4707  
G01 X-1.1181 Y1.4643  
G01 X-1.1206 Y1.4583  
G01 X-1.1229 Y1.4550  
G01 X-1.1229 Y1.3697  
G01 X-1.1169 Y1.3637  
G01 X-1.1169 Y1.3363  
G01 X-1.1229 Y1.3303  
G01 X-1.1229 Y1.2473  
G01 X-1.1239 Y1.2421  
G01 X-1.1259 Y1.2371  
G01 X-1.1289 Y1.2327  
G01 X-1.1327 Y1.2289  
G01 X-1.1371 Y1.2259  
G01 X-1.1421 Y1.2239  
G01 X-1.1473 Y1.2229  
G01 X-1.6888 Y1.2229  
G01 X-1.7789 Y1.1327  
G01 X-1.7827 Y1.1289  
G01 X-1.7871 Y1.1259  
G01 X-1.7921 Y1.1239  
G01 X-1.7973 Y1.1229  
G01 X-1.9527 Y1.1229  
G01 X-1.9536 Y1.1230  
G01 X-1.9712 Y1.1230  
G00 Z0.1000  
G00 X-1.8973 Y1.2229  
G01 Z-0.0021 F10    
G01 X-2.2027 Y1.2229  F20    
G01 X-2.2079 Y1.2239  
G01 X-2.2129 Y1.2259  
G01 X-2.2173 Y1.2289  
G01 X-2.2211 Y1.2327  
G01 X-2.2241 Y1.2371  
G01 X-2.2261 Y1.2421  
G01 X-2.2271 Y1.2473  
G01 X-2.2271 Y1.3446  
G01 X-2.2289 Y1.3463  
G01 X-2.2329 Y1.3524  
G01 X-2.2357 Y1.3592  
G01 X-2.2371 Y1.3663  
G01 X-2.2371 Y1.4337  
G01 X-2.2357 Y1.4408  
G01 X-2.2329 Y1.4476  
G01 X-2.2289 Y1.4537  
G01 X-2.2271 Y1.4554  
G01 X-2.2271 Y1.5729  
G01 X-2.3303 Y1.5729  
G01 X-2.3363 Y1.5669  
G01 X-2.3637 Y1.5669  
G01 X-2.3831 Y1.5863  
G01 X-2.3831 Y1.6137  
G01 X-2.3637 Y1.6331  
G01 X-2.3363 Y1.6331  
G01 X-2.3303 Y1.6271  
G01 X-2.2771 Y1.6271  
G01 X-2.2771 Y1.7803  
G01 X-2.2831 Y1.7863  
G01 X-2.2831 Y1.8137  
G01 X-2.2637 Y1.8331  
G01 X-2.2363 Y1.8331  
G01 X-2.2169 Y1.8137  
G01 X-2.2169 Y1.7863  
G01 X-2.2229 Y1.7803  
G01 X-2.2229 Y1.6271  
G01 X-2.1973 Y1.6271  
G01 X-2.1921 Y1.6261  
G01 X-2.1871 Y1.6241  
G01 X-2.1827 Y1.6211  
G01 X-2.1789 Y1.6173  
G01 X-2.1759 Y1.6129  
G01 X-2.1739 Y1.6079  
G01 X-2.1729 Y1.6027  
G01 X-2.1729 Y1.4554  
G01 X-2.1711 Y1.4537  
G01 X-2.1671 Y1.4476  
G01 X-2.1643 Y1.4408  
G01 X-2.1629 Y1.4337  
G01 X-2.1629 Y1.3663  
G01 X-2.1643 Y1.3592  
G01 X-2.1671 Y1.3524  
G01 X-2.1711 Y1.3463  
G01 X-2.1729 Y1.3446  
G01 X-2.1729 Y1.2771  
G01 X-1.9112 Y1.2771  
G01 X-1.8173 Y1.3711  
G01 X-1.8129 Y1.3741  
G01 X-1.8079 Y1.3761  
G01 X-1.8027 Y1.3771  
G01 X-1.2771 Y1.3771  
G01 X-1.2771 Y1.4550  
G01 X-1.2794 Y1.4583  
G01 X-1.2819 Y1.4643  
G01 X-1.2831 Y1.4707  
G01 X-1.2831 Y1.5293  
G01 X-1.2819 Y1.5357  
G01 X-1.2794 Y1.5417  
G01 X-1.2757 Y1.5471  
G01 X-1.2711 Y1.5517  
G01 X-1.2657 Y1.5554  
G01 X-1.2597 Y1.5579  
G01 X-1.2533 Y1.5591  
G01 X-1.2467 Y1.5591  
G01 X-1.2403 Y1.5579  
G01 X-1.2343 Y1.5554  
G01 X-1.2289 Y1.5517  
G01 X-1.2243 Y1.5471  
G01 X-1.2206 Y1.5417  
G01 X-1.2181 Y1.5357  
G01 X-1.2169 Y1.5293  
G01 X-1.2169 Y1.4707  
G01 X-1.2181 Y1.4643  
G01 X-1.2206 Y1.4583  
G01 X-1.2229 Y1.4550  
G01 X-1.2229 Y1.3697  
G01 X-1.2169 Y1.3637  
G01 X-1.2169 Y1.3363  
G01 X-1.2363 Y1.3169  
G01 X-1.2637 Y1.3169  
G01 X-1.2697 Y1.3229  
G01 X-1.7888 Y1.3229  
G01 X-1.8789 Y1.2327  
G01 X-1.8827 Y1.2289  
G01 X-1.8871 Y1.2259  
G01 X-1.8921 Y1.2239  
G01 X-1.8973 Y1.2229  
G00 Z0.1000  
G00 X-1.9241 Y1.3761  
G01 Z-0.0021 F10    
G01 X-1.9261 Y1.3741  F20    
G01 X-1.9288 Y1.3730  
G01 X-1.9464 Y1.3730  
G01 X-1.9473 Y1.3729  
G01 X-2.0629 Y1.3729  
G01 X-2.0629 Y1.3663  
G01 X-2.0643 Y1.3592  
G01 X-2.0671 Y1.3524  
G01 X-2.0711 Y1.3463  
G01 X-2.0763 Y1.3411  
G01 X-2.0824 Y1.3371  
G01 X-2.0892 Y1.3343  
G01 X-2.0963 Y1.3329  
G01 X-2.1037 Y1.3329  
G01 X-2.1108 Y1.3343  
G01 X-2.1176 Y1.3371  
G01 X-2.1237 Y1.3411  
G01 X-2.1289 Y1.3463  
G01 X-2.1329 Y1.3524  
G01 X-2.1357 Y1.3592  
G01 X-2.1371 Y1.3663  
G01 X-2.1371 Y1.4337  
G01 X-2.1357 Y1.4408  
G01 X-2.1329 Y1.4476  
G01 X-2.1289 Y1.4537  
G01 X-2.1237 Y1.4589  
G01 X-2.1176 Y1.4629  
G01 X-2.1108 Y1.4657  
G01 X-2.1037 Y1.4671  
G01 X-2.0963 Y1.4671  
G01 X-2.0892 Y1.4657  
G01 X-2.0824 Y1.4629  
G01 X-2.0763 Y1.4589  
G01 X-2.0711 Y1.4537  
G01 X-2.0671 Y1.4476  
G01 X-2.0643 Y1.4408  
G01 X-2.0629 Y1.4337  
G01 X-2.0629 Y1.4271  
G01 X-1.9771 Y1.4271  
G01 X-1.9771 Y1.5729  
G01 X-2.0527 Y1.5729  
G01 X-2.0579 Y1.5739  
G01 X-2.0629 Y1.5759  
G01 X-2.0673 Y1.5789  
G01 X-2.0711 Y1.5827  
G01 X-2.0741 Y1.5871  
G01 X-2.0761 Y1.5921  
G01 X-2.0771 Y1.5973  
G01 X-2.0771 Y1.7803  
G01 X-2.0831 Y1.7863  
G01 X-2.0831 Y1.8137  
G01 X-2.0637 Y1.8331  
G01 X-2.0363 Y1.8331  
G01 X-2.0169 Y1.8137  
G01 X-2.0169 Y1.7863  
G01 X-2.0229 Y1.7803  
G01 X-2.0229 Y1.6271  
G01 X-1.9697 Y1.6271  
G01 X-1.9637 Y1.6331  
G01 X-1.9363 Y1.6331  
G01 X-1.9169 Y1.6137  
G01 X-1.9169 Y1.5863  
G01 X-1.9229 Y1.5803  
G01 X-1.9229 Y1.3973  
G01 X-1.9230 Y1.3964  
G01 X-1.9230 Y1.3788  
G01 X-1.9241 Y1.3761  
G00 Z0.1000  
G00 X-1.8137 Y1.4669  
G01 Z-0.0021 F10    
G01 X-1.8331 Y1.4863  F20    
G01 X-1.8331 Y1.5137  
G01 X-1.8271 Y1.5197  
G01 X-1.8271 Y1.6729  
G01 X-1.9527 Y1.6729  
G01 X-1.9579 Y1.6739  
G01 X-1.9629 Y1.6759  
G01 X-1.9673 Y1.6789  
G01 X-1.9711 Y1.6827  
G01 X-1.9741 Y1.6871  
G01 X-1.9761 Y1.6921  
G01 X-1.9771 Y1.6973  
G01 X-1.9771 Y1.8729  
G01 X-2.0303 Y1.8729  
G01 X-2.0363 Y1.8669  
G01 X-2.0637 Y1.8669  
G01 X-2.0697 Y1.8729  
G01 X-2.2303 Y1.8729  
G01 X-2.2363 Y1.8669  
G01 X-2.2637 Y1.8669  
G01 X-2.2831 Y1.8863  
G01 X-2.2831 Y1.9137  
G01 X-2.2637 Y1.9331  
G01 X-2.2363 Y1.9331  
G01 X-2.2303 Y1.9271  
G01 X-2.0697 Y1.9271  
G01 X-2.0637 Y1.9331  
G01 X-2.0363 Y1.9331  
G01 X-2.0303 Y1.9271  
G01 X-1.9473 Y1.9271  
G01 X-1.9421 Y1.9261  
G01 X-1.9371 Y1.9241  
G01 X-1.9327 Y1.9211  
G01 X-1.9289 Y1.9173  
G01 X-1.9259 Y1.9129  
G01 X-1.9239 Y1.9079  
G01 X-1.9229 Y1.9027  
G01 X-1.9229 Y1.7271  
G01 X-1.7973 Y1.7271  
G01 X-1.7921 Y1.7261  
G01 X-1.7871 Y1.7241  
G01 X-1.7827 Y1.7211  
G01 X-1.7789 Y1.7173  
G01 X-1.7759 Y1.7129  
G01 X-1.7739 Y1.7079  
G01 X-1.7729 Y1.7027  
G01 X-1.7729 Y1.5197  
G01 X-1.7669 Y1.5137  
G01 X-1.7669 Y1.4863  
G01 X-1.7863 Y1.4669  
G01 X-1.8137 Y1.4669  
G00 Z0.1000  
G00 X-1.6819 Y1.4643  
G01 Z-0.0021 F10    
G01 X-1.6831 Y1.4707  F20    
G01 X-1.6831 Y1.5293  
G01 X-1.6819 Y1.5357  
G01 X-1.6794 Y1.5417  
G01 X-1.6757 Y1.5471  
G01 X-1.6711 Y1.5517  
G01 X-1.6657 Y1.5554  
G01 X-1.6597 Y1.5579  
G01 X-1.6533 Y1.5591  
G01 X-1.6467 Y1.5591  
G01 X-1.6403 Y1.5579  
G01 X-1.6343 Y1.5554  
G01 X-1.6289 Y1.5517  
G01 X-1.6243 Y1.5471  
G01 X-1.6206 Y1.5417  
G01 X-1.6181 Y1.5357  
G01 X-1.6174 Y1.5321  
G01 X-1.5326 Y1.5321  
G01 X-1.5321 Y1.5343  
G01 X-1.5321 Y1.9657  
G01 X-1.5331 Y1.9707  
G01 X-1.5331 Y2.0293  
G01 X-1.5319 Y2.0357  
G01 X-1.5294 Y2.0417  
G01 X-1.5257 Y2.0471  
G01 X-1.5211 Y2.0517  
G01 X-1.5157 Y2.0554  
G01 X-1.5097 Y2.0579  
G01 X-1.5033 Y2.0591  
G01 X-1.4967 Y2.0591  
G01 X-1.4903 Y2.0579  
G01 X-1.4843 Y2.0554  
G01 X-1.4789 Y2.0517  
G01 X-1.4743 Y2.0471  
G01 X-1.4706 Y2.0417  
G01 X-1.4681 Y2.0357  
G01 X-1.4669 Y2.0293  
G01 X-1.4669 Y1.9707  
G01 X-1.4679 Y1.9657  
G01 X-1.4679 Y1.8321  
G01 X-1.3826 Y1.8321  
G01 X-1.3819 Y1.8357  
G01 X-1.3794 Y1.8417  
G01 X-1.3757 Y1.8471  
G01 X-1.3711 Y1.8517  
G01 X-1.3657 Y1.8554  
G01 X-1.3597 Y1.8579  
G01 X-1.3533 Y1.8591  
G01 X-1.3467 Y1.8591  
G01 X-1.3403 Y1.8579  
G01 X-1.3343 Y1.8554  
G01 X-1.3289 Y1.8517  
G01 X-1.3243 Y1.8471  
G01 X-1.3206 Y1.8417  
G01 X-1.3181 Y1.8357  
G01 X-1.3169 Y1.8293  
G01 X-1.3169 Y1.7707  
G01 X-1.3181 Y1.7643  
G01 X-1.3206 Y1.7583  
G01 X-1.3243 Y1.7529  
G01 X-1.3289 Y1.7483  
G01 X-1.3343 Y1.7446  
G01 X-1.3403 Y1.7421  
G01 X-1.3467 Y1.7409  
G01 X-1.3533 Y1.7409  
G01 X-1.3597 Y1.7421  
G01 X-1.3657 Y1.7446  
G01 X-1.3711 Y1.7483  
G01 X-1.3757 Y1.7529  
G01 X-1.3794 Y1.7583  
G01 X-1.3819 Y1.7643  
G01 X-1.3826 Y1.7679  
G01 X-1.4679 Y1.7679  
G01 X-1.4679 Y1.5343  
G01 X-1.4669 Y1.5293  
G01 X-1.4669 Y1.4707  
G01 X-1.4681 Y1.4643  
G01 X-1.4706 Y1.4583  
G01 X-1.4743 Y1.4529  
G01 X-1.4789 Y1.4483  
G01 X-1.4843 Y1.4446  
G01 X-1.4903 Y1.4421  
G01 X-1.4967 Y1.4409  
G01 X-1.5033 Y1.4409  
G01 X-1.5097 Y1.4421  
G01 X-1.5157 Y1.4446  
G01 X-1.5211 Y1.4483  
G01 X-1.5257 Y1.4529  
G01 X-1.5294 Y1.4583  
G01 X-1.5319 Y1.4643  
G01 X-1.5326 Y1.4679  
G01 X-1.6174 Y1.4679  
G01 X-1.6181 Y1.4643  
G01 X-1.6206 Y1.4583  
G01 X-1.6243 Y1.4529  
G01 X-1.6289 Y1.4483  
G01 X-1.6343 Y1.4446  
G01 X-1.6403 Y1.4421  
G01 X-1.6467 Y1.4409  
G01 X-1.6533 Y1.4409  
G01 X-1.6597 Y1.4421  
G01 X-1.6657 Y1.4446  
G01 X-1.6711 Y1.4483  
G01 X-1.6757 Y1.4529  
G01 X-1.6794 Y1.4583  
G01 X-1.6819 Y1.4643  
G00 Z0.1000  
G00 X-1.3819 Y1.4643  
G01 Z-0.0021 F10    
G01 X-1.3831 Y1.4707  F20    
G01 X-1.3831 Y1.5293  
G01 X-1.3819 Y1.5357  
G01 X-1.3794 Y1.5417  
G01 X-1.3757 Y1.5471  
G01 X-1.3731 Y1.5497  
G01 X-1.3731 Y1.6523  
G01 X-1.3723 Y1.6568  
G01 X-1.3705 Y1.6610  
G01 X-1.3680 Y1.6648  
G01 X-1.3648 Y1.6680  
G01 X-1.3610 Y1.6705  
G01 X-1.3568 Y1.6723  
G01 X-1.3523 Y1.6731  
G01 X-1.2151 Y1.6731  
G01 X-1.2151 Y1.9683  
G01 X-1.2331 Y1.9863  
G01 X-1.2331 Y2.0137  
G01 X-1.2137 Y2.0331  
G01 X-1.1863 Y2.0331  
G01 X-1.1669 Y2.0137  
G01 X-1.1669 Y1.9863  
G01 X-1.1849 Y1.9683  
G01 X-1.1849 Y1.6731  
G01 X-0.9015 Y1.6731  
G01 X-0.9006 Y1.6733  
G01 X-0.8992 Y1.6731  
G01 X-0.8977 Y1.6731  
G01 X-0.8969 Y1.6730  
G01 X-0.8961 Y1.6729  
G01 X-0.8947 Y1.6725  
G01 X-0.8932 Y1.6723  
G01 X-0.8925 Y1.6719  
G01 X-0.8917 Y1.6717  
G01 X-0.8904 Y1.6711  
G01 X-0.8890 Y1.6705  
G01 X-0.8883 Y1.6701  
G01 X-0.8140 Y1.6329  
G01 X-0.8137 Y1.6331  
G01 X-0.7863 Y1.6331  
G01 X-0.7803 Y1.6271  
G01 X-0.6473 Y1.6271  
G01 X-0.6421 Y1.6261  
G01 X-0.6371 Y1.6241  
G01 X-0.6327 Y1.6211  
G01 X-0.6289 Y1.6173  
G01 X-0.6259 Y1.6129  
G01 X-0.6239 Y1.6079  
G01 X-0.6229 Y1.6027  
G01 X-0.6229 Y1.4275  
G01 X-0.6200 Y1.4246  
G01 X-0.6157 Y1.4183  
G01 X-0.6128 Y1.4113  
G01 X-0.6114 Y1.4038  
G01 X-0.6114 Y1.3962  
G01 X-0.6128 Y1.3887  
G01 X-0.6157 Y1.3817  
G01 X-0.6200 Y1.3754  
G01 X-0.6254 Y1.3700  
G01 X-0.6317 Y1.3657  
G01 X-0.6387 Y1.3628  
G01 X-0.6462 Y1.3614  
G01 X-0.6538 Y1.3614  
G01 X-0.6613 Y1.3628  
G01 X-0.6683 Y1.3657  
G01 X-0.6746 Y1.3700  
G01 X-0.6800 Y1.3754  
G01 X-0.6843 Y1.3817  
G01 X-0.6872 Y1.3887  
G01 X-0.6886 Y1.3962  
G01 X-0.6886 Y1.4038  
G01 X-0.6872 Y1.4113  
G01 X-0.6843 Y1.4183  
G01 X-0.6800 Y1.4246  
G01 X-0.6771 Y1.4275  
G01 X-0.6771 Y1.5729  
G01 X-0.7803 Y1.5729  
G01 X-0.7863 Y1.5669  
G01 X-0.8137 Y1.5669  
G01 X-0.8331 Y1.5863  
G01 X-0.8331 Y1.5907  
G01 X-0.9055 Y1.6269  
G01 X-1.3269 Y1.6269  
G01 X-1.3269 Y1.5497  
G01 X-1.3243 Y1.5471  
G01 X-1.3206 Y1.5417  
G01 X-1.3181 Y1.5357  
G01 X-1.3169 Y1.5293  
G01 X-1.3169 Y1.4707  
G01 X-1.3181 Y1.4643  
G01 X-1.3206 Y1.4583  
G01 X-1.3243 Y1.4529  
G01 X-1.3289 Y1.4483  
G01 X-1.3343 Y1.4446  
G01 X-1.3403 Y1.4421  
G01 X-1.3467 Y1.4409  
G01 X-1.3533 Y1.4409  
G01 X-1.3597 Y1.4421  
G01 X-1.3657 Y1.4446  
G01 X-1.3711 Y1.4483  
G01 X-1.3757 Y1.4529  
G01 X-1.3794 Y1.4583  
G01 X-1.3819 Y1.4643  
G00 Z0.1000  
G00 X-1.0819 Y1.4643  
G01 Z-0.0021 F10    
G01 X-1.0831 Y1.4707  F20    
G01 X-1.0831 Y1.5293  
G01 X-1.0819 Y1.5357  
G01 X-1.0794 Y1.5417  
G01 X-1.0757 Y1.5471  
G01 X-1.0711 Y1.5517  
G01 X-1.0657 Y1.5554  
G01 X-1.0597 Y1.5579  
G01 X-1.0533 Y1.5591  
G01 X-1.0467 Y1.5591  
G01 X-1.0403 Y1.5579  
G01 X-1.0343 Y1.5554  
G01 X-1.0289 Y1.5517  
G01 X-1.0243 Y1.5471  
G01 X-1.0206 Y1.5417  
G01 X-1.0181 Y1.5357  
G01 X-1.0169 Y1.5293  
G01 X-1.0169 Y1.5271  
G01 X-0.8973 Y1.5271  
G01 X-0.8921 Y1.5261  
G01 X-0.8871 Y1.5241  
G01 X-0.8827 Y1.5211  
G01 X-0.8789 Y1.5173  
G01 X-0.8759 Y1.5129  
G01 X-0.8739 Y1.5079  
G01 X-0.8729 Y1.5027  
G01 X-0.8729 Y1.2871  
G01 X-0.8663 Y1.2871  
G01 X-0.8592 Y1.2857  
G01 X-0.8524 Y1.2829  
G01 X-0.8463 Y1.2789  
G01 X-0.8446 Y1.2771  
G01 X-0.7697 Y1.2771  
G01 X-0.7637 Y1.2831  
G01 X-0.7363 Y1.2831  
G01 X-0.7169 Y1.2637  
G01 X-0.7169 Y1.2363  
G01 X-0.7363 Y1.2169  
G01 X-0.7637 Y1.2169  
G01 X-0.7697 Y1.2229  
G01 X-0.8446 Y1.2229  
G01 X-0.8463 Y1.2211  
G01 X-0.8524 Y1.2171  
G01 X-0.8592 Y1.2143  
G01 X-0.8663 Y1.2129  
G01 X-0.9337 Y1.2129  
G01 X-0.9408 Y1.2143  
G01 X-0.9476 Y1.2171  
G01 X-0.9537 Y1.2211  
G01 X-0.9589 Y1.2263  
G01 X-0.9629 Y1.2324  
G01 X-0.9657 Y1.2392  
G01 X-0.9671 Y1.2463  
G01 X-0.9671 Y1.2537  
G01 X-0.9657 Y1.2608  
G01 X-0.9629 Y1.2676  
G01 X-0.9589 Y1.2737  
G01 X-0.9537 Y1.2789  
G01 X-0.9476 Y1.2829  
G01 X-0.9408 Y1.2857  
G01 X-0.9337 Y1.2871  
G01 X-0.9271 Y1.2871  
G01 X-0.9271 Y1.4729  
G01 X-1.0169 Y1.4729  
G01 X-1.0169 Y1.4707  
G01 X-1.0181 Y1.4643  
G01 X-1.0206 Y1.4583  
G01 X-1.0243 Y1.4529  
G01 X-1.0289 Y1.4483  
G01 X-1.0343 Y1.4446  
G01 X-1.0403 Y1.4421  
G01 X-1.0467 Y1.4409  
G01 X-1.0533 Y1.4409  
G01 X-1.0597 Y1.4421  
G01 X-1.0657 Y1.4446  
G01 X-1.0711 Y1.4483  
G01 X-1.0757 Y1.4529  
G01 X-1.0794 Y1.4583  
G01 X-1.0819 Y1.4643  
G00 Z0.1000  
G00 X-1.0711 Y1.7483  
G01 Z-0.0021 F10    
G01 X-1.0757 Y1.7529  F20    
G01 X-1.0794 Y1.7583  
G01 X-1.0819 Y1.7643  
G01 X-1.0831 Y1.7707  
G01 X-1.0831 Y1.8293  
G01 X-1.0819 Y1.8357  
G01 X-1.0794 Y1.8417  
G01 X-1.0757 Y1.8471  
G01 X-1.0711 Y1.8517  
G01 X-1.0657 Y1.8554  
G01 X-1.0597 Y1.8579  
G01 X-1.0533 Y1.8591  
G01 X-1.0467 Y1.8591  
G01 X-1.0403 Y1.8579  
G01 X-1.0343 Y1.8554  
G01 X-1.0289 Y1.8517  
G01 X-1.0243 Y1.8471  
G01 X-1.0206 Y1.8417  
G01 X-1.0181 Y1.8357  
G01 X-1.0169 Y1.8293  
G01 X-1.0169 Y1.8271  
G01 X-0.8271 Y1.8271  
G01 X-0.8271 Y1.9027  
G01 X-0.8261 Y1.9079  
G01 X-0.8241 Y1.9129  
G01 X-0.8211 Y1.9173  
G01 X-0.8173 Y1.9211  
G01 X-0.8129 Y1.9241  
G01 X-0.8079 Y1.9261  
G01 X-0.8027 Y1.9271  
G01 X-0.6775 Y1.9271  
G01 X-0.6660 Y1.9386  
G01 X-0.6340 Y1.9386  
G01 X-0.6114 Y1.9160  
G01 X-0.6114 Y1.8840  
G01 X-0.6340 Y1.8614  
G01 X-0.6660 Y1.8614  
G01 X-0.6775 Y1.8729  
G01 X-0.7729 Y1.8729  
G01 X-0.7729 Y1.7197  
G01 X-0.7669 Y1.7137  
G01 X-0.7669 Y1.6863  
G01 X-0.7863 Y1.6669  
G01 X-0.8137 Y1.6669  
G01 X-0.8331 Y1.6863  
G01 X-0.8331 Y1.7137  
G01 X-0.8271 Y1.7197  
G01 X-0.8271 Y1.7729  
G01 X-1.0169 Y1.7729  
G01 X-1.0169 Y1.7707  
G01 X-1.0181 Y1.7643  
G01 X-1.0206 Y1.7583  
G01 X-1.0243 Y1.7529  
G01 X-1.0289 Y1.7483  
G01 X-1.0343 Y1.7446  
G01 X-1.0403 Y1.7421  
G01 X-1.0467 Y1.7409  
G01 X-1.0533 Y1.7409  
G01 X-1.0597 Y1.7421  
G01 X-1.0657 Y1.7446  
G01 X-1.0711 Y1.7483  
G00 Z0.1000  
G00 X-1.1243 Y1.7529  
G01 Z-0.0021 F10    
G01 X-1.1289 Y1.7483  F20    
G01 X-1.1343 Y1.7446  
G01 X-1.1403 Y1.7421  
G01 X-1.1467 Y1.7409  
G01 X-1.1533 Y1.7409  
G01 X-1.1597 Y1.7421  
G01 X-1.1657 Y1.7446  
G01 X-1.1711 Y1.7483  
G01 X-1.1757 Y1.7529  
G01 X-1.1794 Y1.7583  
G01 X-1.1819 Y1.7643  
G01 X-1.1831 Y1.7707  
G01 X-1.1831 Y1.8293  
G01 X-1.1819 Y1.8357  
G01 X-1.1794 Y1.8417  
G01 X-1.1757 Y1.8471  
G01 X-1.1711 Y1.8517  
G01 X-1.1657 Y1.8554  
G01 X-1.1597 Y1.8579  
G01 X-1.1533 Y1.8591  
G01 X-1.1508 Y1.8591  
G01 X-1.1247 Y1.9113  
G01 X-1.1241 Y1.9129  
G01 X-1.1235 Y1.9137  
G01 X-1.1231 Y1.9145  
G01 X-1.1220 Y1.9159  
G01 X-1.1211 Y1.9173  
G01 X-1.1204 Y1.9180  
G01 X-1.1198 Y1.9188  
G01 X-1.1185 Y1.9199  
G01 X-1.0237 Y2.0147  
G01 X-0.9831 Y2.1364  
G01 X-0.9831 Y2.1637  
G01 X-0.9771 Y2.1697  
G01 X-0.9771 Y2.2303  
G01 X-0.9831 Y2.2363  
G01 X-0.9831 Y2.2637  
G01 X-0.9637 Y2.2831  
G01 X-0.9363 Y2.2831  
G01 X-0.9169 Y2.2637  
G01 X-0.9169 Y2.2363  
G01 X-0.9229 Y2.2303  
G01 X-0.9229 Y2.1697  
G01 X-0.9169 Y2.1637  
G01 X-0.9169 Y2.1363  
G01 X-0.9305 Y2.1226  
G01 X-0.9737 Y1.9930  
G01 X-0.9739 Y1.9921  
G01 X-0.9745 Y1.9905  
G01 X-0.9751 Y1.9889  
G01 X-0.9756 Y1.9880  
G01 X-0.9759 Y1.9871  
G01 X-0.9769 Y1.9857  
G01 X-0.9777 Y1.9842  
G01 X-0.9784 Y1.9835  
G01 X-0.9789 Y1.9827  
G01 X-0.9801 Y1.9815  
G01 X-0.9812 Y1.9802  
G01 X-0.9820 Y1.9796  
G01 X-1.0777 Y1.8839  
G01 X-1.1169 Y1.8056  
G01 X-1.1169 Y1.7707  
G01 X-1.1181 Y1.7643  
G01 X-1.1206 Y1.7583  
G01 X-1.1243 Y1.7529  
G00 Z0.1000  
G00 X-1.2243 Y1.7529  
G01 Z-0.0021 F10    
G01 X-1.2289 Y1.7483  F20    
G01 X-1.2343 Y1.7446  
G01 X-1.2403 Y1.7421  
G01 X-1.2467 Y1.7409  
G01 X-1.2533 Y1.7409  
G01 X-1.2597 Y1.7421  
G01 X-1.2657 Y1.7446  
G01 X-1.2711 Y1.7483  
G01 X-1.2757 Y1.7529  
G01 X-1.2794 Y1.7583  
G01 X-1.2819 Y1.7643  
G01 X-1.2831 Y1.7707  
G01 X-1.2831 Y1.8056  
G01 X-1.3638 Y1.9669  
G01 X-1.3831 Y1.9863  
G01 X-1.3831 Y2.0137  
G01 X-1.3637 Y2.0331  
G01 X-1.3363 Y2.0331  
G01 X-1.3169 Y2.0137  
G01 X-1.3169 Y1.9944  
G01 X-1.2492 Y1.8591  
G01 X-1.2467 Y1.8591  
G01 X-1.2403 Y1.8579  
G01 X-1.2343 Y1.8554  
G01 X-1.2289 Y1.8517  
G01 X-1.2243 Y1.8471  
G01 X-1.2206 Y1.8417  
G01 X-1.2181 Y1.8357  
G01 X-1.2169 Y1.8293  
G01 X-1.2169 Y1.7707  
G01 X-1.2181 Y1.7643  
G01 X-1.2206 Y1.7583  
G01 X-1.2243 Y1.7529  
G00 Z0.1000  
G00 X-1.2137 Y2.3669  
G01 Z-0.0021 F10    
G01 X-1.2331 Y2.3863  F20    
G01 X-1.2331 Y2.4137  
G01 X-1.2271 Y2.4197  
G01 X-1.2271 Y2.4946  
G01 X-1.2289 Y2.4963  
G01 X-1.2329 Y2.5024  
G01 X-1.2357 Y2.5092  
G01 X-1.2371 Y2.5163  
G01 X-1.2371 Y2.5837  
G01 X-1.2357 Y2.5908  
G01 X-1.2329 Y2.5976  
G01 X-1.2289 Y2.6037  
G01 X-1.2237 Y2.6089  
G01 X-1.2176 Y2.6129  
G01 X-1.2108 Y2.6157  
G01 X-1.2037 Y2.6171  
G01 X-1.1963 Y2.6171  
G01 X-1.1892 Y2.6157  
G01 X-1.1824 Y2.6129  
G01 X-1.1763 Y2.6089  
G01 X-1.1711 Y2.6037  
G01 X-1.1671 Y2.5976  
G01 X-1.1643 Y2.5908  
G01 X-1.1629 Y2.5837  
G01 X-1.1629 Y2.5163  
G01 X-1.1643 Y2.5092  
G01 X-1.1671 Y2.5024  
G01 X-1.1711 Y2.4963  
G01 X-1.1729 Y2.4946  
G01 X-1.1729 Y2.4197  
G01 X-1.1669 Y2.4137  
G01 X-1.1669 Y2.3863  
G01 X-1.1863 Y2.3669  
G01 X-1.2137 Y2.3669  
G00 Z0.1000  
G00 X-1.2789 Y2.3827  
G01 Z-0.0021 F10    
G01 X-1.2827 Y2.3789  F20    
G01 X-1.2871 Y2.3759  
G01 X-1.2921 Y2.3739  
G01 X-1.2973 Y2.3729  
G01 X-1.3303 Y2.3729  
G01 X-1.3363 Y2.3669  
G01 X-1.3637 Y2.3669  
G01 X-1.3831 Y2.3863  
G01 X-1.3831 Y2.4137  
G01 X-1.3637 Y2.4331  
G01 X-1.3363 Y2.4331  
G01 X-1.3303 Y2.4271  
G01 X-1.3271 Y2.4271  
G01 X-1.3271 Y2.4946  
G01 X-1.3289 Y2.4963  
G01 X-1.3329 Y2.5024  
G01 X-1.3357 Y2.5092  
G01 X-1.3371 Y2.5163  
G01 X-1.3371 Y2.5837  
G01 X-1.3357 Y2.5908  
G01 X-1.3329 Y2.5976  
G01 X-1.3289 Y2.6037  
G01 X-1.3237 Y2.6089  
G01 X-1.3176 Y2.6129  
G01 X-1.3108 Y2.6157  
G01 X-1.3037 Y2.6171  
G01 X-1.2963 Y2.6171  
G01 X-1.2892 Y2.6157  
G01 X-1.2824 Y2.6129  
G01 X-1.2763 Y2.6089  
G01 X-1.2711 Y2.6037  
G01 X-1.2671 Y2.5976  
G01 X-1.2643 Y2.5908  
G01 X-1.2629 Y2.5837  
G01 X-1.2629 Y2.5163  
G01 X-1.2643 Y2.5092  
G01 X-1.2671 Y2.5024  
G01 X-1.2711 Y2.4963  
G01 X-1.2729 Y2.4946  
G01 X-1.2729 Y2.3973  
G01 X-1.2739 Y2.3921  
G01 X-1.2759 Y2.3871  
G01 X-1.2789 Y2.3827  
G00 Z0.1000  
G00 X-1.4669 Y2.3707  
G01 Z-0.0021 F10    
G01 X-1.4681 Y2.3643  F20    
G01 X-1.4706 Y2.3583  
G01 X-1.4743 Y2.3529  
G01 X-1.4789 Y2.3483  
G01 X-1.4843 Y2.3446  
G01 X-1.4903 Y2.3421  
G01 X-1.4967 Y2.3409  
G01 X-1.5033 Y2.3409  
G01 X-1.5097 Y2.3421  
G01 X-1.5157 Y2.3446  
G01 X-1.5211 Y2.3483  
G01 X-1.5257 Y2.3529  
G01 X-1.5294 Y2.3583  
G01 X-1.5319 Y2.3643  
G01 X-1.5331 Y2.3707  
G01 X-1.5331 Y2.3729  
G01 X-1.5729 Y2.3729  
G01 X-1.5729 Y2.3697  
G01 X-1.5669 Y2.3637  
G01 X-1.5669 Y2.3363  
G01 X-1.5863 Y2.3169  
G01 X-1.6137 Y2.3169  
G01 X-1.6331 Y2.3363  
G01 X-1.6331 Y2.3637  
G01 X-1.6271 Y2.3697  
G01 X-1.6271 Y2.5229  
G01 X-1.6803 Y2.5229  
G01 X-1.6863 Y2.5169  
G01 X-1.7137 Y2.5169  
G01 X-1.7331 Y2.5363  
G01 X-1.7331 Y2.5637  
G01 X-1.7137 Y2.5831  
G01 X-1.6863 Y2.5831  
G01 X-1.6803 Y2.5771  
G01 X-1.5973 Y2.5771  
G01 X-1.5921 Y2.5761  
G01 X-1.5871 Y2.5741  
G01 X-1.5827 Y2.5711  
G01 X-1.5789 Y2.5673  
G01 X-1.5759 Y2.5629  
G01 X-1.5739 Y2.5579  
G01 X-1.5729 Y2.5527  
G01 X-1.5729 Y2.4271  
G01 X-1.5331 Y2.4271  
G01 X-1.5331 Y2.4293  
G01 X-1.5319 Y2.4357  
G01 X-1.5294 Y2.4417  
G01 X-1.5257 Y2.4471  
G01 X-1.5211 Y2.4517  
G01 X-1.5157 Y2.4554  
G01 X-1.5097 Y2.4579  
G01 X-1.5033 Y2.4591  
G01 X-1.4967 Y2.4591  
G01 X-1.4903 Y2.4579  
G01 X-1.4843 Y2.4554  
G01 X-1.4789 Y2.4517  
G01 X-1.4743 Y2.4471  
G01 X-1.4706 Y2.4417  
G01 X-1.4681 Y2.4357  
G01 X-1.4669 Y2.4293  
G01 X-1.4669 Y2.3707  
G00 Z0.1000  
G00 X-1.8789 Y2.3673  
G01 Z-0.0021 F10    
G01 X-1.8759 Y2.3629  F20    
G01 X-1.8739 Y2.3579  
G01 X-1.8729 Y2.3527  
G01 X-1.8729 Y2.1831  
G01 X-1.8613 Y2.1831  
G01 X-1.8419 Y2.1637  
G01 X-1.8419 Y2.1363  
G01 X-1.8613 Y2.1169  
G01 X-1.8887 Y2.1169  
G01 X-1.8952 Y2.1233  
G01 X-1.8973 Y2.1229  
G01 X-1.9027 Y2.1229  
G01 X-1.9079 Y2.1239  
G01 X-1.9129 Y2.1259  
G01 X-1.9173 Y2.1289  
G01 X-1.9211 Y2.1327  
G01 X-1.9241 Y2.1371  
G01 X-1.9261 Y2.1421  
G01 X-1.9271 Y2.1473  
G01 X-1.9271 Y2.3229  
G01 X-1.9803 Y2.3229  
G01 X-1.9863 Y2.3169  
G01 X-2.0137 Y2.3169  
G01 X-2.0331 Y2.3363  
G01 X-2.0331 Y2.3637  
G01 X-2.0137 Y2.3831  
G01 X-1.9863 Y2.3831  
G01 X-1.9803 Y2.3771  
G01 X-1.8973 Y2.3771  
G01 X-1.8921 Y2.3761  
G01 X-1.8871 Y2.3741  
G01 X-1.8827 Y2.3711  
G01 X-1.8789 Y2.3673  
G00 Z0.1000  
G00 X-1.8331 Y2.1137  
G01 Z-0.0021 F10    
G01 X-1.8137 Y2.1331  F20    
G01 X-1.7863 Y2.1331  
G01 X-1.7669 Y2.1137  
G01 X-1.7669 Y2.0863  
G01 X-1.7729 Y2.0803  
G01 X-1.7729 Y2.0020  
G01 X-1.7728 Y2.0014  
G01 X-1.7729 Y1.9993  
G01 X-1.7729 Y1.9197  
G01 X-1.7669 Y1.9137  
G01 X-1.7669 Y1.8863  
G01 X-1.7863 Y1.8669  
G01 X-1.8137 Y1.8669  
G01 X-1.8331 Y1.8863  
G01 X-1.8331 Y1.9137  
G01 X-1.8271 Y1.9197  
G01 X-1.8271 Y1.9788  
G01 X-2.0059 Y2.0235  
G01 X-2.0079 Y2.0239  
G01 X-2.0085 Y2.0241  
G01 X-2.0092 Y2.0243  
G01 X-2.0110 Y2.0252  
G01 X-2.0129 Y2.0259  
G01 X-2.0134 Y2.0263  
G01 X-2.0140 Y2.0266  
G01 X-2.0156 Y2.0278  
G01 X-2.0173 Y2.0289  
G01 X-2.0178 Y2.0294  
G01 X-2.0183 Y2.0298  
G01 X-2.0197 Y2.0313  
G01 X-2.0211 Y2.0327  
G01 X-2.0215 Y2.0332  
G01 X-2.0219 Y2.0337  
G01 X-2.0229 Y2.0355  
G01 X-2.0241 Y2.0371  
G01 X-2.0243 Y2.0378  
G01 X-2.0247 Y2.0383  
G01 X-2.0253 Y2.0402  
G01 X-2.0261 Y2.0421  
G01 X-2.0262 Y2.0427  
G01 X-2.0265 Y2.0434  
G01 X-2.0268 Y2.0454  
G01 X-2.0271 Y2.0473  
G01 X-2.0271 Y2.0480  
G01 X-2.0272 Y2.0486  
G01 X-2.0271 Y2.0507  
G01 X-2.0271 Y2.1229  
G01 X-2.2946 Y2.1229  
G01 X-2.2963 Y2.1211  
G01 X-2.3024 Y2.1171  
G01 X-2.3092 Y2.1143  
G01 X-2.3163 Y2.1129  
G01 X-2.3837 Y2.1129  
G01 X-2.3908 Y2.1143  
G01 X-2.3976 Y2.1171  
G01 X-2.4037 Y2.1211  
G01 X-2.4089 Y2.1263  
G01 X-2.4129 Y2.1324  
G01 X-2.4157 Y2.1392  
G01 X-2.4171 Y2.1463  
G01 X-2.4171 Y2.1537  
G01 X-2.4157 Y2.1608  
G01 X-2.4129 Y2.1676  
G01 X-2.4089 Y2.1737  
G01 X-2.4037 Y2.1789  
G01 X-2.3976 Y2.1829  
G01 X-2.3908 Y2.1857  
G01 X-2.3837 Y2.1871  
G01 X-2.3821 Y2.1871  
G01 X-2.3821 Y2.2129  
G01 X-2.3837 Y2.2129  
G01 X-2.3908 Y2.2143  
